;FLAVOR:Marlin
;TIME:5088
;Filament used: 9.39383m
;Layer height: 0.4
;MINX:72.2
;MINY:57.3
;MINZ:0.3
;MAXX:177.8
;MAXY:197.7
;MAXZ:13.1
;Generated with Cura_SteamEngine 5.3.0
M140 S60
M105
M190 S60
M104 S200
M105
M109 S200
M82 ;absolute extrusion mode
G21 ;metric values
G90 ;absolute positioning
M82 ;set extruder to absolute mode
M107 ;start with the fan off
G28 X0 Y0 ;move X/Y to min endstops
M300 S1318 P266
G28 Z0 ;move Z to min endstops
G0 Z0.2
G92 E0 ;zero the extruded length
G1 X40 E25 F400 ; Extrude 25mm of filament in a 4cm line. Reduce speed (F) if you have a nozzle smaller than 0.4mm!
G92 E0 ;zero the extruded length again
G1 E-1 F500 ; Retract a little
G1 X80 F4000 ; Quickly wipe away from the filament line
M117 ; Printing…
G5
G92 E0
G92 E0
G1 F1500 E-6.5
;LAYER_COUNT:33
;LAYER:0
M107
G0 F3600 X73.56 Y60.668 Z0.3
;TYPE:SKIRT
G1 F1500 E0
G1 F1800 X74.42 Y59.639 E0.06691
G1 X75.739 Y58.564 E0.1518
G1 X77.718 Y57.574 E0.2622
G1 X79.246 Y57.352 E0.33923
G1 X92.238 Y57.3 E0.98741
G1 X94.279 Y57.65 E1.09072
G1 X95.805 Y58.46 E1.17691
G1 X97.096 Y59.374 E1.25583
G1 X97.998 Y60.489 E1.32738
G1 X98.525 Y59.748 E1.37274
G1 X100.004 Y58.551 E1.46767
G1 X101.971 Y57.574 E1.57724
G1 X103.494 Y57.352 E1.65403
G1 X119.243 Y57.3 E2.43975
G1 X121.283 Y57.65 E2.54302
G1 X122.808 Y58.46 E2.62916
G1 X124.099 Y59.374 E2.70808
G1 X125 Y60.489 E2.7796
G1 X125.527 Y59.748 E2.82497
G1 X127.006 Y58.551 E2.91989
G1 X128.973 Y57.574 E3.02946
G1 X130.496 Y57.352 E3.10625
G1 X146.245 Y57.3 E3.89197
G1 X148.285 Y57.65 E3.99524
G1 X149.81 Y58.46 E4.08139
G1 X151.101 Y59.374 E4.1603
G1 X152.003 Y60.489 E4.23185
G1 X152.53 Y59.748 E4.27722
G1 X154.009 Y58.551 E4.37214
G1 X155.976 Y57.574 E4.48172
G1 X157.499 Y57.352 E4.5585
G1 X170.491 Y57.3 E5.20668
G1 X172.532 Y57.65 E5.30999
G1 X174.058 Y58.46 E5.39619
G1 X175.349 Y59.374 E5.4751
G1 X176.55 Y60.858 E5.57035
G1 X177.526 Y62.823 E5.67981
G1 X177.748 Y64.346 E5.75659
G1 X177.8 Y190.664 E12.05862
G1 X177.335 Y192.645 E12.16014
G1 X176.44 Y194.332 E12.25542
G1 X175.58 Y195.361 E12.32233
G1 X174.261 Y196.436 E12.40722
G1 X172.282 Y197.426 E12.51762
G1 X170.754 Y197.648 E12.59465
G1 X79.236 Y197.7 E17.1605
G1 X77.255 Y197.235 E17.26202
G1 X75.568 Y196.34 E17.35729
G1 X74.539 Y195.48 E17.4242
G1 X73.464 Y194.161 E17.50909
G1 X72.474 Y192.182 E17.61949
G1 X72.252 Y190.654 E17.69652
G1 X72.2 Y64.336 E23.99855
G1 X72.665 Y62.355 E24.10007
G1 X73.56 Y60.668 E24.19535
G0 F3600 X73.893 Y60.893
G1 F1800 X74.701 Y59.926 E24.25822
G1 X75.957 Y58.902 E24.33907
G1 X77.839 Y57.961 E24.44404
G1 X79.304 Y57.748 E24.5179
G1 X92.206 Y57.7 E25.16159
G1 X94.147 Y58.033 E25.25984
G1 X95.574 Y58.787 E25.34036
G1 X96.822 Y59.67 E25.41663
G1 X98.019 Y61.151 E25.51163
G1 X98.819 Y60.025 E25.58055
G1 X100.223 Y58.889 E25.67065
G1 X102.091 Y57.961 E25.77471
G1 X103.552 Y57.748 E25.84837
G1 X119.211 Y57.7 E26.6296
G1 X121.15 Y58.033 E26.72776
G1 X122.577 Y58.787 E26.80828
G1 X123.825 Y59.67 E26.88455
G1 X125.021 Y61.15 E26.97948
G1 X125.821 Y60.025 E27.04835
G1 X127.225 Y58.889 E27.13846
G1 X129.093 Y57.961 E27.24252
G1 X130.554 Y57.748 E27.31618
G1 X146.213 Y57.7 E28.09741
G1 X148.152 Y58.033 E28.19557
G1 X149.579 Y58.787 E28.27609
G1 X150.827 Y59.67 E28.35236
G1 X152.024 Y61.151 E28.44736
G1 X152.824 Y60.025 E28.51627
G1 X154.228 Y58.889 E28.60638
G1 X156.096 Y57.961 E28.71044
G1 X157.557 Y57.748 E28.7841
G1 X170.459 Y57.7 E29.42778
G1 X172.4 Y58.033 E29.52604
G1 X173.827 Y58.787 E29.60656
G1 X175.075 Y59.67 E29.68283
G1 X176.211 Y61.075 E29.77297
G1 X177.139 Y62.943 E29.87703
G1 X177.352 Y64.404 E29.95069
G1 X177.4 Y190.619 E36.24758
G1 X176.957 Y192.504 E36.34419
G1 X176.107 Y194.107 E36.43471
G1 X175.299 Y195.074 E36.49758
G1 X174.043 Y196.098 E36.57843
G1 X172.161 Y197.039 E36.6834
G1 X170.696 Y197.252 E36.75726
G1 X79.281 Y197.3 E41.31798
G1 X77.396 Y196.857 E41.41458
G1 X75.793 Y196.007 E41.5051
G1 X74.826 Y195.199 E41.56797
G1 X73.802 Y193.943 E41.64882
G1 X72.861 Y192.061 E41.7538
G1 X72.648 Y190.596 E41.82765
G1 X72.6 Y64.381 E48.12455
G1 X73.043 Y62.496 E48.22115
G1 X73.893 Y60.893 E48.31167
G0 F3600 X74.226 Y61.118
G1 F1800 X74.982 Y60.213 E48.3705
G1 X76.175 Y59.24 E48.44731
G1 X77.96 Y58.348 E48.54686
G1 X79.362 Y58.144 E48.61754
G1 X92.174 Y58.1 E49.25674
G1 X94.015 Y58.416 E49.34993
G1 X95.387 Y59.141 E49.42735
G1 X96.547 Y59.966 E49.49837
G1 X97.619 Y61.292 E49.58344
G1 X97.987 Y62.032 E49.62467
G1 X98.289 Y61.46 E49.65694
G1 X99.114 Y60.3 E49.72796
G1 X100.44 Y59.228 E49.81303
G1 X102.211 Y58.348 E49.91169
G1 X103.61 Y58.144 E49.98222
G1 X119.179 Y58.1 E50.75897
G1 X121.018 Y58.416 E50.85206
G1 X122.39 Y59.141 E50.92948
G1 X123.55 Y59.966 E51.00049
G1 X124.622 Y61.292 E51.08556
G1 X124.989 Y62.031 E51.12673
G1 X125.291 Y61.46 E51.15895
G1 X126.116 Y60.3 E51.22997
G1 X127.442 Y59.228 E51.31504
G1 X129.213 Y58.348 E51.4137
G1 X130.612 Y58.144 E51.48424
G1 X146.181 Y58.1 E52.26098
G1 X148.02 Y58.416 E52.35407
G1 X149.392 Y59.141 E52.43149
G1 X150.552 Y59.966 E52.50251
G1 X151.624 Y61.292 E52.58758
G1 X151.992 Y62.032 E52.62881
G1 X152.294 Y61.46 E52.66108
G1 X153.119 Y60.3 E52.7321
G1 X154.445 Y59.228 E52.81716
G1 X156.216 Y58.348 E52.91583
G1 X157.615 Y58.144 E52.98636
G1 X170.427 Y58.1 E53.62556
G1 X172.268 Y58.416 E53.71875
G1 X173.64 Y59.141 E53.79617
G1 X174.8 Y59.966 E53.86718
G1 X175.872 Y61.292 E53.95225
G1 X176.752 Y63.063 E54.05092
G1 X176.956 Y64.462 E54.12145
G1 X177 Y190.575 E60.41325
G1 X176.58 Y192.363 E60.50488
G1 X175.774 Y193.882 E60.59068
G1 X175.018 Y194.787 E60.64951
G1 X173.825 Y195.76 E60.72631
G1 X172.04 Y196.652 E60.82587
G1 X170.638 Y196.856 E60.89655
G1 X79.325 Y196.9 E65.45217
G1 X77.537 Y196.48 E65.5438
G1 X76.018 Y195.674 E65.6296
G1 X75.113 Y194.918 E65.68843
G1 X74.14 Y193.725 E65.76523
G1 X73.248 Y191.94 E65.86479
G1 X73.044 Y190.538 E65.93547
G1 X73 Y64.425 E72.22727
G1 X73.42 Y62.637 E72.3189
G1 X74.226 Y61.118 E72.40469
G0 F3600 X74.559 Y61.343
G1 F1800 X75.263 Y60.5 E72.45949
G1 X76.393 Y59.578 E72.53225
G1 X78.081 Y58.735 E72.62638
G1 X79.42 Y58.54 E72.69389
G1 X92.142 Y58.5 E73.3286
G1 X93.883 Y58.799 E73.41673
G1 X95.2 Y59.495 E73.49104
G1 X96.271 Y60.261 E73.55674
G1 X97.28 Y61.509 E73.6368
G1 X97.976 Y62.909 E73.7148
G1 X98.643 Y61.647 E73.78602
G1 X99.409 Y60.576 E73.85171
G1 X100.657 Y59.567 E73.93178
G1 X102.331 Y58.735 E74.02504
G1 X103.668 Y58.54 E74.09245
G1 X119.146 Y58.5 E74.86465
G1 X120.886 Y58.799 E74.95273
G1 X122.203 Y59.495 E75.02705
G1 X123.274 Y60.261 E75.09274
G1 X124.283 Y61.509 E75.17281
G1 X124.978 Y62.908 E75.25074
G1 X125.645 Y61.647 E75.32191
G1 X126.411 Y60.576 E75.38761
G1 X127.659 Y59.567 E75.46767
G1 X129.333 Y58.735 E75.56094
G1 X130.67 Y58.54 E75.62834
G1 X146.148 Y58.5 E76.40055
G1 X147.888 Y58.799 E76.48863
G1 X149.205 Y59.495 E76.56295
G1 X150.276 Y60.261 E76.62864
G1 X151.285 Y61.509 E76.70871
G1 X151.981 Y62.909 E76.78671
G1 X152.648 Y61.647 E76.85792
G1 X153.414 Y60.576 E76.92361
G1 X154.662 Y59.567 E77.00368
G1 X156.336 Y58.735 E77.09694
G1 X157.673 Y58.54 E77.16435
G1 X170.395 Y58.5 E77.79906
G1 X172.136 Y58.799 E77.88719
G1 X173.453 Y59.495 E77.9615
G1 X174.524 Y60.261 E78.0272
G1 X175.533 Y61.509 E78.10726
G1 X176.365 Y63.183 E78.20053
G1 X176.56 Y64.52 E78.26794
G1 X176.6 Y190.53 E84.5546
G1 X176.202 Y192.222 E84.64132
G1 X175.441 Y193.657 E84.72236
G1 X174.737 Y194.5 E84.77715
G1 X173.607 Y195.422 E84.84991
G1 X171.919 Y196.265 E84.94404
G1 X170.58 Y196.46 E85.01155
G1 X79.37 Y196.5 E89.56204
G1 X77.678 Y196.102 E89.64875
G1 X76.243 Y195.341 E89.72979
G1 X75.4 Y194.637 E89.78459
G1 X74.478 Y193.507 E89.85735
G1 X73.635 Y191.819 E89.95148
G1 X73.44 Y190.48 E90.01899
G1 X73.4 Y64.47 E96.30565
G1 X73.798 Y62.778 E96.39237
G1 X74.559 Y61.343 E96.47341
G0 F3600 X74.892 Y61.568
G1 F1800 X75.544 Y60.787 E96.52416
G1 X76.611 Y59.916 E96.59288
G1 X78.202 Y59.122 E96.68159
G1 X79.478 Y58.936 E96.74592
G1 X92.11 Y58.9 E97.37614
G1 X93.751 Y59.182 E97.45921
G1 X95.013 Y59.849 E97.53042
G1 X95.995 Y60.555 E97.59076
G1 X96.941 Y61.726 E97.66587
G1 X97.725 Y63.303 E97.75373
G1 X97.911 Y64.578 E97.81801
G1 X97.939 Y69.302 E98.0537
G1 X98.048 Y69.302 E98.05914
G1 X98.048 Y64.737 E98.28689
G1 X98.33 Y63.096 E98.36996
G1 X98.997 Y61.834 E98.44117
G1 X99.703 Y60.852 E98.50151
G1 X100.874 Y59.906 E98.57661
G1 X102.451 Y59.122 E98.66448
G1 X103.726 Y58.936 E98.72876
G1 X119.113 Y58.9 E99.49642
G1 X120.754 Y59.182 E99.57949
G1 X122.016 Y59.849 E99.65071
G1 X122.998 Y60.555 E99.71105
G1 X123.944 Y61.726 E99.78615
G1 X124.728 Y63.303 E99.87401
G1 X124.914 Y64.578 E99.9383
G1 X124.94 Y68.302 E100.12409
G1 X125.05 Y68.302 E100.12958
G1 X125.05 Y64.737 E100.30744
G1 X125.332 Y63.096 E100.39051
G1 X125.999 Y61.834 E100.46172
G1 X126.705 Y60.852 E100.52206
G1 X127.876 Y59.906 E100.59717
G1 X129.453 Y59.122 E100.68503
G1 X130.728 Y58.936 E100.74931
G1 X146.115 Y58.9 E101.51697
G1 X147.756 Y59.182 E101.60004
G1 X149.018 Y59.849 E101.67126
G1 X150 Y60.555 E101.7316
G1 X150.946 Y61.726 E101.8067
G1 X151.73 Y63.303 E101.89456
G1 X151.916 Y64.578 E101.95885
G1 X151.944 Y69.302 E102.19453
G1 X152.053 Y69.302 E102.19997
G1 X152.053 Y64.737 E102.42772
G1 X152.335 Y63.096 E102.51079
G1 X153.002 Y61.834 E102.582
G1 X153.708 Y60.852 E102.64234
G1 X154.879 Y59.906 E102.71745
G1 X156.456 Y59.122 E102.80531
G1 X157.731 Y58.936 E102.86959
G1 X170.363 Y58.9 E103.49981
G1 X172.004 Y59.182 E103.58288
G1 X173.266 Y59.849 E103.65409
G1 X174.248 Y60.555 E103.71443
G1 X175.194 Y61.726 E103.78954
G1 X175.978 Y63.303 E103.8774
G1 X176.164 Y64.578 E103.94168
G1 X176.2 Y190.485 E110.22321
G1 X175.824 Y192.081 E110.30501
G1 X175.108 Y193.432 E110.3813
G1 X174.456 Y194.213 E110.43205
G1 X173.389 Y195.084 E110.50077
G1 X171.798 Y195.878 E110.58948
G1 X170.522 Y196.064 E110.65381
G1 X79.415 Y196.1 E115.19916
G1 X77.819 Y195.724 E115.28097
G1 X76.468 Y195.008 E115.35725
G1 X75.687 Y194.356 E115.40801
G1 X74.816 Y193.289 E115.47672
G1 X74.022 Y191.698 E115.56543
G1 X73.836 Y190.422 E115.62977
G1 X73.8 Y64.515 E121.91129
G1 X74.176 Y62.919 E121.9931
G1 X74.892 Y61.568 E122.06938
G0 F3600 X75.225 Y61.793
G1 F1800 X75.825 Y61.074 E122.1161
G1 X76.829 Y60.254 E122.18077
G1 X78.323 Y59.509 E122.26406
G1 X79.536 Y59.332 E122.32522
G1 X92.077 Y59.3 E122.95089
G1 X93.619 Y59.565 E123.02895
G1 X94.826 Y60.203 E123.09707
G1 X95.719 Y60.85 E123.15208
G1 X96.602 Y61.943 E123.22218
G1 X97.338 Y63.423 E123.30465
G1 X97.515 Y64.636 E123.3658
G1 X97.541 Y69.702 E123.61855
G1 X98.448 Y69.702 E123.6638
G1 X98.448 Y64.77 E123.90986
G1 X98.713 Y63.228 E123.98792
G1 X99.351 Y62.021 E124.05603
G1 X99.998 Y61.128 E124.11105
G1 X101.091 Y60.245 E124.18115
G1 X102.571 Y59.509 E124.26361
G1 X103.784 Y59.332 E124.32477
G1 X119.08 Y59.3 E125.08789
G1 X120.622 Y59.565 E125.16595
G1 X121.829 Y60.203 E125.23406
G1 X122.722 Y60.85 E125.28908
G1 X123.605 Y61.943 E125.35918
G1 X124.341 Y63.423 E125.44165
G1 X124.518 Y64.636 E125.5028
G1 X124.542 Y68.702 E125.70566
G1 X125.45 Y68.702 E125.75096
G1 X125.45 Y64.77 E125.94713
G1 X125.715 Y63.228 E126.02519
G1 X126.353 Y62.021 E126.0933
G1 X127 Y61.128 E126.14832
G1 X128.093 Y60.245 E126.21842
G1 X129.573 Y59.509 E126.30088
G1 X130.786 Y59.332 E126.36204
G1 X146.082 Y59.3 E127.12516
G1 X147.624 Y59.565 E127.20322
G1 X148.831 Y60.203 E127.27133
G1 X149.724 Y60.85 E127.32635
G1 X150.607 Y61.943 E127.39645
G1 X151.343 Y63.423 E127.47891
G1 X151.52 Y64.636 E127.54007
G1 X151.546 Y69.702 E127.79282
G1 X152.453 Y69.702 E127.83807
G1 X152.453 Y64.77 E128.08413
G1 X152.718 Y63.228 E128.16219
G1 X153.356 Y62.021 E128.2303
G1 X154.003 Y61.128 E128.28531
G1 X155.096 Y60.245 E128.35542
G1 X156.576 Y59.509 E128.43788
G1 X157.789 Y59.332 E128.49904
G1 X170.33 Y59.3 E129.12471
G1 X171.872 Y59.565 E129.20277
G1 X173.079 Y60.203 E129.27088
G1 X173.972 Y60.85 E129.3259
G1 X174.855 Y61.943 E129.396
G1 X175.591 Y63.423 E129.47846
G1 X175.768 Y64.636 E129.53962
G1 X175.8 Y190.44 E135.81601
G1 X175.446 Y191.94 E135.8929
G1 X174.775 Y193.207 E135.96443
G1 X174.175 Y193.926 E136.01115
G1 X173.171 Y194.746 E136.07582
G1 X171.677 Y195.491 E136.15911
G1 X170.464 Y195.668 E136.22027
G1 X79.46 Y195.7 E140.76048
G1 X77.96 Y195.346 E140.83737
G1 X76.693 Y194.675 E140.9089
G1 X75.974 Y194.075 E140.95562
G1 X75.154 Y193.071 E141.02029
G1 X74.409 Y191.577 E141.10358
G1 X74.232 Y190.364 E141.16474
G1 X74.2 Y64.56 E147.44112
G1 X74.554 Y63.06 E147.51801
G1 X75.225 Y61.793 E147.58954
G0 F3600 X75.559 Y62.017
G1 F1800 X76.109 Y61.359 E147.63233
G1 X77.049 Y60.591 E147.69289
G1 X78.443 Y59.896 E147.7706
G1 X79.594 Y59.728 E147.82863
G1 X92.044 Y59.7 E148.44977
G1 X93.487 Y59.948 E148.52281
G1 X94.639 Y60.557 E148.58782
G1 X95.442 Y61.144 E148.63745
G1 X96.263 Y62.16 E148.70262
G1 X96.951 Y63.543 E148.77968
G1 X97.119 Y64.694 E148.83771
G1 X97.143 Y70.102 E149.10752
G1 X98.848 Y70.102 E149.19258
G1 X98.848 Y64.803 E149.45695
G1 X99.096 Y63.36 E149.53
G1 X99.705 Y62.208 E149.59501
G1 X100.292 Y61.405 E149.64463
G1 X101.308 Y60.584 E149.7098
G1 X102.691 Y59.896 E149.78687
G1 X103.842 Y59.728 E149.8449
G1 X119.047 Y59.7 E150.60348
G1 X120.49 Y59.948 E150.67653
G1 X121.642 Y60.557 E150.74154
G1 X122.445 Y61.144 E150.79116
G1 X123.266 Y62.16 E150.85633
G1 X123.954 Y63.543 E150.9334
G1 X124.122 Y64.694 E150.99143
G1 X124.144 Y69.102 E151.21135
G1 X125.85 Y69.102 E151.29646
G1 X125.85 Y64.803 E151.51094
G1 X126.098 Y63.36 E151.58399
G1 X126.707 Y62.208 E151.649
G1 X127.294 Y61.405 E151.69862
G1 X128.31 Y60.584 E151.76379
G1 X129.693 Y59.896 E151.84085
G1 X130.844 Y59.728 E151.89889
G1 X146.049 Y59.7 E152.65747
G1 X147.492 Y59.948 E152.73052
G1 X148.644 Y60.557 E152.79553
G1 X149.447 Y61.144 E152.84515
G1 X150.268 Y62.16 E152.91032
G1 X150.956 Y63.543 E152.98738
G1 X151.124 Y64.694 E153.04542
G1 X151.148 Y70.102 E153.31522
G1 X152.853 Y70.102 E153.40029
G1 X152.853 Y64.803 E153.66466
G1 X153.101 Y63.36 E153.7377
G1 X153.71 Y62.208 E153.80271
G1 X154.297 Y61.405 E153.85234
G1 X155.313 Y60.584 E153.91751
G1 X156.696 Y59.896 E153.99457
G1 X157.847 Y59.728 E154.0526
G1 X170.297 Y59.7 E154.67374
G1 X171.74 Y59.948 E154.74678
G1 X172.892 Y60.557 E154.8118
G1 X173.695 Y61.144 E154.86142
G1 X174.516 Y62.16 E154.92659
G1 X175.204 Y63.543 E155.00365
G1 X175.372 Y64.694 E155.06169
G1 X175.4 Y190.395 E161.33293
G1 X175.069 Y191.796 E161.40475
G1 X174.441 Y192.983 E161.47175
G1 X173.891 Y193.641 E161.51454
G1 X172.951 Y194.409 E161.5751
G1 X171.557 Y195.104 E161.65281
G1 X170.406 Y195.272 E161.71084
G1 X79.505 Y195.3 E166.24591
G1 X78.104 Y194.969 E166.31773
G1 X76.917 Y194.341 E166.38473
G1 X76.259 Y193.791 E166.42751
G1 X75.491 Y192.851 E166.48807
G1 X74.796 Y191.457 E166.56578
G1 X74.628 Y190.306 E166.62381
G1 X74.6 Y64.605 E172.89506
G1 X74.931 Y63.204 E172.96688
G1 X75.559 Y62.017 E173.03388
G0 F3600 X75.895 Y62.239
G1 F1800 X76.39 Y61.646 E173.07242
G1 X77.269 Y60.928 E173.12904
G1 X78.563 Y60.283 E173.20117
G1 X79.652 Y60.124 E173.25608
G1 X92.011 Y60.1 E173.87268
G1 X93.355 Y60.331 E173.94071
G1 X94.452 Y60.911 E174.00262
G1 X95.164 Y61.436 E174.04675
G1 X95.924 Y62.377 E174.1071
G1 X96.564 Y63.663 E174.17876
G1 X96.723 Y64.752 E174.23367
G1 X96.744 Y70.502 E174.52054
G1 X99.248 Y70.502 E174.64547
G1 X99.248 Y64.836 E174.92814
G1 X99.479 Y63.492 E174.99618
G1 X100.059 Y62.395 E175.05809
G1 X100.584 Y61.683 E175.10222
G1 X101.525 Y60.923 E175.16257
G1 X102.811 Y60.283 E175.23423
G1 X103.9 Y60.124 E175.28914
G1 X119.014 Y60.1 E176.04318
G1 X120.358 Y60.331 E176.11122
G1 X121.455 Y60.911 E176.17313
G1 X122.167 Y61.436 E176.21726
G1 X122.927 Y62.377 E176.27761
G1 X123.567 Y63.663 E176.34927
G1 X123.726 Y64.752 E176.40418
G1 X123.746 Y69.502 E176.64116
G1 X126.25 Y69.502 E176.76608
G1 X126.25 Y64.836 E176.99887
G1 X126.481 Y63.492 E177.06691
G1 X127.061 Y62.395 E177.12882
G1 X127.586 Y61.683 E177.17295
G1 X128.527 Y60.923 E177.2333
G1 X129.813 Y60.283 E177.30496
G1 X130.902 Y60.124 E177.35987
G1 X146.016 Y60.1 E178.11391
G1 X147.36 Y60.331 E178.18194
G1 X148.457 Y60.911 E178.24385
G1 X149.169 Y61.436 E178.28799
G1 X149.929 Y62.377 E178.34833
G1 X150.569 Y63.663 E178.42
G1 X150.728 Y64.752 E178.4749
G1 X150.749 Y70.502 E178.76177
G1 X153.253 Y70.502 E178.8867
G1 X153.253 Y64.836 E179.16938
G1 X153.484 Y63.492 E179.23741
G1 X154.064 Y62.395 E179.29932
G1 X154.589 Y61.683 E179.34346
G1 X155.53 Y60.923 E179.4038
G1 X156.816 Y60.283 E179.47547
G1 X157.905 Y60.124 E179.53037
G1 X170.264 Y60.1 E180.14697
G1 X171.608 Y60.331 E180.215
G1 X172.705 Y60.911 E180.27691
G1 X173.417 Y61.436 E180.32105
G1 X174.177 Y62.377 E180.38139
G1 X174.817 Y63.663 E180.45306
G1 X174.976 Y64.752 E180.50796
G1 X175 Y190.35 E186.77407
G1 X174.692 Y191.652 E186.84082
G1 X174.105 Y192.761 E186.90342
G1 X173.61 Y193.354 E186.94196
G1 X172.731 Y194.072 E186.99859
G1 X171.437 Y194.717 E187.07072
G1 X170.348 Y194.876 E187.12563
G1 X79.55 Y194.9 E191.65556
G1 X78.248 Y194.592 E191.72231
G1 X77.139 Y194.005 E191.78491
G1 X76.546 Y193.51 E191.82344
G1 X75.828 Y192.631 E191.88007
G1 X75.183 Y191.337 E191.9522
G1 X75.024 Y190.248 E192.00711
G1 X75 Y64.65 E198.27322
G1 X75.308 Y63.348 E198.33997
G1 X75.895 Y62.239 E198.40257
G0 F3600 X76.228 Y62.464
G1 F1800 X76.671 Y61.933 E198.43707
G1 X77.489 Y61.265 E198.48976
G1 X78.683 Y60.67 E198.55631
G1 X79.71 Y60.52 E198.60809
G1 X91.978 Y60.5 E199.22015
G1 X93.223 Y60.714 E199.28317
G1 X94.265 Y61.265 E199.34198
G1 X94.887 Y61.729 E199.38069
G1 X95.585 Y62.594 E199.43615
G1 X96.177 Y63.783 E199.50241
G1 X96.327 Y64.81 E199.55419
G1 X96.345 Y70.902 E199.85812
G1 X99.648 Y70.902 E200.02291
G1 X99.648 Y64.869 E200.3239
G1 X99.862 Y63.624 E200.38692
G1 X100.413 Y62.582 E200.44573
G1 X100.877 Y61.96 E200.48445
G1 X101.742 Y61.262 E200.5399
G1 X102.931 Y60.67 E200.60616
G1 X103.958 Y60.52 E200.65794
G1 X118.981 Y60.5 E201.40745
G1 X120.226 Y60.714 E201.47047
G1 X121.268 Y61.265 E201.52928
G1 X121.89 Y61.729 E201.56799
G1 X122.588 Y62.594 E201.62344
G1 X123.18 Y63.783 E201.68971
G1 X123.33 Y64.81 E201.74149
G1 X123.347 Y69.902 E201.99553
G1 X126.65 Y69.902 E202.16032
G1 X126.65 Y64.869 E202.41142
G1 X126.864 Y63.624 E202.47444
G1 X127.415 Y62.582 E202.53325
G1 X127.879 Y61.96 E202.57196
G1 X128.744 Y61.262 E202.62742
G1 X129.933 Y60.67 E202.69368
G1 X130.96 Y60.52 E202.74546
G1 X145.983 Y60.5 E203.49496
G1 X147.228 Y60.714 E203.55799
G1 X148.27 Y61.265 E203.61679
G1 X148.892 Y61.729 E203.65551
G1 X149.59 Y62.594 E203.71096
G1 X150.182 Y63.783 E203.77723
G1 X150.332 Y64.81 E203.82901
G1 X150.35 Y70.902 E204.13294
G1 X153.653 Y70.902 E204.29773
G1 X153.653 Y64.869 E204.59872
G1 X153.867 Y63.624 E204.66174
G1 X154.418 Y62.582 E204.72055
G1 X154.882 Y61.96 E204.75926
G1 X155.747 Y61.262 E204.81471
G1 X156.936 Y60.67 E204.88098
G1 X157.963 Y60.52 E204.93276
G1 X170.231 Y60.5 E205.54481
G1 X171.476 Y60.714 E205.60784
G1 X172.518 Y61.265 E205.66664
G1 X173.14 Y61.729 E205.70536
G1 X173.838 Y62.594 E205.76081
G1 X174.43 Y63.783 E205.82708
G1 X174.58 Y64.81 E205.87886
G1 X174.6 Y190.305 E212.13983
G1 X174.315 Y191.511 E212.20165
G1 X173.772 Y192.536 E212.25952
G1 X173.329 Y193.067 E212.29402
G1 X172.511 Y193.735 E212.34671
G1 X171.317 Y194.33 E212.41327
G1 X170.29 Y194.48 E212.46505
G1 X79.595 Y194.5 E216.98984
G1 X78.389 Y194.215 E217.05167
G1 X77.364 Y193.672 E217.10954
G1 X76.833 Y193.229 E217.14404
G1 X76.165 Y192.411 E217.19673
G1 X75.57 Y191.217 E217.26328
G1 X75.42 Y190.19 E217.31506
G1 X75.4 Y64.695 E223.57603
G1 X75.685 Y63.489 E223.63786
G1 X76.228 Y62.464 E223.69573
G0 F3600 X76.562 Y62.688
G1 F1800 X76.955 Y62.218 E223.72629
G1 X77.709 Y61.602 E223.77487
G1 X78.803 Y61.057 E223.83585
G1 X79.768 Y60.916 E223.8845
G1 X91.945 Y60.9 E224.49202
G1 X93.091 Y61.097 E224.55003
G1 X94.078 Y61.619 E224.60573
G1 X94.608 Y62.02 E224.63889
G1 X95.246 Y62.811 E224.68959
G1 X95.79 Y63.903 E224.75046
G1 X95.931 Y64.868 E224.79911
G1 X95.946 Y71.302 E225.12011
G1 X100.048 Y71.302 E225.32475
G1 X100.048 Y64.902 E225.64405
G1 X100.245 Y63.756 E225.70206
G1 X100.767 Y62.769 E225.75777
G1 X101.168 Y62.239 E225.79093
G1 X101.959 Y61.601 E225.84163
G1 X103.051 Y61.057 E225.90249
G1 X104.016 Y60.916 E225.95115
G1 X118.948 Y60.9 E226.69611
G1 X120.094 Y61.097 E226.75412
G1 X121.081 Y61.619 E226.80983
G1 X121.611 Y62.02 E226.84298
G1 X122.249 Y62.811 E226.89368
G1 X122.793 Y63.903 E226.95455
G1 X122.934 Y64.868 E227.0032
G1 X122.948 Y70.302 E227.27431
G1 X127.05 Y70.302 E227.47896
G1 X127.05 Y64.902 E227.74837
G1 X127.247 Y63.756 E227.80638
G1 X127.769 Y62.769 E227.86208
G1 X128.17 Y62.239 E227.89524
G1 X128.961 Y61.601 E227.94594
G1 X130.053 Y61.057 E228.00681
G1 X131.018 Y60.916 E228.05546
G1 X145.95 Y60.9 E228.80042
G1 X147.096 Y61.097 E228.85843
G1 X148.083 Y61.619 E228.91414
G1 X148.613 Y62.02 E228.9473
G1 X149.251 Y62.811 E228.998
G1 X149.795 Y63.903 E229.05886
G1 X149.936 Y64.868 E229.10752
G1 X149.951 Y71.302 E229.42851
G1 X154.053 Y71.302 E229.63316
G1 X154.053 Y64.902 E229.95246
G1 X154.25 Y63.756 E230.01047
G1 X154.772 Y62.769 E230.06618
G1 X155.173 Y62.239 E230.09933
G1 X155.964 Y61.601 E230.15003
G1 X157.056 Y61.057 E230.2109
G1 X158.021 Y60.916 E230.25955
G1 X170.198 Y60.9 E230.86707
G1 X171.344 Y61.097 E230.92508
G1 X172.331 Y61.619 E230.98078
G1 X172.861 Y62.02 E231.01394
G1 X173.499 Y62.811 E231.06464
G1 X174.043 Y63.903 E231.12551
G1 X174.184 Y64.868 E231.17416
G1 X174.2 Y190.26 E237.43
G1 X173.938 Y191.367 E237.48675
G1 X173.438 Y192.312 E237.54009
G1 X173.045 Y192.782 E237.57065
G1 X172.291 Y193.398 E237.61923
G1 X171.197 Y193.943 E237.68021
G1 X170.232 Y194.084 E237.72886
G1 X79.64 Y194.1 E242.24852
G1 X78.533 Y193.838 E242.30527
G1 X77.588 Y193.338 E242.35861
G1 X77.118 Y192.945 E242.38917
G1 X76.502 Y192.191 E242.43775
G1 X75.957 Y191.097 E242.49873
G1 X75.816 Y190.132 E242.54738
G1 X75.8 Y64.74 E248.80321
G1 X76.062 Y63.633 E248.85997
G1 X76.562 Y62.688 E248.91331
G0 F3600 X76.898 Y62.91
G1 F1800 X77.236 Y62.505 E248.93962
G1 X77.929 Y61.939 E248.98426
G1 X78.923 Y61.444 E249.03966
G1 X79.826 Y61.312 E249.08519
G1 X91.912 Y61.3 E249.68817
G1 X92.959 Y61.48 E249.74117
G1 X93.891 Y61.973 E249.79377
G1 X94.325 Y62.306 E249.82106
G1 X94.909 Y63.031 E249.86751
G1 X95.403 Y64.023 E249.9228
G1 X95.535 Y64.926 E249.96833
G1 X95.547 Y71.702 E250.30638
G1 X100.448 Y71.702 E250.55089
G1 X100.448 Y64.935 E250.8885
G1 X100.628 Y63.888 E250.9415
G1 X101.121 Y62.956 E250.99411
G1 X101.454 Y62.522 E251.0214
G1 X102.179 Y61.938 E251.06784
G1 X103.171 Y61.444 E251.12313
G1 X104.074 Y61.312 E251.16866
G1 X118.915 Y61.3 E251.90908
G1 X119.962 Y61.48 E251.96208
G1 X120.894 Y61.973 E252.01468
G1 X121.328 Y62.306 E252.04198
G1 X121.912 Y63.031 E252.08842
G1 X122.406 Y64.023 E252.14371
G1 X122.538 Y64.926 E252.18924
G1 X122.549 Y70.702 E252.47741
G1 X127.45 Y70.702 E252.72192
G1 X127.45 Y64.935 E253.00963
G1 X127.63 Y63.888 E253.06264
G1 X128.123 Y62.956 E253.11524
G1 X128.456 Y62.522 E253.14253
G1 X129.181 Y61.938 E253.18898
G1 X130.173 Y61.444 E253.24426
G1 X131.076 Y61.312 E253.28979
G1 X145.917 Y61.3 E254.03021
G1 X146.964 Y61.48 E254.08322
G1 X147.896 Y61.973 E254.13582
G1 X148.33 Y62.306 E254.16311
G1 X148.914 Y63.031 E254.20955
G1 X149.408 Y64.023 E254.26484
G1 X149.54 Y64.926 E254.31037
G1 X149.552 Y71.702 E254.64843
G1 X154.453 Y71.702 E254.89294
G1 X154.453 Y64.935 E255.23055
G1 X154.633 Y63.888 E255.28355
G1 X155.126 Y62.956 E255.33615
G1 X155.459 Y62.522 E255.36344
G1 X156.184 Y61.938 E255.40989
G1 X157.176 Y61.444 E255.46518
G1 X158.079 Y61.312 E255.51071
G1 X170.165 Y61.3 E256.11368
G1 X171.212 Y61.48 E256.16668
G1 X172.144 Y61.973 E256.21928
G1 X172.578 Y62.306 E256.24657
G1 X173.162 Y63.031 E256.29302
G1 X173.656 Y64.023 E256.34831
G1 X173.788 Y64.926 E256.39384
G1 X173.8 Y190.214 E262.64448
G1 X173.561 Y191.223 E262.69621
G1 X173.102 Y192.09 E262.74516
G1 X172.764 Y192.495 E262.77147
G1 X172.071 Y193.061 E262.81611
G1 X171.077 Y193.556 E262.87151
G1 X170.174 Y193.688 E262.91704
G1 X79.686 Y193.7 E267.43151
G1 X78.677 Y193.461 E267.48324
G1 X77.81 Y193.002 E267.53218
G1 X77.405 Y192.664 E267.5585
G1 X76.839 Y191.971 E267.60314
G1 X76.344 Y190.977 E267.65854
G1 X76.212 Y190.074 E267.70407
G1 X76.2 Y64.786 E273.95471
G1 X76.439 Y63.777 E274.00645
G1 X76.898 Y62.91 E274.05539
G0 F3600 X77.252 Y63.097
G1 F1800 X77.489 Y62.815 E274.07377
G1 X78.149 Y62.276 E274.11628
G1 X79.043 Y61.831 E274.1661
G1 X79.884 Y61.708 E274.2085
G1 X91.879 Y61.7 E274.80694
G1 X92.827 Y61.863 E274.85493
G1 X93.704 Y62.327 E274.90443
G1 X94.013 Y62.557 E274.92365
G1 X94.572 Y63.251 E274.9681
G1 X95.016 Y64.143 E275.01781
G1 X95.139 Y64.984 E275.06022
G1 X95.147 Y72.102 E275.41534
G1 X100.848 Y72.102 E275.69976
G1 X100.848 Y64.968 E276.05568
G1 X101.011 Y64.02 E276.10367
G1 X101.475 Y63.143 E276.15317
G1 X101.705 Y62.834 E276.17239
G1 X102.399 Y62.275 E276.21685
G1 X103.291 Y61.831 E276.26656
G1 X104.132 Y61.708 E276.30896
G1 X118.882 Y61.7 E277.04484
G1 X119.83 Y61.863 E277.09283
G1 X120.707 Y62.327 E277.14233
G1 X121.016 Y62.557 E277.16155
G1 X121.575 Y63.251 E277.20601
G1 X122.019 Y64.143 E277.25572
G1 X122.142 Y64.984 E277.29812
G1 X122.15 Y71.102 E277.60335
G1 X127.85 Y71.102 E277.88772
G1 X127.85 Y64.968 E278.19375
G1 X128.013 Y64.02 E278.24174
G1 X128.477 Y63.143 E278.29124
G1 X128.707 Y62.834 E278.31046
G1 X129.401 Y62.275 E278.35492
G1 X130.293 Y61.831 E278.40463
G1 X131.134 Y61.708 E278.44703
G1 X145.884 Y61.7 E279.18291
G1 X146.832 Y61.863 E279.2309
G1 X147.709 Y62.327 E279.2804
G1 X148.018 Y62.557 E279.29962
G1 X148.577 Y63.251 E279.34408
G1 X149.021 Y64.143 E279.39379
G1 X149.144 Y64.984 E279.43619
G1 X149.152 Y72.102 E279.79131
G1 X154.853 Y72.102 E280.07574
G1 X154.853 Y64.968 E280.43165
G1 X155.016 Y64.02 E280.47964
G1 X155.48 Y63.143 E280.52914
G1 X155.71 Y62.834 E280.54836
G1 X156.404 Y62.275 E280.59282
G1 X157.296 Y61.831 E280.64253
G1 X158.137 Y61.708 E280.68493
G1 X170.132 Y61.7 E281.28337
G1 X171.08 Y61.863 E281.33136
G1 X171.957 Y62.327 E281.38086
G1 X172.266 Y62.557 E281.40007
G1 X172.825 Y63.251 E281.44453
G1 X173.269 Y64.143 E281.49424
G1 X173.392 Y64.984 E281.53665
G1 X173.4 Y190.168 E287.7821
G1 X173.184 Y191.079 E287.82881
G1 X172.748 Y191.903 E287.87532
G1 X172.511 Y192.185 E287.8937
G1 X171.851 Y192.724 E287.93621
G1 X170.957 Y193.169 E287.98603
G1 X170.116 Y193.292 E288.02844
G1 X79.732 Y193.3 E292.53771
G1 X78.821 Y193.084 E292.58442
G1 X77.997 Y192.648 E292.63093
G1 X77.715 Y192.411 E292.64931
G1 X77.176 Y191.751 E292.69183
G1 X76.731 Y190.857 E292.74165
G1 X76.608 Y190.016 E292.78405
G1 X76.6 Y64.832 E299.02951
G1 X76.816 Y63.921 E299.07622
G1 X77.252 Y63.097 E299.12273
G0 F3600 X77.606 Y63.284
G1 F1800 X77.787 Y63.082 E299.13626
G1 X78.367 Y62.614 E299.17344
G1 X79.163 Y62.218 E299.21779
G1 X79.942 Y62.104 E299.25707
G1 X91.846 Y62.1 E299.85097
G1 X92.695 Y62.246 E299.89394
G1 X93.517 Y62.681 E299.94034
G1 X93.734 Y62.848 E299.954
G1 X94.233 Y63.467 E299.99367
G1 X94.629 Y64.263 E300.03803
G1 X94.743 Y65.042 E300.0773
G1 X94.747 Y72.502 E300.44949
G1 X101.248 Y72.502 E300.77382
G1 X101.248 Y65.001 E301.14805
G1 X101.394 Y64.152 E301.19103
G1 X101.829 Y63.33 E301.23742
G1 X101.996 Y63.113 E301.25109
G1 X102.615 Y62.614 E301.29075
G1 X103.411 Y62.218 E301.33511
G1 X104.19 Y62.104 E301.37439
G1 X118.849 Y62.1 E302.10573
G1 X119.698 Y62.246 E302.14871
G1 X120.52 Y62.681 E302.1951
G1 X120.737 Y62.848 E302.20876
G1 X121.236 Y63.467 E302.24843
G1 X121.632 Y64.263 E302.29279
G1 X121.746 Y65.042 E302.33207
G1 X121.75 Y71.502 E302.65436
G1 X128.25 Y71.502 E302.97864
G1 X128.25 Y65.001 E303.30298
G1 X128.396 Y64.152 E303.34596
G1 X128.831 Y63.33 E303.39236
G1 X128.998 Y63.113 E303.40602
G1 X129.617 Y62.614 E303.44568
G1 X130.413 Y62.218 E303.49004
G1 X131.192 Y62.104 E303.52932
G1 X145.851 Y62.1 E304.26066
G1 X146.7 Y62.246 E304.30364
G1 X147.522 Y62.681 E304.35003
G1 X147.739 Y62.848 E304.3637
G1 X148.238 Y63.467 E304.40336
G1 X148.634 Y64.263 E304.44772
G1 X148.748 Y65.042 E304.487
G1 X148.752 Y72.502 E304.85918
G1 X155.253 Y72.502 E305.18351
G1 X155.253 Y65.001 E305.55774
G1 X155.399 Y64.152 E305.60072
G1 X155.834 Y63.33 E305.64712
G1 X156.001 Y63.113 E305.66078
G1 X156.62 Y62.614 E305.70044
G1 X157.416 Y62.218 E305.7448
G1 X158.195 Y62.104 E305.78408
G1 X170.099 Y62.1 E306.37797
G1 X170.948 Y62.246 E306.42095
G1 X171.77 Y62.681 E306.46735
G1 X171.987 Y62.848 E306.48101
G1 X172.486 Y63.467 E306.52068
G1 X172.882 Y64.263 E306.56503
G1 X172.996 Y65.042 E306.60431
G1 X173 Y190.122 E312.84458
G1 X172.807 Y190.935 E312.88626
G1 X172.394 Y191.716 E312.93034
G1 X172.213 Y191.918 E312.94387
G1 X171.633 Y192.386 E312.98105
G1 X170.837 Y192.782 E313.02541
G1 X170.058 Y192.896 E313.06469
G1 X79.778 Y192.9 E317.56878
G1 X78.965 Y192.707 E317.61046
G1 X78.184 Y192.294 E317.65454
G1 X77.982 Y192.113 E317.66807
G1 X77.514 Y191.533 E317.70525
G1 X77.118 Y190.737 E317.74961
G1 X77.004 Y189.958 E317.78889
G1 X77 Y64.878 E324.02915
G1 X77.193 Y64.065 E324.07084
G1 X77.606 Y63.284 E324.11492
G0 F3600 X77.935 Y63.517
G1 F1800 X78.038 Y63.393 E324.12296
G1 X78.583 Y62.953 E324.15791
G1 X79.283 Y62.605 E324.19691
G1 X80 Y62.5 E324.23306
G1 X91.813 Y62.5 E324.82241
G1 X92.563 Y62.629 E324.86038
G1 X93.33 Y63.035 E324.90368
G1 X93.454 Y63.138 E324.91172
G1 X93.894 Y63.683 E324.94666
G1 X94.242 Y64.383 E324.98567
G1 X94.347 Y65.1 E325.02182
G1 X94.347 Y72.902 E325.41106
G1 X101.648 Y72.902 E325.77531
G1 X101.648 Y65.034 E326.16785
G1 X101.777 Y64.284 E326.20581
G1 X102.183 Y63.517 E326.24911
G1 X102.286 Y63.393 E326.25715
G1 X102.831 Y62.953 E326.2921
G1 X103.531 Y62.605 E326.3311
G1 X104.248 Y62.5 E326.36725
G1 X118.816 Y62.5 E327.09405
G1 X119.566 Y62.629 E327.13202
G1 X120.333 Y63.035 E327.17531
G1 X120.457 Y63.138 E327.18336
G1 X120.897 Y63.683 E327.2183
G1 X121.245 Y64.383 E327.2573
G1 X121.35 Y65.1 E327.29346
G1 X121.35 Y71.902 E327.63281
G1 X128.65 Y71.902 E327.99701
G1 X128.65 Y65.034 E328.33965
G1 X128.779 Y64.284 E328.37762
G1 X129.185 Y63.517 E328.42092
G1 X129.288 Y63.393 E328.42896
G1 X129.833 Y62.953 E328.4639
G1 X130.533 Y62.605 E328.5029
G1 X131.25 Y62.5 E328.53906
G1 X145.818 Y62.5 E329.26586
G1 X146.568 Y62.629 E329.30382
G1 X147.335 Y63.035 E329.34712
G1 X147.459 Y63.138 E329.35516
G1 X147.899 Y63.683 E329.39011
G1 X148.247 Y64.383 E329.42911
G1 X148.352 Y65.1 E329.46526
G1 X148.352 Y72.902 E329.85451
G1 X155.653 Y72.902 E330.21875
G1 X155.653 Y65.034 E330.61129
G1 X155.782 Y64.284 E330.64926
G1 X156.188 Y63.517 E330.69255
G1 X156.291 Y63.393 E330.7006
G1 X156.836 Y62.953 E330.73554
G1 X157.536 Y62.605 E330.77454
G1 X158.253 Y62.5 E330.81069
G1 X170.066 Y62.5 E331.40005
G1 X170.816 Y62.629 E331.43801
G1 X171.583 Y63.035 E331.48131
G1 X171.707 Y63.138 E331.48935
G1 X172.147 Y63.683 E331.5243
G1 X172.495 Y64.383 E331.5633
G1 X172.6 Y65.1 E331.59945
G1 X172.6 Y190.076 E337.83453
G1 X172.43 Y190.794 E337.87134
G1 X172.065 Y191.483 E337.91024
G1 X171.962 Y191.607 E337.91828
G1 X171.417 Y192.047 E337.95323
G1 X170.717 Y192.395 E337.99223
G1 X170 Y192.5 E338.02838
G1 X79.824 Y192.5 E342.52728
G1 X79.106 Y192.33 E342.56409
G1 X78.417 Y191.965 E342.60299
G1 X78.293 Y191.862 E342.61103
G1 X77.853 Y191.317 E342.64598
G1 X77.505 Y190.617 E342.68498
G1 X77.4 Y189.9 E342.72113
G1 X77.4 Y64.924 E348.95621
G1 X77.57 Y64.206 E348.99302
G1 X77.935 Y63.517 E349.03192
G0 F3600 X78.289 Y63.704
G1 F1800 X78.799 Y63.292 E349.06463
G1 X79.405 Y62.991 E349.09839
G1 X80 Y62.9 E349.12842
G1 X91.78 Y62.9 E349.71613
G1 X92.431 Y63.012 E349.74908
G1 X93.143 Y63.389 E349.78928
G1 X93.555 Y63.899 E349.82199
G1 X93.856 Y64.505 E349.85574
G1 X93.947 Y65.1 E349.88577
G1 X93.947 Y73.302 E350.29497
G1 X102.048 Y73.302 E350.69913
G1 X102.048 Y65.067 E351.10998
G1 X102.16 Y64.416 E351.14293
G1 X102.537 Y63.704 E351.18313
G1 X103.047 Y63.292 E351.21584
G1 X103.653 Y62.991 E351.24959
G1 X104.248 Y62.9 E351.27962
G1 X118.783 Y62.9 E352.00478
G1 X119.434 Y63.012 E352.03773
G1 X120.146 Y63.389 E352.07793
G1 X120.558 Y63.899 E352.11064
G1 X120.859 Y64.505 E352.1444
G1 X120.95 Y65.1 E352.17443
G1 X120.95 Y72.302 E352.53373
G1 X129.05 Y72.302 E352.93785
G1 X129.05 Y65.067 E353.2988
G1 X129.162 Y64.416 E353.33176
G1 X129.539 Y63.704 E353.37195
G1 X130.049 Y63.292 E353.40466
G1 X130.655 Y62.991 E353.43842
G1 X131.25 Y62.9 E353.46845
G1 X145.785 Y62.9 E354.1936
G1 X146.436 Y63.012 E354.22656
G1 X147.148 Y63.389 E354.26675
G1 X147.56 Y63.899 E354.29946
G1 X147.861 Y64.505 E354.33322
G1 X147.952 Y65.1 E354.36325
G1 X147.952 Y73.302 E354.77245
G1 X156.053 Y73.302 E355.17661
G1 X156.053 Y65.067 E355.58745
G1 X156.165 Y64.416 E355.62041
G1 X156.542 Y63.704 E355.6606
G1 X157.052 Y63.292 E355.69331
G1 X157.658 Y62.991 E355.72707
G1 X158.253 Y62.9 E355.7571
G1 X170.033 Y62.9 E356.34481
G1 X170.684 Y63.012 E356.37776
G1 X171.396 Y63.389 E356.41796
G1 X171.808 Y63.899 E356.45067
G1 X172.109 Y64.505 E356.48442
G1 X172.2 Y65.1 E356.51445
G1 X172.2 Y190.03 E362.74724
G1 X172.053 Y190.65 E362.77903
G1 X171.711 Y191.296 E362.81549
G1 X171.201 Y191.708 E362.8482
G1 X170.595 Y192.009 E362.88196
G1 X170 Y192.1 E362.91199
G1 X79.87 Y192.1 E367.40859
G1 X79.25 Y191.953 E367.44038
G1 X78.604 Y191.611 E367.47685
G1 X78.192 Y191.101 E367.50956
G1 X77.891 Y190.495 E367.54332
G1 X77.8 Y189.9 E367.57335
G1 X77.8 Y64.97 E373.80613
G1 X77.947 Y64.35 E373.83792
G1 X78.289 Y63.704 E373.87439
G0 F3600 X78.605 Y63.962
G1 F1800 X78.977 Y63.65 E373.89861
G1 X79.526 Y63.377 E373.9292
G1 X80 Y63.3 E373.95316
G1 X91.747 Y63.3 E374.53922
G1 X92.299 Y63.395 E374.56716
G1 X92.885 Y63.705 E374.60023
G1 X93.197 Y64.077 E374.62446
G1 X93.47 Y64.626 E374.65505
G1 X93.547 Y65.1 E374.679
G1 X93.547 Y73.702 E375.10816
G1 X102.448 Y73.702 E375.55223
G1 X102.448 Y65.1 E375.98139
G1 X102.543 Y64.548 E376.00933
G1 X102.853 Y63.962 E376.04241
G1 X103.225 Y63.65 E376.06663
G1 X103.774 Y63.377 E376.09722
G1 X104.248 Y63.3 E376.12118
G1 X118.75 Y63.3 E376.84468
G1 X119.302 Y63.395 E376.87263
G1 X119.888 Y63.705 E376.9057
G1 X120.2 Y64.077 E376.92993
G1 X120.473 Y64.626 E376.96051
G1 X120.55 Y65.1 E376.98447
G1 X120.55 Y72.702 E377.36374
G1 X129.45 Y72.702 E377.80776
G1 X129.45 Y65.1 E378.18703
G1 X129.545 Y64.548 E378.21497
G1 X129.855 Y63.962 E378.24804
G1 X130.227 Y63.65 E378.27227
G1 X130.776 Y63.377 E378.30286
G1 X131.25 Y63.3 E378.32681
G1 X145.752 Y63.3 E379.05032
G1 X146.304 Y63.395 E379.07827
G1 X146.89 Y63.705 E379.11134
G1 X147.202 Y64.077 E379.13556
G1 X147.475 Y64.626 E379.16615
G1 X147.552 Y65.1 E379.19011
G1 X147.552 Y73.702 E379.61927
G1 X156.453 Y73.702 E380.06334
G1 X156.453 Y65.1 E380.49249
G1 X156.548 Y64.548 E380.52044
G1 X156.858 Y63.962 E380.55351
G1 X157.23 Y63.65 E380.57774
G1 X157.779 Y63.377 E380.60832
G1 X158.253 Y63.3 E380.63228
G1 X170 Y63.3 E381.21834
G1 X170.552 Y63.395 E381.24629
G1 X171.138 Y63.705 E381.27936
G1 X171.45 Y64.077 E381.30358
G1 X171.723 Y64.626 E381.33417
G1 X171.8 Y65.1 E381.35813
G1 X171.8 Y189.984 E387.58862
G1 X171.676 Y190.506 E387.61539
G1 X171.395 Y191.038 E387.6454
G1 X171.023 Y191.35 E387.66963
G1 X170.474 Y191.623 E387.70022
G1 X170 Y191.7 E387.72417
G1 X79.916 Y191.7 E392.21848
G1 X79.394 Y191.576 E392.24525
G1 X78.862 Y191.295 E392.27527
G1 X78.55 Y190.923 E392.29949
G1 X78.277 Y190.374 E392.33008
G1 X78.2 Y189.9 E392.35404
G1 X78.2 Y65.016 E398.58452
G1 X78.324 Y64.494 E398.61129
G1 X78.605 Y63.962 E398.64131
G0 F3600 X78.923 Y64.217
G1 F1800 X79.155 Y64.008 E398.65689
G1 X79.649 Y63.762 E398.68442
G1 X80 Y63.7 E398.7022
G1 X91.747 Y63.7 E399.28826
G1 X92.166 Y63.778 E399.30952
G1 X92.63 Y64.023 E399.3357
G1 X92.839 Y64.255 E399.35128
G1 X93.085 Y64.749 E399.37881
G1 X93.147 Y65.1 E399.3966
G1 X93.147 Y74.102 E399.84571
G1 X102.848 Y74.102 E400.32969
G1 X102.848 Y65.1 E400.7788
G1 X102.926 Y64.681 E400.80007
G1 X103.171 Y64.217 E400.82625
G1 X103.403 Y64.008 E400.84182
G1 X103.897 Y63.762 E400.86936
G1 X104.248 Y63.7 E400.88714
G1 X118.75 Y63.7 E401.61065
G1 X119.169 Y63.778 E401.63191
G1 X119.633 Y64.023 E401.65809
G1 X119.842 Y64.255 E401.67367
G1 X120.088 Y64.749 E401.7012
G1 X120.15 Y65.1 E401.71898
G1 X120.15 Y73.102 E402.1182
G1 X129.85 Y73.102 E402.60214
G1 X129.85 Y65.1 E403.00136
G1 X129.928 Y64.681 E403.02262
G1 X130.173 Y64.217 E403.0488
G1 X130.405 Y64.008 E403.06438
G1 X130.899 Y63.762 E403.09191
G1 X131.25 Y63.7 E403.10969
G1 X145.752 Y63.7 E403.8332
G1 X146.171 Y63.778 E403.85447
G1 X146.635 Y64.023 E403.88064
G1 X146.844 Y64.255 E403.89622
G1 X147.09 Y64.749 E403.92375
G1 X147.152 Y65.1 E403.94154
G1 X147.152 Y74.102 E404.39065
G1 X156.853 Y74.102 E404.87463
G1 X156.853 Y65.1 E405.32374
G1 X156.931 Y64.681 E405.34501
G1 X157.176 Y64.217 E405.37119
G1 X157.408 Y64.008 E405.38676
G1 X157.902 Y63.762 E405.4143
G1 X158.253 Y63.7 E405.43208
G1 X170 Y63.7 E406.01814
G1 X170.419 Y63.778 E406.0394
G1 X170.883 Y64.023 E406.06558
G1 X171.092 Y64.255 E406.08116
G1 X171.338 Y64.749 E406.10869
G1 X171.4 Y65.1 E406.12647
G1 X171.4 Y189.942 E412.35487
G1 X171.322 Y190.319 E412.37407
G1 X171.077 Y190.783 E412.40025
G1 X170.845 Y190.992 E412.41583
G1 X170.351 Y191.238 E412.44336
G1 X170 Y191.3 E412.46115
G1 X79.958 Y191.3 E416.95336
G1 X79.581 Y191.222 E416.97257
G1 X79.117 Y190.977 E416.99874
G1 X78.908 Y190.745 E417.01432
G1 X78.662 Y190.251 E417.04186
G1 X78.6 Y189.9 E417.05964
G1 X78.6 Y65.058 E423.28803
G1 X78.678 Y64.681 E423.30724
G1 X78.923 Y64.217 E423.33342
G0 F3600 X79.207 Y64.499
G1 F1800 X79.345 Y64.36 E423.34319
G1 X79.727 Y64.154 E423.36484
G1 X80 Y64.1 E423.37872
G1 X91.747 Y64.1 E423.96478
G1 X92.085 Y64.17 E423.982
G1 X92.348 Y64.307 E423.9968
G1 X92.487 Y64.445 E424.00657
G1 X92.693 Y64.827 E424.02822
G1 X92.747 Y65.1 E424.04211
G1 X92.747 Y74.502 E424.51118
G1 X103.248 Y74.502 E425.03507
G1 X103.248 Y65.1 E425.50414
G1 X103.318 Y64.762 E425.52136
G1 X103.455 Y64.499 E425.53616
G1 X103.593 Y64.36 E425.54593
G1 X103.975 Y64.154 E425.56758
G1 X104.248 Y64.1 E425.58146
G1 X118.75 Y64.1 E426.30497
G1 X119.088 Y64.17 E426.32219
G1 X119.351 Y64.307 E426.33699
G1 X119.49 Y64.445 E426.34676
G1 X119.696 Y64.827 E426.36841
G1 X119.75 Y65.1 E426.3823
G1 X119.75 Y73.502 E426.80147
G1 X130.25 Y73.502 E427.32532
G1 X130.25 Y65.1 E427.7445
G1 X130.32 Y64.762 E427.76172
G1 X130.457 Y64.499 E427.77651
G1 X130.595 Y64.36 E427.78628
G1 X130.977 Y64.154 E427.80794
G1 X131.25 Y64.1 E427.82182
G1 X145.752 Y64.1 E428.54533
G1 X146.09 Y64.17 E428.56255
G1 X146.353 Y64.307 E428.57734
G1 X146.492 Y64.445 E428.58712
G1 X146.698 Y64.827 E428.60877
G1 X146.752 Y65.1 E428.62265
G1 X146.752 Y74.502 E429.09172
G1 X157.253 Y74.502 E429.61562
G1 X157.253 Y65.1 E430.08469
G1 X157.323 Y64.762 E430.10191
G1 X157.46 Y64.499 E430.1167
G1 X157.598 Y64.36 E430.12647
G1 X157.98 Y64.154 E430.14813
G1 X158.253 Y64.1 E430.16201
G1 X170 Y64.1 E430.74807
G1 X170.338 Y64.17 E430.76529
G1 X170.601 Y64.307 E430.78008
G1 X170.74 Y64.445 E430.78986
G1 X170.946 Y64.827 E430.81151
G1 X171 Y65.1 E430.82539
G1 X171 Y189.9 E437.05169
G1 X170.93 Y190.238 E437.06891
G1 X170.793 Y190.501 E437.08371
G1 X170.655 Y190.64 E437.09348
G1 X170.273 Y190.846 E437.11513
G1 X170 Y190.9 E437.12901
G1 X80 Y190.9 E441.61913
G1 X79.662 Y190.83 E441.63635
G1 X79.399 Y190.693 E441.65115
G1 X79.26 Y190.555 E441.66092
G1 X79.054 Y190.173 E441.68257
G1 X79 Y189.9 E441.69646
G1 X79 Y65.1 E447.92275
G1 X79.07 Y64.762 E447.93997
G1 X79.207 Y64.499 E447.95477
G0 F3600 X79.55 Y64.704
G1 F1800 X79.82 Y64.543 E447.97045
G1 X80 Y64.5 E447.97969
G1 X91.747 Y64.5 E448.56575
G1 X91.991 Y64.559 E448.57827
G1 X92.143 Y64.65 E448.58711
G1 X92.304 Y64.92 E448.60279
G1 X92.347 Y65.1 E448.61202
G1 X92.347 Y74.902 E449.10105
G1 X103.648 Y74.902 E449.66486
G1 X103.648 Y65.1 E450.15388
G1 X103.707 Y64.856 E450.1664
G1 X103.798 Y64.704 E450.17524
G1 X104.068 Y64.543 E450.19093
G1 X104.248 Y64.5 E450.20016
G1 X118.75 Y64.5 E450.92367
G1 X118.994 Y64.559 E450.93619
G1 X119.146 Y64.65 E450.94503
G1 X119.307 Y64.92 E450.96071
G1 X119.35 Y65.1 E450.96995
G1 X119.35 Y73.902 E451.40908
G1 X130.65 Y73.902 E451.97284
G1 X130.65 Y65.1 E452.41197
G1 X130.709 Y64.856 E452.4245
G1 X130.8 Y64.704 E452.43334
G1 X131.07 Y64.543 E452.44902
G1 X131.25 Y64.5 E452.45825
G1 X145.752 Y64.5 E453.18176
G1 X145.996 Y64.559 E453.19428
G1 X146.148 Y64.65 E453.20312
G1 X146.309 Y64.92 E453.21881
G1 X146.352 Y65.1 E453.22804
G1 X146.352 Y74.902 E453.71706
G1 X157.653 Y74.902 E454.28087
G1 X157.653 Y65.1 E454.76989
G1 X157.712 Y64.856 E454.78242
G1 X157.803 Y64.704 E454.79126
G1 X158.073 Y64.543 E454.80694
G1 X158.253 Y64.5 E454.81617
G1 X170 Y64.5 E455.40223
G1 X170.244 Y64.559 E455.41476
G1 X170.396 Y64.65 E455.4236
G1 X170.557 Y64.92 E455.43928
G1 X170.6 Y65.1 E455.44851
G1 X170.6 Y189.9 E461.67481
G1 X170.541 Y190.144 E461.68733
G1 X170.45 Y190.296 E461.69617
G1 X170.18 Y190.457 E461.71186
G1 X170 Y190.5 E461.72109
G1 X80 Y190.5 E466.21121
G1 X79.756 Y190.441 E466.22373
G1 X79.604 Y190.35 E466.23257
G1 X79.443 Y190.08 E466.24825
G1 X79.4 Y189.9 E466.25749
G1 X79.4 Y65.1 E472.48378
G1 X79.459 Y64.856 E472.49631
G1 X79.55 Y64.704 E472.50515
G0 F3600 X79.839 Y64.981
G1 F1800 X80 Y64.9 E472.51414
G1 X91.747 Y64.9 E473.1002
G1 X91.866 Y64.939 E473.10644
G1 X91.947 Y65.1 E473.11544
G1 X91.947 Y75.302 E473.62442
G1 X104.048 Y75.302 E474.22814
G1 X104.048 Y65.1 E474.73712
G1 X104.087 Y64.981 E474.74337
G1 X104.248 Y64.9 E474.75236
G1 X118.75 Y64.9 E475.47586
G1 X118.869 Y64.939 E475.48211
G1 X118.95 Y65.1 E475.4911
G1 X118.95 Y74.302 E475.95019
G1 X131.05 Y74.302 E476.55386
G1 X131.05 Y65.1 E477.01295
G1 X131.089 Y64.981 E477.0192
G1 X131.25 Y64.9 E477.02819
G1 X145.752 Y64.9 E477.7517
G1 X145.871 Y64.939 E477.75795
G1 X145.952 Y65.1 E477.76694
G1 X145.952 Y75.302 E478.27592
G1 X158.053 Y75.302 E478.87964
G1 X158.053 Y65.1 E479.38862
G1 X158.092 Y64.981 E479.39487
G1 X158.253 Y64.9 E479.40386
G1 X170 Y64.9 E479.98992
G1 X170.119 Y64.939 E479.99617
G1 X170.2 Y65.1 E480.00516
G1 X170.2 Y189.9 E486.23146
G1 X170.161 Y190.019 E486.23771
G1 X170 Y190.1 E486.2467
G1 X80 Y190.1 E490.73681
G1 X79.881 Y190.061 E490.74306
G1 X79.8 Y189.9 E490.75205
G1 X79.8 Y65.1 E496.97835
G1 X79.839 Y64.981 E496.9846
G1 F1500 E490.4846
;MESH:Alliance_Tray.stl
G0 F3600 X91.412 Y76.402
G0 X91.412 Y76.001
;TYPE:WALL-INNER
G1 F1500 E496.9846
G1 F1800 X91.226 Y75.801 E496.99823
G1 X91.147 Y75.584 E497.00975
G1 X91.147 Y65.701 E497.50281
G1 X80.601 Y65.701 E498.02895
G1 X80.6 Y189.3 E504.19533
G1 X169.4 Y189.3 E508.62558
G1 X169.4 Y65.701 E514.79196
G1 X158.854 Y65.701 E515.3181
G1 X158.854 Y75.575 E515.81072
G1 X158.734 Y75.862 E515.82624
G1 X158.588 Y76.001 E515.8363
G1 X158.295 Y76.101 E515.85174
G1 X145.673 Y76.102 E516.48146
G1 X145.531 Y76.061 E516.48883
G1 X145.324 Y75.924 E516.50121
G1 X145.217 Y75.775 E516.51037
G1 X145.152 Y75.591 E516.5201
G1 X145.152 Y65.7 E517.01357
G1 X131.85 Y65.7 E517.67721
G1 X131.845 Y74.585 E518.12048
G1 X131.715 Y74.882 E518.13665
G1 X131.575 Y75.008 E518.14605
G1 X131.329 Y75.102 E518.15919
G1 X118.713 Y75.101 E518.7886
G1 X118.517 Y75.056 E518.79864
G1 X118.285 Y74.882 E518.81311
G1 X118.155 Y74.585 E518.82928
G1 X118.15 Y65.7 E519.27256
G1 X104.848 Y65.7 E519.93619
G1 X104.848 Y75.591 E520.42966
G1 X104.783 Y75.775 E520.43939
G1 X104.676 Y75.924 E520.44855
G1 X104.544 Y76.025 E520.45684
G1 X104.268 Y76.102 E520.47113
G1 X91.705 Y76.101 E521.0979
G1 X91.412 Y76.001 E521.11335
G0 F3600 X91.703 Y75.698
;TYPE:WALL-OUTER
G1 F1800 X91.618 Y75.656 E521.11808
G1 X91.548 Y75.529 E521.12532
G1 X91.547 Y65.301 E521.63559
G1 X80.201 Y65.301 E522.20165
G1 X80.2 Y189.7 E528.40794
G1 X169.8 Y189.7 E532.8781
G1 X169.8 Y65.301 E539.08439
G1 X158.454 Y65.301 E539.65045
G1 X158.454 Y75.541 E540.16132
G1 X158.414 Y75.622 E540.16583
G1 X158.297 Y75.698 E540.17279
G1 X145.715 Y75.699 E540.80051
G1 X145.602 Y75.636 E540.80696
G1 X145.556 Y75.543 E540.81214
G1 X145.552 Y65.3 E541.32316
G1 X131.45 Y65.3 E542.02671
G1 X131.448 Y74.57 E542.4892
G1 X131.294 Y74.698 E542.49919
G1 X118.689 Y74.693 E543.12805
G1 X118.612 Y74.648 E543.1325
G1 X118.551 Y74.53 E543.13913
G1 X118.55 Y65.3 E543.59962
G1 X104.448 Y65.3 E544.30317
G1 X104.447 Y75.572 E544.81564
G1 X104.323 Y75.702 E544.8246
G1 X91.703 Y75.698 E545.45422
G0 F3600 X91.618 Y75.656
G0 X91.567 Y75.564
G0 X90.847 Y75.564
G0 X145.675 Y76.48
;TYPE:SKIN
G1 F1800 X158.325 Y76.481 E546.08533
G1 X158.56 Y76.434 E546.09729
G1 X158.891 Y76.247 E546.11625
G1 X159.11 Y75.978 E546.13356
G1 X159.232 Y75.605 E546.15314
G1 X159.234 Y66.081 E546.62829
G1 X169.02 Y66.081 E547.11652
G1 X169.02 Y188.92 E553.24498
G1 X80.98 Y188.92 E557.63731
G1 X80.981 Y66.081 E563.76578
G1 X90.767 Y66.081 E564.254
G1 X90.769 Y75.63 E564.7304
G1 X90.845 Y75.889 E564.74387
G1 X91.103 Y76.243 E564.76572
G1 X91.38 Y76.412 E564.78191
G1 X91.68 Y76.481 E564.79727
G1 X104.328 Y76.48 E565.42828
G1 X104.649 Y76.398 E565.44481
G1 X104.842 Y76.282 E565.45604
G1 X105.079 Y76.024 E565.47352
G1 X105.223 Y75.67 E565.49259
G1 X105.228 Y66.08 E565.97104
G1 X117.77 Y66.08 E566.59676
G1 X117.772 Y74.533 E567.01848
G1 X117.868 Y74.931 E567.03891
G1 X118.04 Y75.179 E567.05396
G1 X118.328 Y75.387 E567.07169
G1 X118.633 Y75.473 E567.0875
G1 X131.297 Y75.482 E567.71931
G1 X131.586 Y75.425 E567.734
G1 X131.895 Y75.242 E567.75192
G1 X132.127 Y74.942 E567.77084
G1 X132.228 Y74.63 E567.7872
G1 X132.23 Y66.08 E568.21376
G1 X144.772 Y66.08 E568.83949
G1 X144.773 Y75.644 E569.31664
G1 X144.874 Y75.94 E569.33224
G1 X145.084 Y76.222 E569.34978
G1 X145.304 Y76.374 E569.36312
G1 X145.675 Y76.48 E569.38237
G0 F3600 X159.081 Y76.33
G0 X168.819 Y66.43
G1 F1800 X168.669 Y66.28 E569.39295
G0 F3600 X168.104 Y66.28
G1 F1800 X168.819 Y66.996 E569.44344
G0 F3600 X168.819 Y67.561
G1 F1800 X167.538 Y66.28 E569.53382
G0 F3600 X166.972 Y66.28
G1 F1800 X168.819 Y68.127 E569.66413
G0 F3600 X168.819 Y68.693
G1 F1800 X166.406 Y66.28 E569.83438
G0 F3600 X165.841 Y66.28
G1 F1800 X168.819 Y69.258 E570.0445
G0 F3600 X168.819 Y69.824
G1 F1800 X165.275 Y66.28 E570.29455
G0 F3600 X164.709 Y66.28
G1 F1800 X168.819 Y70.39 E570.58453
G0 F3600 X168.819 Y70.956
G1 F1800 X164.144 Y66.28 E570.91441
G0 F3600 X163.578 Y66.28
G1 F1800 X168.819 Y71.521 E571.28419
G0 F3600 X168.819 Y72.087
G1 F1800 X163.012 Y66.28 E571.69391
G0 F3600 X162.447 Y66.28
G1 F1800 X168.819 Y72.653 E572.14352
G0 F3600 X168.819 Y73.218
G1 F1800 X161.881 Y66.28 E572.63303
G0 F3600 X161.315 Y66.28
G1 F1800 X168.819 Y73.784 E573.16248
G0 F3600 X168.819 Y74.35
G1 F1800 X160.75 Y66.28 E573.73183
G0 F3600 X160.184 Y66.28
G1 F1800 X168.819 Y74.915 E574.34107
G0 F3600 X168.819 Y75.481
G1 F1800 X159.618 Y66.28 E574.99026
G0 F3600 X159.432 Y66.66
G1 F1800 X168.819 Y76.047 E575.65256
G0 F3600 X168.819 Y76.612
G1 F1800 X159.432 Y67.226 E576.31483
G0 F3600 X159.432 Y67.791
G1 F1800 X168.819 Y77.178 E576.97713
G0 F3600 X168.819 Y77.744
G1 F1800 X159.432 Y68.356 E577.63947
G0 F3600 X159.431 Y68.921
G1 F1800 X168.819 Y78.309 E578.30184
G0 F3600 X168.819 Y78.875
G1 F1800 X159.431 Y69.487 E578.96422
G0 F3600 X159.43 Y70.052
G1 F1800 X168.819 Y79.441 E579.62666
G0 F3600 X168.819 Y80.007
G1 F1800 X159.43 Y70.618 E580.28911
G0 F3600 X159.429 Y71.183
G1 F1800 X168.819 Y80.572 E580.95159
G0 F3600 X168.819 Y81.138
G1 F1800 X159.429 Y71.748 E581.6141
G0 F3600 X159.429 Y72.313
G1 F1800 X168.819 Y81.704 E582.27665
G0 F3600 X168.819 Y82.269
G1 F1800 X159.429 Y72.879 E582.93917
G0 F3600 X159.428 Y73.444
G1 F1800 X168.819 Y82.835 E583.60175
G0 F3600 X168.819 Y83.401
G1 F1800 X159.428 Y74.01 E584.26434
G0 F3600 X159.427 Y74.575
G1 F1800 X168.819 Y83.966 E584.92696
G0 F3600 X168.819 Y84.532
G1 F1800 X159.427 Y75.14 E585.58962
G0 F3600 X159.41 Y75.688
G1 F1800 X168.819 Y85.098 E586.25351
G0 F3600 X168.819 Y85.663
G1 F1800 X159.264 Y76.108 E586.92766
G0 F3600 X159 Y76.409
G1 F1800 X168.819 Y86.229 E587.62048
G0 F3600 X168.819 Y86.795
G1 F1800 X158.64 Y76.616 E588.33867
G0 F3600 X158.139 Y76.68
G1 F1800 X168.819 Y87.36 E589.0922
G0 F3600 X168.819 Y87.926
G1 F1800 X157.573 Y76.68 E589.88566
G0 F3600 X157.008 Y76.68
G1 F1800 X168.819 Y88.492 E590.71903
G0 F3600 X168.819 Y89.057
G1 F1800 X156.442 Y76.68 E591.59229
G0 F3600 X155.876 Y76.68
G1 F1800 X168.819 Y89.623 E592.50549
G0 F3600 X168.819 Y90.189
G1 F1800 X155.311 Y76.68 E593.45859
G0 F3600 X154.745 Y76.68
G1 F1800 X168.819 Y90.755 E594.45162
G0 F3600 X168.819 Y91.32
G1 F1800 X154.179 Y76.68 E595.48455
G0 F3600 X153.613 Y76.68
G1 F1800 X168.819 Y91.886 E596.55742
G0 F3600 X168.819 Y92.452
G1 F1800 X153.048 Y76.68 E597.67018
G0 F3600 X152.482 Y76.68
G1 F1800 X168.819 Y93.017 E598.82285
G0 F3600 X168.819 Y93.583
G1 F1800 X151.916 Y76.68 E600.01544
G0 F3600 X151.351 Y76.68
G1 F1800 X168.819 Y94.149 E601.24794
G0 F3600 X168.819 Y94.714
G1 F1800 X150.785 Y76.68 E602.52034
G0 F3600 X150.219 Y76.68
G1 F1800 X168.819 Y95.28 E603.83267
G0 F3600 X168.819 Y95.846
G1 F1800 X149.654 Y76.68 E605.1849
G0 F3600 X149.088 Y76.68
G1 F1800 X168.819 Y96.411 E606.57703
G0 F3600 X168.819 Y96.977
G1 F1800 X148.522 Y76.68 E608.00909
G0 F3600 X147.957 Y76.68
G1 F1800 X168.819 Y97.543 E609.48105
G0 F3600 X168.819 Y98.108
G1 F1800 X147.391 Y76.68 E610.99291
G0 F3600 X146.825 Y76.68
G1 F1800 X168.819 Y98.674 E612.54471
G0 F3600 X168.819 Y99.24
G1 F1800 X146.26 Y76.68 E614.1364
G0 F3600 X145.694 Y76.68
G1 F1800 X168.819 Y99.806 E615.76803
G0 F3600 X168.819 Y100.371
G1 F1800 X134.727 Y66.279 E618.17341
G0 F3600 X134.162 Y66.279
G1 F1800 X168.819 Y100.937 E620.61868
G0 F3600 X168.819 Y101.503
G1 F1800 X133.596 Y66.279 E623.10389
G0 F3600 X133.03 Y66.279
G1 F1800 X168.819 Y102.068 E625.629
G0 F3600 X168.819 Y102.634
G1 F1800 X132.465 Y66.279 E628.194
G0 F3600 X132.429 Y66.809
G1 F1800 X168.819 Y103.2 E630.76155
G0 F3600 X168.819 Y103.765
G1 F1800 X132.428 Y67.374 E633.32913
G0 F3600 X132.428 Y67.94
G1 F1800 X168.819 Y104.331 E635.89671
G0 F3600 X168.819 Y104.897
G1 F1800 X132.427 Y68.505 E638.46436
G0 F3600 X132.427 Y69.07
G1 F1800 X168.819 Y105.462 E641.03202
G0 F3600 X168.819 Y106.028
G1 F1800 X132.426 Y69.635 E643.59974
G0 F3600 X132.426 Y70.201
G1 F1800 X168.819 Y106.594 E646.16746
G0 F3600 X168.819 Y107.159
G1 F1800 X132.426 Y70.766 E648.73518
G0 F3600 X132.426 Y71.332
G1 F1800 X168.819 Y107.725 E651.30291
G0 F3600 X168.819 Y108.291
G1 F1800 X132.425 Y71.897 E653.8707
G0 F3600 X132.425 Y72.462
G1 F1800 X168.819 Y108.856 E656.43849
G0 F3600 X168.819 Y109.422
G1 F1800 X132.424 Y73.027 E659.00636
G0 F3600 X132.424 Y73.593
G1 F1800 X168.819 Y109.988 E661.57422
G0 F3600 X168.819 Y110.554
G1 F1800 X132.424 Y74.158 E664.14212
G0 F3600 X132.409 Y74.709
G1 F1800 X168.819 Y111.119 E666.71104
G0 F3600 X168.819 Y111.685
G1 F1800 X132.24 Y75.106 E669.29189
G0 F3600 X131.987 Y75.419
G1 F1800 X168.819 Y112.251 E671.89058
G0 F3600 X168.819 Y112.816
G1 F1800 X131.62 Y75.617 E674.51517
G0 F3600 X131.118 Y75.681
G1 F1800 X168.819 Y113.382 E677.17518
G0 F3600 X168.819 Y113.948
G1 F1800 X130.553 Y75.681 E679.87509
G0 F3600 X129.987 Y75.681
G1 F1800 X168.819 Y114.513 E682.6149
G0 F3600 X168.819 Y115.079
G1 F1800 X129.421 Y75.681 E685.39464
G0 F3600 X128.856 Y75.681
G1 F1800 X168.819 Y115.645 E688.21428
G0 F3600 X168.819 Y116.21
G1 F1800 X128.29 Y75.681 E691.07382
G0 F3600 X127.724 Y75.681
G1 F1800 X168.819 Y116.776 E693.9733
G0 F3600 X168.819 Y117.342
G1 F1800 X127.159 Y75.681 E696.91267
G0 F3600 X126.592 Y75.68
G1 F1800 X168.819 Y117.907 E699.89201
G0 F3600 X168.819 Y118.473
G1 F1800 X126.026 Y75.68 E702.91129
G0 F3600 X125.461 Y75.68
G1 F1800 X168.819 Y119.039 E705.97047
G0 F3600 X168.819 Y119.604
G1 F1800 X124.895 Y75.68 E709.06954
G0 F3600 X124.329 Y75.68
G1 F1800 X168.819 Y120.17 E712.20855
G0 F3600 X168.819 Y120.736
G1 F1800 X123.764 Y75.68 E715.38746
G0 F3600 X123.198 Y75.68
G1 F1800 X168.819 Y121.302 E718.6063
G0 F3600 X168.819 Y121.867
G1 F1800 X122.632 Y75.68 E721.86505
G0 F3600 X122.066 Y75.68
G1 F1800 X168.819 Y122.433 E725.16372
G0 F3600 X168.819 Y122.999
G1 F1800 X121.5 Y75.68 E728.50233
G0 F3600 X120.935 Y75.68
G1 F1800 X168.819 Y123.564 E731.88081
G0 F3600 X168.819 Y124.13
G1 F1800 X120.369 Y75.68 E735.29922
G0 F3600 X119.803 Y75.68
G1 F1800 X168.819 Y124.696 E738.75756
G0 F3600 X168.819 Y125.261
G1 F1800 X119.238 Y75.68 E742.25577
G0 F3600 X118.672 Y75.68
G1 F1800 X168.819 Y125.827 E745.79391
G0 F3600 X168.819 Y126.393
G1 F1800 X108.706 Y66.279 E750.03524
G0 F3600 X108.14 Y66.279
G1 F1800 X168.819 Y126.958 E754.31647
G0 F3600 X168.819 Y127.524
G1 F1800 X107.574 Y66.279 E758.63764
G0 F3600 X107.009 Y66.279
G1 F1800 X168.819 Y128.09 E762.9987
G0 F3600 X168.819 Y128.655
G1 F1800 X106.443 Y66.279 E767.39967
G0 F3600 X105.877 Y66.279
G1 F1800 X168.819 Y129.221 E771.84057
G0 F3600 X168.819 Y129.787
G1 F1800 X105.426 Y66.393 E776.31332
G0 F3600 X105.426 Y66.959
G1 F1800 X168.819 Y130.353 E780.78607
G0 F3600 X168.819 Y130.918
G1 F1800 X105.426 Y67.525 E785.25879
G0 F3600 X105.426 Y68.09
G1 F1800 X168.819 Y131.484 E789.73155
G0 F3600 X168.819 Y132.05
G1 F1800 X105.426 Y68.656 E794.2043
G0 F3600 X105.426 Y69.222
G1 F1800 X168.819 Y132.615 E798.67702
G0 F3600 X168.819 Y133.181
G1 F1800 X105.426 Y69.787 E803.14977
G0 F3600 X105.426 Y70.353
G1 F1800 X168.819 Y133.747 E807.62253
G0 F3600 X168.819 Y134.312
G1 F1800 X105.426 Y70.919 E812.09524
G0 F3600 X105.426 Y71.484
G1 F1800 X168.819 Y134.878 E816.568
G0 F3600 X168.819 Y135.444
G1 F1800 X105.426 Y72.05 E821.04075
G0 F3600 X105.426 Y72.616
G1 F1800 X168.819 Y136.009 E825.51347
G0 F3600 X168.819 Y136.575
G1 F1800 X105.426 Y73.182 E829.98619
G0 F3600 X105.426 Y73.747
G1 F1800 X168.819 Y137.141 E834.45894
G0 F3600 X168.819 Y137.706
G1 F1800 X105.426 Y74.313 E838.93166
G0 F3600 X105.426 Y74.879
G1 F1800 X168.819 Y138.272 E843.40438
G0 F3600 X168.819 Y138.838
G1 F1800 X105.426 Y75.444 E847.87713
G0 F3600 X105.33 Y75.914
G1 F1800 X168.819 Y139.403 E852.35663
G0 F3600 X168.819 Y139.969
G1 F1800 X105.122 Y76.272 E856.85079
G0 F3600 X104.813 Y76.528
G1 F1800 X168.819 Y140.535 E861.3668
G0 F3600 X168.819 Y141.101
G1 F1800 X104.385 Y76.667 E865.91296
G0 F3600 X103.833 Y76.68
G1 F1800 X168.819 Y141.666 E870.49808
G0 F3600 X168.819 Y142.232
G1 F1800 X103.267 Y76.68 E875.12312
G0 F3600 X102.702 Y76.68
G1 F1800 X168.819 Y142.798 E879.78807
G0 F3600 X168.819 Y143.363
G1 F1800 X102.136 Y76.68 E884.49292
G0 F3600 X101.57 Y76.68
G1 F1800 X168.819 Y143.929 E889.2377
G0 F3600 X168.819 Y144.495
G1 F1800 X101.005 Y76.68 E894.02238
G0 F3600 X100.439 Y76.68
G1 F1800 X168.819 Y145.06 E898.84695
G0 F3600 X168.819 Y145.626
G1 F1800 X99.873 Y76.68 E903.71147
G0 F3600 X99.308 Y76.68
G1 F1800 X168.819 Y146.192 E908.61588
G0 F3600 X168.819 Y146.757
G1 F1800 X98.742 Y76.68 E913.56019
G0 F3600 X98.176 Y76.68
G1 F1800 X168.819 Y147.323 E918.54444
G0 F3600 X168.819 Y147.889
G1 F1800 X97.611 Y76.68 E923.56858
G0 F3600 X97.045 Y76.68
G1 F1800 X168.819 Y148.454 E928.63262
G0 F3600 X168.819 Y149.02
G1 F1800 X96.479 Y76.68 E933.7366
G0 F3600 X95.914 Y76.68
G1 F1800 X168.819 Y149.586 E938.88048
G0 F3600 X168.819 Y150.152
G1 F1800 X95.348 Y76.68 E944.06429
G0 F3600 X94.782 Y76.68
G1 F1800 X168.819 Y150.717 E949.288
G0 F3600 X168.819 Y151.283
G1 F1800 X94.217 Y76.68 E954.55161
G0 F3600 X93.651 Y76.68
G1 F1800 X168.819 Y151.849 E959.85515
G0 F3600 X168.819 Y152.414
G1 F1800 X93.085 Y76.68 E965.19859
G0 F3600 X92.519 Y76.68
G1 F1800 X168.819 Y152.98 E970.58197
G0 F3600 X168.819 Y153.546
G1 F1800 X91.954 Y76.68 E976.00525
G0 F3600 X91.299 Y76.591
G1 F1800 X168.819 Y154.111 E981.4747
G0 F3600 X168.819 Y154.677
G1 F1800 X81.18 Y67.037 E987.65814
G0 F3600 X81.18 Y66.472
G1 F1800 X90.656 Y75.948 E988.32673
G0 F3600 X90.57 Y75.296
G1 F1800 X81.554 Y66.281 E988.96282
G0 F3600 X82.12 Y66.281
G1 F1800 X90.57 Y74.731 E989.55901
G0 F3600 X90.57 Y74.165
G1 F1800 X82.686 Y66.281 E990.11527
G0 F3600 X83.251 Y66.281
G1 F1800 X90.569 Y73.599 E990.63159
G0 F3600 X90.569 Y73.033
G1 F1800 X83.817 Y66.281 E991.10798
G0 F3600 X84.383 Y66.281
G1 F1800 X90.569 Y72.467 E991.54444
G0 F3600 X90.569 Y71.901
G1 F1800 X84.948 Y66.281 E991.941
G0 F3600 X85.514 Y66.281
G1 F1800 X90.569 Y71.335 E992.29762
G0 F3600 X90.568 Y70.769
G1 F1800 X86.08 Y66.281 E992.61427
G0 F3600 X86.646 Y66.281
G1 F1800 X90.568 Y70.203 E992.89099
G0 F3600 X90.568 Y69.637
G1 F1800 X87.211 Y66.281 E993.12781
G0 F3600 X87.777 Y66.281
G1 F1800 X90.567 Y69.071 E993.32466
G0 F3600 X90.567 Y68.505
G1 F1800 X88.343 Y66.281 E993.48157
G0 F3600 X88.908 Y66.281
G1 F1800 X90.567 Y67.94 E993.59863
G0 F3600 X90.566 Y67.373
G1 F1800 X89.474 Y66.281 E993.67567
G0 F3600 X90.04 Y66.281
G1 F1800 X90.566 Y66.808 E993.71282
G0 F3600 X81.18 Y67.603
G1 F1800 X168.819 Y155.243 E999.89626
G0 F3600 X168.819 Y155.808
G1 F1800 X81.18 Y68.169 E1006.07966
G0 F3600 X81.18 Y68.735
G1 F1800 X168.819 Y156.374 E1012.26307
G0 F3600 X168.819 Y156.94
G1 F1800 X81.18 Y69.3 E1018.44651
G0 F3600 X81.18 Y69.866
G1 F1800 X168.819 Y157.505 E1024.62991
G0 F3600 X168.819 Y158.071
G1 F1800 X81.18 Y70.432 E1030.81332
G0 F3600 X81.18 Y70.997
G1 F1800 X168.819 Y158.637 E1036.99676
G0 F3600 X168.819 Y159.202
G1 F1800 X81.18 Y71.563 E1043.18016
G0 F3600 X81.18 Y72.129
G1 F1800 X168.819 Y159.768 E1049.36357
G0 F3600 X168.819 Y160.334
G1 F1800 X81.18 Y72.694 E1055.54701
G0 F3600 X81.18 Y73.26
G1 F1800 X168.819 Y160.9 E1061.73045
G0 F3600 X168.819 Y161.465
G1 F1800 X81.18 Y73.826 E1067.91385
G0 F3600 X81.18 Y74.391
G1 F1800 X168.819 Y162.031 E1074.09729
G0 F3600 X168.819 Y162.597
G1 F1800 X81.18 Y74.957 E1080.28073
G0 F3600 X81.18 Y75.523
G1 F1800 X168.819 Y163.162 E1086.46414
G0 F3600 X168.819 Y163.728
G1 F1800 X81.18 Y76.088 E1092.64758
G0 F3600 X81.18 Y76.654
G1 F1800 X168.819 Y164.294 E1098.83102
G0 F3600 X168.819 Y164.859
G1 F1800 X81.18 Y77.22 E1105.01442
G0 F3600 X81.18 Y77.785
G1 F1800 X168.819 Y165.425 E1111.19786
G0 F3600 X168.819 Y165.991
G1 F1800 X81.18 Y78.351 E1117.3813
G0 F3600 X81.18 Y78.917
G1 F1800 X168.819 Y166.556 E1123.56471
G0 F3600 X168.819 Y167.122
G1 F1800 X81.18 Y79.483 E1129.74811
G0 F3600 X81.18 Y80.048
G1 F1800 X168.819 Y167.688 E1135.93155
G0 F3600 X168.819 Y168.253
G1 F1800 X81.18 Y80.614 E1142.11496
G0 F3600 X81.18 Y81.18
G1 F1800 X168.819 Y168.819 E1148.29836
G0 F3600 X168.819 Y169.385
G1 F1800 X81.18 Y81.745 E1154.4818
G0 F3600 X81.18 Y82.311
G1 F1800 X168.819 Y169.95 E1160.66521
G0 F3600 X168.819 Y170.516
G1 F1800 X81.18 Y82.877 E1166.84861
G0 F3600 X81.18 Y83.442
G1 F1800 X168.819 Y171.082 E1173.03205
G0 F3600 X168.819 Y171.648
G1 F1800 X81.18 Y84.008 E1179.21549
G0 F3600 X81.18 Y84.574
G1 F1800 X168.819 Y172.213 E1185.3989
G0 F3600 X168.819 Y172.779
G1 F1800 X81.18 Y85.139 E1191.58234
G0 F3600 X81.18 Y85.705
G1 F1800 X168.819 Y173.345 E1197.76578
G0 F3600 X168.819 Y173.91
G1 F1800 X81.18 Y86.271 E1203.94918
G0 F3600 X81.18 Y86.836
G1 F1800 X168.819 Y174.476 E1210.13262
G0 F3600 X168.819 Y175.042
G1 F1800 X81.18 Y87.402 E1216.31606
G0 F3600 X81.18 Y87.968
G1 F1800 X168.819 Y175.607 E1222.49947
G0 F3600 X168.819 Y176.173
G1 F1800 X81.18 Y88.534 E1228.68287
G0 F3600 X81.18 Y89.099
G1 F1800 X168.819 Y176.739 E1234.86631
G0 F3600 X168.819 Y177.304
G1 F1800 X81.18 Y89.665 E1241.04972
G0 F3600 X81.18 Y90.231
G1 F1800 X168.819 Y177.87 E1247.23312
G0 F3600 X168.819 Y178.436
G1 F1800 X81.18 Y90.796 E1253.41656
G0 F3600 X81.18 Y91.362
G1 F1800 X168.819 Y179.001 E1259.59997
G0 F3600 X168.819 Y179.567
G1 F1800 X81.18 Y91.928 E1265.78337
G0 F3600 X81.18 Y92.493
G1 F1800 X168.819 Y180.133 E1271.96681
G0 F3600 X168.819 Y180.699
G1 F1800 X81.18 Y93.059 E1278.15025
G0 F3600 X81.18 Y93.625
G1 F1800 X168.819 Y181.264 E1284.33366
G0 F3600 X168.819 Y181.83
G1 F1800 X81.18 Y94.19 E1290.5171
G0 F3600 X81.18 Y94.756
G1 F1800 X168.819 Y182.396 E1296.70054
G0 F3600 X168.819 Y182.961
G1 F1800 X81.18 Y95.322 E1302.88394
G0 F3600 X81.18 Y95.887
G1 F1800 X168.819 Y183.527 E1309.06738
G0 F3600 X168.819 Y184.093
G1 F1800 X81.18 Y96.453 E1315.25082
G0 F3600 X81.18 Y97.019
G1 F1800 X168.819 Y184.658 E1321.43423
G0 F3600 X168.819 Y185.224
G1 F1800 X81.18 Y97.584 E1327.61767
G0 F3600 X81.18 Y98.15
G1 F1800 X168.819 Y185.79 E1333.80111
G0 F3600 X168.819 Y186.355
G1 F1800 X81.18 Y98.716 E1339.98451
G0 F3600 X81.18 Y99.282
G1 F1800 X168.819 Y186.921 E1346.16792
G0 F3600 X168.819 Y187.487
G1 F1800 X81.18 Y99.847 E1352.35136
G0 F3600 X81.18 Y100.413
G1 F1800 X168.819 Y188.052 E1358.53476
G0 F3600 X168.819 Y188.618
G1 F1800 X81.18 Y100.979 E1364.71817
G0 F3600 X81.18 Y101.544
G1 F1800 X168.354 Y188.719 E1370.8688
G0 F3600 X167.788 Y188.719
G1 F1800 X81.18 Y102.11 E1376.97949
G0 F3600 X81.18 Y102.676
G1 F1800 X167.222 Y188.719 E1383.05026
G0 F3600 X166.657 Y188.719
G1 F1800 X81.18 Y103.241 E1389.08116
G0 F3600 X81.18 Y103.807
G1 F1800 X166.091 Y188.719 E1395.07212
G0 F3600 X165.525 Y188.719
G1 F1800 X81.18 Y104.373 E1401.02315
G0 F3600 X81.18 Y104.938
G1 F1800 X164.96 Y188.719 E1406.93432
G0 F3600 X164.394 Y188.719
G1 F1800 X81.18 Y105.504 E1412.80555
G0 F3600 X81.18 Y106.07
G1 F1800 X163.828 Y188.719 E1418.63685
G0 F3600 X163.263 Y188.719
G1 F1800 X81.18 Y106.635 E1424.42828
G0 F3600 X81.18 Y107.201
G1 F1800 X162.697 Y188.719 E1430.17978
G0 F3600 X162.131 Y188.719
G1 F1800 X81.18 Y107.767 E1435.89135
G0 F3600 X81.18 Y108.333
G1 F1800 X161.566 Y188.719 E1441.56302
G0 F3600 X161 Y188.719
G1 F1800 X81.18 Y108.898 E1447.19478
G0 F3600 X81.18 Y109.464
G1 F1800 X160.434 Y188.719 E1452.78662
G0 F3600 X159.869 Y188.719
G1 F1800 X81.18 Y110.03 E1458.33855
G0 F3600 X81.18 Y110.595
G1 F1800 X159.303 Y188.719 E1463.85059
G0 F3600 X158.737 Y188.719
G1 F1800 X81.18 Y111.161 E1469.32269
G0 F3600 X81.18 Y111.727
G1 F1800 X158.172 Y188.719 E1474.75489
G0 F3600 X157.606 Y188.719
G1 F1800 X81.18 Y112.292 E1480.14719
G0 F3600 X81.18 Y112.858
G1 F1800 X157.04 Y188.719 E1485.49956
G0 F3600 X156.474 Y188.719
G1 F1800 X81.18 Y113.424 E1490.81199
G0 F3600 X81.18 Y113.989
G1 F1800 X155.909 Y188.719 E1496.08456
G0 F3600 X155.343 Y188.719
G1 F1800 X81.18 Y114.555 E1501.3172
G0 F3600 X81.18 Y115.121
G1 F1800 X154.777 Y188.719 E1506.5099
G0 F3600 X154.212 Y188.719
G1 F1800 X81.18 Y115.686 E1511.66273
G0 F3600 X81.18 Y116.252
G1 F1800 X153.646 Y188.719 E1516.77564
G0 F3600 X153.08 Y188.719
G1 F1800 X81.18 Y116.818 E1521.84861
G0 F3600 X81.18 Y117.383
G1 F1800 X152.515 Y188.719 E1526.88171
G0 F3600 X151.949 Y188.719
G1 F1800 X81.18 Y117.949 E1531.87488
G0 F3600 X81.18 Y118.515
G1 F1800 X151.383 Y188.719 E1536.82812
G0 F3600 X150.818 Y188.719
G1 F1800 X81.18 Y119.081 E1541.74145
G0 F3600 X81.18 Y119.646
G1 F1800 X150.252 Y188.719 E1546.61489
G0 F3600 X149.686 Y188.719
G1 F1800 X81.18 Y120.212 E1551.4484
G0 F3600 X81.18 Y120.778
G1 F1800 X149.121 Y188.719 E1556.242
G0 F3600 X148.555 Y188.719
G1 F1800 X81.18 Y121.343 E1560.99571
G0 F3600 X81.18 Y121.909
G1 F1800 X147.989 Y188.719 E1565.70948
G0 F3600 X147.423 Y188.719
G1 F1800 X81.18 Y122.475 E1570.38331
G0 F3600 X81.18 Y123.04
G1 F1800 X146.858 Y188.719 E1575.01729
G0 F3600 X146.292 Y188.719
G1 F1800 X81.18 Y123.606 E1579.61133
G0 F3600 X81.18 Y124.172
G1 F1800 X145.726 Y188.719 E1584.16543
G0 F3600 X145.161 Y188.719
G1 F1800 X81.18 Y124.737 E1588.67967
G0 F3600 X81.18 Y125.303
G1 F1800 X144.595 Y188.719 E1593.15398
G0 F3600 X144.029 Y188.719
G1 F1800 X81.18 Y125.869 E1597.58835
G0 F3600 X81.18 Y126.434
G1 F1800 X143.464 Y188.719 E1601.98286
G0 F3600 X142.898 Y188.719
G1 F1800 X81.18 Y127 E1606.33743
G0 F3600 X81.18 Y127.566
G1 F1800 X142.332 Y188.719 E1610.65207
G0 F3600 X141.767 Y188.719
G1 F1800 X81.18 Y128.131 E1614.92684
G0 F3600 X81.18 Y128.697
G1 F1800 X141.201 Y188.719 E1619.16168
G0 F3600 X140.635 Y188.719
G1 F1800 X81.18 Y129.263 E1623.35659
G0 F3600 X81.18 Y129.829
G1 F1800 X140.07 Y188.719 E1627.5116
G0 F3600 X139.504 Y188.719
G1 F1800 X81.18 Y130.394 E1631.62671
G0 F3600 X81.18 Y130.96
G1 F1800 X138.938 Y188.719 E1635.70188
G0 F3600 X138.373 Y188.719
G1 F1800 X81.18 Y131.526 E1639.73716
G0 F3600 X81.18 Y132.091
G1 F1800 X137.807 Y188.719 E1643.73253
G0 F3600 X137.241 Y188.719
G1 F1800 X81.18 Y132.657 E1647.68797
G0 F3600 X81.18 Y133.223
G1 F1800 X136.675 Y188.719 E1651.60348
G0 F3600 X136.11 Y188.719
G1 F1800 X81.18 Y133.788 E1655.47912
G0 F3600 X81.18 Y134.354
G1 F1800 X135.544 Y188.719 E1659.31483
G0 F3600 X134.978 Y188.719
G1 F1800 X81.18 Y134.92 E1663.11061
G0 F3600 X81.18 Y135.485
G1 F1800 X134.413 Y188.719 E1666.86652
G0 F3600 X133.847 Y188.719
G1 F1800 X81.18 Y136.051 E1670.5825
G0 F3600 X81.18 Y136.617
G1 F1800 X133.281 Y188.719 E1674.25854
G0 F3600 X132.716 Y188.719
G1 F1800 X81.18 Y137.182 E1677.89472
G0 F3600 X81.18 Y137.748
G1 F1800 X132.15 Y188.719 E1681.49096
G0 F3600 X131.584 Y188.719
G1 F1800 X81.18 Y138.314 E1685.04727
G0 F3600 X81.18 Y138.88
G1 F1800 X131.019 Y188.719 E1688.56368
G0 F3600 X130.453 Y188.719
G1 F1800 X81.18 Y139.445 E1692.04019
G0 F3600 X81.18 Y140.011
G1 F1800 X129.887 Y188.719 E1695.47677
G0 F3600 X129.322 Y188.719
G1 F1800 X81.18 Y140.577 E1698.87345
G0 F3600 X81.18 Y141.142
G1 F1800 X128.756 Y188.719 E1702.23023
G0 F3600 X128.19 Y188.719
G1 F1800 X81.18 Y141.708 E1705.54707
G0 F3600 X81.18 Y142.274
G1 F1800 X127.624 Y188.719 E1708.82398
G0 F3600 X127.059 Y188.719
G1 F1800 X81.18 Y142.839 E1712.06103
G0 F3600 X81.18 Y143.405
G1 F1800 X126.493 Y188.719 E1715.25814
G0 F3600 X125.927 Y188.719
G1 F1800 X81.18 Y143.971 E1718.41532
G0 F3600 X81.18 Y144.536
G1 F1800 X125.362 Y188.719 E1721.53263
G0 F3600 X124.796 Y188.719
G1 F1800 X81.18 Y145.102 E1724.61001
G0 F3600 X81.18 Y145.668
G1 F1800 X124.23 Y188.719 E1727.64746
G0 F3600 X123.665 Y188.719
G1 F1800 X81.18 Y146.233 E1730.64504
G0 F3600 X81.18 Y146.799
G1 F1800 X123.099 Y188.719 E1733.60269
G0 F3600 X122.533 Y188.719
G1 F1800 X81.18 Y147.365 E1736.5204
G0 F3600 X81.18 Y147.93
G1 F1800 X121.968 Y188.719 E1739.39825
G0 F3600 X121.402 Y188.719
G1 F1800 X81.18 Y148.496 E1742.23616
G0 F3600 X81.18 Y149.062
G1 F1800 X120.836 Y188.719 E1745.03414
G0 F3600 X120.271 Y188.719
G1 F1800 X81.18 Y149.628 E1747.79222
G0 F3600 X81.18 Y150.193
G1 F1800 X119.705 Y188.719 E1750.51041
G0 F3600 X119.139 Y188.719
G1 F1800 X81.18 Y150.759 E1753.18865
G0 F3600 X81.18 Y151.325
G1 F1800 X118.574 Y188.719 E1755.827
G0 F3600 X118.008 Y188.719
G1 F1800 X81.18 Y151.89 E1758.42545
G0 F3600 X81.18 Y152.456
G1 F1800 X117.442 Y188.719 E1760.98397
G0 F3600 X116.876 Y188.719
G1 F1800 X81.18 Y153.022 E1763.50255
G0 F3600 X81.18 Y153.587
G1 F1800 X116.311 Y188.719 E1765.98127
G0 F3600 X115.745 Y188.719
G1 F1800 X81.18 Y154.153 E1768.42005
G0 F3600 X81.18 Y154.719
G1 F1800 X115.179 Y188.719 E1770.8189
G0 F3600 X114.614 Y188.719
G1 F1800 X81.18 Y155.284 E1773.17788
G0 F3600 X81.18 Y155.85
G1 F1800 X114.048 Y188.719 E1775.49693
G0 F3600 X113.482 Y188.719
G1 F1800 X81.18 Y156.416 E1777.77605
G0 F3600 X81.18 Y156.981
G1 F1800 X112.917 Y188.719 E1780.0153
G0 F3600 X112.351 Y188.719
G1 F1800 X81.18 Y157.547 E1782.21462
G0 F3600 X81.18 Y158.113
G1 F1800 X111.785 Y188.719 E1784.374
G0 F3600 X111.22 Y188.719
G1 F1800 X81.18 Y158.679 E1786.49348
G0 F3600 X81.18 Y159.244
G1 F1800 X110.654 Y188.719 E1788.57307
G0 F3600 X110.088 Y188.719
G1 F1800 X81.18 Y159.81 E1790.61272
G0 F3600 X81.18 Y160.376
G1 F1800 X109.523 Y188.719 E1792.61247
G0 F3600 X108.957 Y188.719
G1 F1800 X81.18 Y160.941 E1794.57232
G0 F3600 X81.18 Y161.507
G1 F1800 X108.391 Y188.719 E1796.49224
G0 F3600 X107.826 Y188.719
G1 F1800 X81.18 Y162.073 E1798.37226
G0 F3600 X81.18 Y162.638
G1 F1800 X107.26 Y188.719 E1800.21238
G0 F3600 X106.694 Y188.719
G1 F1800 X81.18 Y163.204 E1802.01257
G0 F3600 X81.18 Y163.77
G1 F1800 X106.128 Y188.719 E1803.77282
G0 F3600 X105.563 Y188.719
G1 F1800 X81.18 Y164.335 E1805.49321
G0 F3600 X81.18 Y164.901
G1 F1800 X104.997 Y188.719 E1807.17366
G0 F3600 X104.431 Y188.719
G1 F1800 X81.18 Y165.467 E1808.81418
G0 F3600 X81.18 Y166.032
G1 F1800 X103.866 Y188.719 E1810.41483
G0 F3600 X103.3 Y188.719
G1 F1800 X81.18 Y166.598 E1811.97556
G0 F3600 X81.18 Y167.164
G1 F1800 X102.734 Y188.719 E1813.49634
G0 F3600 X102.169 Y188.719
G1 F1800 X81.18 Y167.729 E1814.97726
G0 F3600 X81.18 Y168.295
G1 F1800 X101.603 Y188.719 E1816.41825
G0 F3600 X101.037 Y188.719
G1 F1800 X81.18 Y168.861 E1817.81931
G0 F3600 X81.18 Y169.427
G1 F1800 X100.472 Y188.719 E1819.18046
G0 F3600 X99.906 Y188.719
G1 F1800 X81.18 Y169.992 E1820.50172
G0 F3600 X81.18 Y170.558
G1 F1800 X99.34 Y188.719 E1821.78304
G0 F3600 X98.775 Y188.719
G1 F1800 X81.18 Y171.124 E1823.02446
G0 F3600 X81.18 Y171.689
G1 F1800 X98.209 Y188.719 E1824.22598
G0 F3600 X97.643 Y188.719
G1 F1800 X81.18 Y172.255 E1825.38757
G0 F3600 X81.18 Y172.821
G1 F1800 X97.077 Y188.719 E1826.50923
G0 F3600 X96.512 Y188.719
G1 F1800 X81.18 Y173.386 E1827.59102
G0 F3600 X81.18 Y173.952
G1 F1800 X95.946 Y188.719 E1828.63287
G0 F3600 X95.38 Y188.719
G1 F1800 X81.18 Y174.518 E1829.6348
G0 F3600 X81.18 Y175.083
G1 F1800 X94.815 Y188.719 E1830.59685
G0 F3600 X94.249 Y188.719
G1 F1800 X81.18 Y175.649 E1831.51898
G0 F3600 X81.18 Y176.215
G1 F1800 X93.683 Y188.719 E1832.40117
G0 F3600 X93.118 Y188.719
G1 F1800 X81.18 Y176.78 E1833.24349
G0 F3600 X81.18 Y177.346
G1 F1800 X92.552 Y188.719 E1834.04588
G0 F3600 X91.986 Y188.719
G1 F1800 X81.18 Y177.912 E1834.80834
G0 F3600 X81.18 Y178.477
G1 F1800 X91.421 Y188.719 E1835.53093
G0 F3600 X90.855 Y188.719
G1 F1800 X81.18 Y179.043 E1836.21359
G0 F3600 X81.18 Y179.609
G1 F1800 X90.289 Y188.719 E1836.85632
G0 F3600 X89.724 Y188.719
G1 F1800 X81.18 Y180.175 E1837.45914
G0 F3600 X81.18 Y180.74
G1 F1800 X89.158 Y188.719 E1838.02207
G0 F3600 X88.592 Y188.719
G1 F1800 X81.18 Y181.306 E1838.54506
G0 F3600 X81.18 Y181.872
G1 F1800 X88.027 Y188.719 E1839.02815
G0 F3600 X87.461 Y188.719
G1 F1800 X81.18 Y182.437 E1839.47135
G0 F3600 X81.18 Y183.003
G1 F1800 X86.895 Y188.719 E1839.87461
G0 F3600 X86.329 Y188.719
G1 F1800 X81.18 Y183.569 E1840.23793
G0 F3600 X81.18 Y184.134
G1 F1800 X85.764 Y188.719 E1840.56139
G0 F3600 X85.198 Y188.719
G1 F1800 X81.18 Y184.7 E1840.84492
G0 F3600 X81.18 Y185.266
G1 F1800 X84.632 Y188.719 E1841.08851
G0 F3600 X84.067 Y188.719
G1 F1800 X81.18 Y185.831 E1841.29224
G0 F3600 X81.18 Y186.397
G1 F1800 X83.501 Y188.719 E1841.45604
G0 F3600 X82.935 Y188.719
G1 F1800 X81.18 Y186.963 E1841.5799
G0 F3600 X81.18 Y187.528
G1 F1800 X82.37 Y188.719 E1841.66389
G0 F3600 X81.804 Y188.719
G1 F1800 X81.18 Y188.094 E1841.70795
G0 F3600 X81.18 Y188.66
G1 F1800 X81.238 Y188.719 E1841.71208
G0 F3600 X117.579 Y74.587
G1 F1800 X109.272 Y66.279 E1842.29822
G0 F3600 X109.837 Y66.279
G1 F1800 X117.574 Y74.016 E1842.84411
G0 F3600 X117.574 Y73.45
G1 F1800 X110.403 Y66.279 E1843.35006
G0 F3600 X110.969 Y66.279
G1 F1800 X117.573 Y72.884 E1843.81604
G0 F3600 X117.573 Y72.318
G1 F1800 X111.534 Y66.279 E1844.24213
G0 F3600 X112.1 Y66.279
G1 F1800 X117.572 Y71.752 E1844.62824
G0 F3600 X117.572 Y71.186
G1 F1800 X112.666 Y66.279 E1844.97442
G0 F3600 X113.231 Y66.279
G1 F1800 X117.572 Y70.62 E1845.2807
G0 F3600 X117.572 Y70.054
G1 F1800 X113.797 Y66.279 E1845.54705
G0 F3600 X114.363 Y66.279
G1 F1800 X117.571 Y69.488 E1845.77343
G0 F3600 X117.571 Y68.922
G1 F1800 X114.928 Y66.279 E1845.95991
G0 F3600 X115.494 Y66.279
G1 F1800 X117.57 Y68.356 E1846.10641
G0 F3600 X117.57 Y67.79
G1 F1800 X116.06 Y66.279 E1846.21299
G0 F3600 X116.625 Y66.279
G1 F1800 X117.569 Y67.223 E1846.27959
G0 F3600 X117.569 Y66.658
G1 F1800 X117.191 Y66.279 E1846.3063
G0 F3600 X117.922 Y75.33
G0 X132.078 Y75.33
G0 X135.293 Y66.279
G1 F1800 X144.57 Y75.557 E1846.96087
G0 F3600 X144.57 Y74.991
G1 F1800 X135.859 Y66.279 E1847.57552
G0 F3600 X136.424 Y66.279
G1 F1800 X144.57 Y74.425 E1848.15026
G0 F3600 X144.57 Y73.86
G1 F1800 X136.99 Y66.279 E1848.68511
G0 F3600 X137.556 Y66.279
G1 F1800 X144.57 Y73.294 E1849.18002
G0 F3600 X144.57 Y72.728
G1 F1800 X138.121 Y66.279 E1849.63503
G0 F3600 X138.687 Y66.279
G1 F1800 X144.57 Y72.163 E1850.05014
G0 F3600 X144.57 Y71.597
G1 F1800 X139.253 Y66.279 E1850.42532
G0 F3600 X139.819 Y66.279
G1 F1800 X144.57 Y71.031 E1850.76057
G0 F3600 X144.57 Y70.466
G1 F1800 X140.384 Y66.279 E1851.05595
G0 F3600 X140.95 Y66.279
G1 F1800 X144.57 Y69.9 E1851.31139
G0 F3600 X144.57 Y69.334
G1 F1800 X141.516 Y66.279 E1851.5269
G0 F3600 X142.081 Y66.279
G1 F1800 X144.57 Y68.768 E1851.70252
G0 F3600 X144.57 Y68.203
G1 F1800 X142.647 Y66.279 E1851.83823
G0 F3600 X143.213 Y66.279
G1 F1800 X144.57 Y67.637 E1851.93401
G0 F3600 X144.57 Y67.071
G1 F1800 X143.778 Y66.279 E1851.98989
G0 F3600 X144.344 Y66.279
G1 F1800 X144.57 Y66.506 E1852.00587
G0 F3600 X144.552 Y66.506
;MESH:NOMESH
G0 F600 X144.552 Y66.506 Z0.7
G0 F3600 X132.078 Y75.33
G0 X105.076 Y76.33
G0 X91.412 Y76.402
G0 X91.412 Y76.001
;TIME_ELAPSED:1255.841482
;LAYER:1
M106 S255
;TYPE:WALL-INNER
;MESH:Alliance_Tray.stl
G1 F2700 X91.226 Y75.801 E1852.02404
G1 X91.147 Y75.584 E1852.0394
G1 X91.147 Y65.701 E1852.69682
G1 X80.601 Y65.701 E1853.39834
G1 X80.6 Y189.3 E1861.62018
G1 X169.4 Y189.3 E1867.52718
G1 X169.4 Y65.701 E1875.74902
G1 X158.854 Y65.701 E1876.45054
G1 X158.854 Y75.575 E1877.10736
G1 X158.734 Y75.862 E1877.12806
G1 X158.588 Y76.001 E1877.14146
G1 X158.295 Y76.101 E1877.16206
G1 X145.673 Y76.102 E1878.00168
G1 X145.531 Y76.061 E1878.01151
G1 X145.324 Y75.924 E1878.02802
G1 X145.217 Y75.775 E1878.04022
G1 X145.152 Y75.591 E1878.05321
G1 X145.152 Y65.7 E1878.71116
G1 X131.85 Y65.7 E1879.59601
G1 X131.845 Y74.585 E1880.18704
G1 X131.715 Y74.882 E1880.20861
G1 X131.575 Y75.008 E1880.22114
G1 X131.329 Y75.102 E1880.23866
G1 X118.713 Y75.101 E1881.07788
G1 X118.517 Y75.056 E1881.09125
G1 X118.285 Y74.882 E1881.11054
G1 X118.155 Y74.585 E1881.13211
G1 X118.15 Y65.7 E1881.72314
G1 X104.848 Y65.7 E1882.608
G1 X104.848 Y75.591 E1883.26595
G1 X104.783 Y75.775 E1883.27893
G1 X104.676 Y75.924 E1883.29113
G1 X104.544 Y76.025 E1883.30219
G1 X104.268 Y76.102 E1883.32125
G1 X91.705 Y76.101 E1884.15694
G1 X91.412 Y76.001 E1884.17754
G0 F5400 X91.703 Y75.698
;TYPE:WALL-OUTER
G1 F1800 X91.618 Y75.656 E1884.18384
G1 X91.548 Y75.529 E1884.19349
G1 X91.547 Y65.301 E1884.87386
G1 X80.201 Y65.301 E1885.6286
G1 X80.2 Y189.7 E1893.90365
G1 X169.8 Y189.7 E1899.86387
G1 X169.8 Y65.301 E1908.13892
G1 X158.454 Y65.301 E1908.89366
G1 X158.454 Y75.541 E1909.57483
G1 X158.414 Y75.622 E1909.58084
G1 X158.297 Y75.698 E1909.59012
G1 X145.715 Y75.699 E1910.42708
G1 X145.602 Y75.636 E1910.43568
G1 X145.556 Y75.543 E1910.44259
G1 X145.552 Y65.3 E1911.12395
G1 X131.45 Y65.3 E1912.06202
G1 X131.448 Y74.57 E1912.67867
G1 X131.294 Y74.698 E1912.69199
G1 X118.689 Y74.693 E1913.53047
G1 X118.612 Y74.648 E1913.53641
G1 X118.551 Y74.53 E1913.54524
G1 X118.55 Y65.3 E1914.15923
G1 X104.448 Y65.3 E1915.09729
G1 X104.447 Y75.572 E1915.78059
G1 X104.323 Y75.702 E1915.79254
G1 X91.703 Y75.698 E1916.63203
G0 F5400 X91.618 Y75.656
G0 X91.567 Y75.564
G0 X90.847 Y75.564
G0 X158.56 Y76.434
;TYPE:SKIN
G1 F1800 X158.891 Y76.247 E1916.65732
G1 X159.11 Y75.978 E1916.68039
G1 X159.232 Y75.605 E1916.7065
G1 X159.234 Y66.081 E1917.34003
G1 X169.02 Y66.081 E1917.991
G1 X169.02 Y188.92 E1926.16229
G1 X80.98 Y188.92 E1932.01873
G1 X80.981 Y66.081 E1940.19001
G1 X90.767 Y66.081 E1940.84098
G1 X90.769 Y75.63 E1941.47618
G1 X90.845 Y75.889 E1941.49414
G1 X91.103 Y76.243 E1941.52328
G1 X91.38 Y76.412 E1941.54486
G1 X91.68 Y76.481 E1941.56534
G1 X104.328 Y76.48 E1942.40669
G1 X104.649 Y76.398 E1942.42873
G1 X104.842 Y76.282 E1942.4437
G1 X105.079 Y76.024 E1942.46701
G1 X105.223 Y75.67 E1942.49243
G1 X105.228 Y66.08 E1943.13036
G1 X117.77 Y66.08 E1943.96466
G1 X117.772 Y74.533 E1944.52695
G1 X117.868 Y74.931 E1944.55419
G1 X118.04 Y75.179 E1944.57426
G1 X118.328 Y75.387 E1944.5979
G1 X118.633 Y75.473 E1944.61898
G1 X131.297 Y75.482 E1945.46139
G1 X131.586 Y75.425 E1945.48098
G1 X131.895 Y75.242 E1945.50487
G1 X132.127 Y74.942 E1945.5301
G1 X132.228 Y74.63 E1945.55191
G1 X132.23 Y66.08 E1946.12066
G1 X144.772 Y66.08 E1946.95496
G1 X144.773 Y75.644 E1947.59116
G1 X144.874 Y75.94 E1947.61196
G1 X145.084 Y76.222 E1947.63535
G1 X145.304 Y76.374 E1947.65314
G1 X145.675 Y76.48 E1947.67881
G1 X158.325 Y76.481 E1948.52029
G1 X158.56 Y76.434 E1948.53623
G0 F5400 X90.919 Y76.33
G0 X81.362 Y66.281
G1 F1800 X81.18 Y66.463 E1948.55335
G0 F5400 X81.18 Y67.029
G1 F1800 X81.928 Y66.281 E1948.62372
G0 F5400 X82.493 Y66.281
G1 F1800 X81.18 Y67.595 E1948.74729
G0 F5400 X81.18 Y68.16
G1 F1800 X83.059 Y66.281 E1948.92405
G0 F5400 X83.625 Y66.281
G1 F1800 X81.18 Y68.726 E1949.15406
G0 F5400 X81.18 Y69.292
G1 F1800 X84.19 Y66.281 E1949.43727
G0 F5400 X84.756 Y66.281
G1 F1800 X81.18 Y69.857 E1949.77368
G0 F5400 X81.18 Y70.423
G1 F1800 X85.322 Y66.281 E1950.16333
G0 F5400 X85.888 Y66.281
G1 F1800 X81.18 Y70.989 E1950.60623
G0 F5400 X81.18 Y71.554
G1 F1800 X86.453 Y66.281 E1951.10228
G0 F5400 X87.019 Y66.281
G1 F1800 X81.18 Y72.12 E1951.65158
G0 F5400 X81.18 Y72.686
G1 F1800 X87.585 Y66.281 E1952.25412
G0 F5400 X88.15 Y66.281
G1 F1800 X81.18 Y73.252 E1952.90987
G0 F5400 X81.18 Y73.817
G1 F1800 X88.716 Y66.281 E1953.61881
G0 F5400 X89.282 Y66.281
G1 F1800 X81.18 Y74.383 E1954.38099
G0 F5400 X81.18 Y74.949
G1 F1800 X89.847 Y66.281 E1955.19638
G0 F5400 X90.413 Y66.281
G1 F1800 X81.18 Y75.514 E1956.06496
G0 F5400 X81.18 Y76.08
G1 F1800 X90.566 Y66.694 E1956.94794
G0 F5400 X90.566 Y67.259
G1 F1800 X81.18 Y76.646 E1957.83096
G0 F5400 X81.18 Y77.211
G1 F1800 X90.566 Y67.825 E1958.71394
G0 F5400 X90.566 Y68.39
G1 F1800 X81.18 Y77.777 E1959.59697
G0 F5400 X81.18 Y78.343
G1 F1800 X90.566 Y68.956 E1960.47999
G0 F5400 X90.567 Y69.521
G1 F1800 X81.18 Y78.908 E1961.36306
G0 F5400 X81.18 Y79.474
G1 F1800 X90.567 Y70.087 E1962.24613
G0 F5400 X90.567 Y70.652
G1 F1800 X81.18 Y80.04 E1963.12925
G0 F5400 X81.18 Y80.605
G1 F1800 X90.568 Y71.217 E1964.01242
G0 F5400 X90.568 Y71.783
G1 F1800 X81.18 Y81.171 E1964.89558
G0 F5400 X81.18 Y81.737
G1 F1800 X90.568 Y72.349 E1965.77875
G0 F5400 X90.569 Y72.914
G1 F1800 X81.18 Y82.302 E1966.66196
G0 F5400 X81.18 Y82.868
G1 F1800 X90.569 Y73.479 E1967.54522
G0 F5400 X90.569 Y74.045
G1 F1800 X81.18 Y83.434 E1968.42848
G0 F5400 X81.18 Y84
G1 F1800 X90.569 Y74.61 E1969.31179
G0 F5400 X90.569 Y75.176
G1 F1800 X81.18 Y84.565 E1970.19505
G0 F5400 X81.18 Y85.131
G1 F1800 X90.588 Y75.722 E1971.08014
G0 F5400 X90.765 Y76.111
G1 F1800 X81.18 Y85.697 E1971.98188
G0 F5400 X81.18 Y86.262
G1 F1800 X91.015 Y76.427 E1972.9071
G0 F5400 X91.394 Y76.614
G1 F1800 X81.18 Y86.828 E1973.86797
G0 F5400 X81.18 Y87.394
G1 F1800 X91.894 Y76.68 E1974.87588
G0 F5400 X92.459 Y76.68
G1 F1800 X81.18 Y87.959 E1975.93694
G0 F5400 X81.18 Y88.525
G1 F1800 X93.025 Y76.68 E1977.05124
G0 F5400 X93.591 Y76.68
G1 F1800 X81.18 Y89.091 E1978.21879
G0 F5400 X81.18 Y89.656
G1 F1800 X94.156 Y76.68 E1979.4395
G0 F5400 X94.722 Y76.68
G1 F1800 X81.18 Y90.222 E1980.71344
G0 F5400 X81.18 Y90.788
G1 F1800 X95.288 Y76.68 E1982.04064
G0 F5400 X95.853 Y76.68
G1 F1800 X81.18 Y91.353 E1983.42098
G0 F5400 X81.18 Y91.919
G1 F1800 X96.419 Y76.68 E1984.85458
G0 F5400 X96.985 Y76.68
G1 F1800 X81.18 Y92.485 E1986.34141
G0 F5400 X81.18 Y93.051
G1 F1800 X97.551 Y76.68 E1987.8815
G0 F5400 X98.116 Y76.68
G1 F1800 X81.18 Y93.616 E1989.47473
G0 F5400 X81.18 Y94.182
G1 F1800 X98.682 Y76.68 E1991.12121
G0 F5400 X99.248 Y76.68
G1 F1800 X81.18 Y94.748 E1992.82094
G0 F5400 X81.18 Y95.313
G1 F1800 X99.813 Y76.68 E1994.57382
G0 F5400 X100.379 Y76.68
G1 F1800 X81.18 Y95.879 E1996.37994
G0 F5400 X81.18 Y96.445
G1 F1800 X100.945 Y76.68 E1998.23931
G0 F5400 X101.51 Y76.68
G1 F1800 X81.18 Y97.01 E2000.15183
G0 F5400 X81.18 Y97.576
G1 F1800 X102.076 Y76.68 E2002.1176
G0 F5400 X102.642 Y76.68
G1 F1800 X81.18 Y98.142 E2004.13661
G0 F5400 X81.18 Y98.707
G1 F1800 X103.207 Y76.68 E2006.20878
G0 F5400 X103.773 Y76.68
G1 F1800 X81.18 Y99.273 E2008.33419
G0 F5400 X81.18 Y99.839
G1 F1800 X104.342 Y76.677 E2010.51313
G1 X104.412 Y76.607
G0 F5400 X105.426 Y75.592
G1 F1800 X114.739 Y66.279 E2011.38924
G0 F5400 X115.305 Y66.279
G1 F1800 X81.18 Y100.404 E2014.59951
G0 F5400 X81.18 Y100.97
G1 F1800 X115.87 Y66.279 E2017.86298
G0 F5400 X116.436 Y66.279
G1 F1800 X81.18 Y101.536 E2021.1797
G0 F5400 X81.18 Y102.101
G1 F1800 X117.002 Y66.279 E2024.54961
G0 F5400 X117.567 Y66.279
G1 F1800 X81.18 Y102.667 E2027.97272
G0 F5400 X81.18 Y103.233
G1 F1800 X117.569 Y66.844 E2031.39598
G0 F5400 X117.569 Y67.409
G1 F1800 X81.18 Y103.799 E2034.81928
G0 F5400 X81.18 Y104.364
G1 F1800 X117.569 Y67.974 E2038.24258
G0 F5400 X117.569 Y68.54
G1 F1800 X81.18 Y104.93 E2041.66588
G0 F5400 X81.18 Y105.496
G1 F1800 X117.57 Y69.105 E2045.08927
G0 F5400 X117.57 Y69.671
G1 F1800 X81.18 Y106.061 E2048.51262
G0 F5400 X81.18 Y106.627
G1 F1800 X117.571 Y70.236 E2051.93606
G0 F5400 X117.571 Y70.801
G1 F1800 X81.18 Y107.193 E2055.35955
G0 F5400 X81.18 Y107.758
G1 F1800 X117.572 Y71.366 E2058.78309
G0 F5400 X117.572 Y71.932
G1 F1800 X81.18 Y108.324 E2062.20663
G0 F5400 X81.18 Y108.89
G1 F1800 X117.572 Y72.497 E2065.63021
G0 F5400 X117.572 Y73.063
G1 F1800 X81.18 Y109.455 E2069.05375
G0 F5400 X81.18 Y110.021
G1 F1800 X117.573 Y73.628 E2072.47738
G0 F5400 X117.573 Y74.193
G1 F1800 X81.18 Y110.587 E2075.90105
G0 F5400 X81.18 Y111.152
G1 F1800 X117.613 Y74.719 E2079.32845
G0 F5400 X117.765 Y75.132
G1 F1800 X81.18 Y111.718 E2082.77019
G0 F5400 X81.18 Y112.284
G1 F1800 X118.038 Y75.425 E2086.23761
G0 F5400 X118.418 Y75.611
G1 F1800 X81.18 Y112.849 E2089.74073
G0 F5400 X81.18 Y113.415
G1 F1800 X118.916 Y75.679 E2093.2907
G0 F5400 X119.481 Y75.679
G1 F1800 X81.18 Y113.981 E2096.89387
G0 F5400 X81.18 Y114.547
G1 F1800 X120.047 Y75.679 E2100.55029
G0 F5400 X120.613 Y75.679
G1 F1800 X81.18 Y115.112 E2104.2599
G0 F5400 X81.18 Y115.678
G1 F1800 X121.179 Y75.679 E2108.02276
G0 F5400 X121.744 Y75.679
G1 F1800 X81.18 Y116.244 E2111.83882
G0 F5400 X81.18 Y116.809
G1 F1800 X122.31 Y75.679 E2115.70808
G0 F5400 X122.875 Y75.68
G1 F1800 X81.18 Y117.375 E2119.63049
G0 F5400 X81.18 Y117.941
G1 F1800 X123.441 Y75.68 E2123.60615
G0 F5400 X124.006 Y75.68
G1 F1800 X81.18 Y118.506 E2127.63495
G0 F5400 X81.18 Y119.072
G1 F1800 X124.572 Y75.68 E2131.71701
G0 F5400 X125.138 Y75.68
G1 F1800 X81.18 Y119.638 E2135.85231
G0 F5400 X81.18 Y120.203
G1 F1800 X125.703 Y75.68 E2140.04076
G0 F5400 X126.269 Y75.68
G1 F1800 X81.18 Y120.769 E2144.28245
G0 F5400 X81.18 Y121.335
G1 F1800 X126.835 Y75.68 E2148.5774
G0 F5400 X127.4 Y75.68
G1 F1800 X81.18 Y121.9 E2152.92549
G0 F5400 X81.18 Y122.466
G1 F1800 X127.965 Y75.68 E2157.32678
G0 F5400 X128.531 Y75.68
G1 F1800 X81.18 Y123.032 E2161.78132
G0 F5400 X81.18 Y123.598
G1 F1800 X129.097 Y75.68 E2166.28911
G0 F5400 X129.662 Y75.68
G1 F1800 X81.18 Y124.163 E2170.85004
G0 F5400 X81.18 Y124.729
G1 F1800 X130.228 Y75.68 E2175.46423
G0 F5400 X130.794 Y75.68
G1 F1800 X81.18 Y125.295 E2180.13165
G0 F5400 X81.18 Y125.86
G1 F1800 X131.373 Y75.667 E2184.8535
G1 X131.443 Y75.597
G0 F5400 X132.424 Y74.616
G1 F1800 X140.76 Y66.279 E2185.63775
G0 F5400 X140.195 Y66.279
G1 F1800 X132.424 Y74.05 E2186.3688
G0 F5400 X132.425 Y73.483
G1 F1800 X139.629 Y66.279 E2187.04651
G0 F5400 X139.063 Y66.279
G1 F1800 X132.425 Y72.918 E2187.67102
G0 F5400 X132.426 Y72.351
G1 F1800 X138.498 Y66.279 E2188.24223
G0 F5400 X137.932 Y66.279
G1 F1800 X132.426 Y71.786 E2188.76025
G0 F5400 X132.426 Y71.219
G1 F1800 X137.366 Y66.279 E2189.22497
G0 F5400 X136.801 Y66.279
G1 F1800 X132.426 Y70.654 E2189.63655
G0 F5400 X132.427 Y70.087
G1 F1800 X136.235 Y66.279 E2189.99478
G0 F5400 X135.669 Y66.279
G1 F1800 X132.427 Y69.522 E2190.29982
G0 F5400 X132.428 Y68.955
G1 F1800 X135.104 Y66.279 E2190.55156
G0 F5400 X134.538 Y66.279
G1 F1800 X132.428 Y68.389 E2190.75005
G0 F5400 X132.429 Y67.823
G1 F1800 X133.972 Y66.279 E2190.89526
G0 F5400 X133.407 Y66.279
G1 F1800 X132.429 Y67.257 E2190.98726
G0 F5400 X132.429 Y66.691
G1 F1800 X132.841 Y66.279 E2191.02602
G0 F5400 X141.326 Y66.279
G1 F1800 X81.18 Y126.426 E2196.68423
G0 F5400 X81.18 Y126.992
G1 F1800 X141.892 Y66.279 E2202.39569
G0 F5400 X142.457 Y66.279
G1 F1800 X81.18 Y127.557 E2208.1603
G0 F5400 X81.18 Y128.123
G1 F1800 X143.023 Y66.279 E2213.97816
G0 F5400 X143.589 Y66.279
G1 F1800 X81.18 Y128.689 E2219.84926
G0 F5400 X81.18 Y129.254
G1 F1800 X144.155 Y66.279 E2225.77357
G0 F5400 X144.57 Y66.429
G1 F1800 X81.18 Y129.82 E2231.73696
G0 F5400 X81.18 Y130.386
G1 F1800 X144.57 Y66.995 E2237.70035
G0 F5400 X144.57 Y67.561
G1 F1800 X81.18 Y130.951 E2243.66369
G0 F5400 X81.18 Y131.517
G1 F1800 X144.57 Y68.126 E2249.62708
G0 F5400 X144.57 Y68.692
G1 F1800 X81.18 Y132.083 E2255.59047
G0 F5400 X81.18 Y132.648
G1 F1800 X144.57 Y69.258 E2261.55381
G0 F5400 X144.57 Y69.823
G1 F1800 X81.18 Y133.214 E2267.5172
G0 F5400 X81.18 Y133.78
G1 F1800 X144.57 Y70.389 E2273.48059
G0 F5400 X144.57 Y70.955
G1 F1800 X81.18 Y134.346 E2279.44398
G0 F5400 X81.18 Y134.911
G1 F1800 X144.57 Y71.521 E2285.40732
G0 F5400 X144.57 Y72.086
G1 F1800 X81.18 Y135.477 E2291.37071
G0 F5400 X81.18 Y136.043
G1 F1800 X144.57 Y72.652 E2297.3341
G0 F5400 X144.57 Y73.218
G1 F1800 X81.18 Y136.608 E2303.29744
G0 F5400 X81.18 Y137.174
G1 F1800 X144.57 Y73.783 E2309.26083
G0 F5400 X144.57 Y74.349
G1 F1800 X81.18 Y137.74 E2315.22422
G0 F5400 X81.18 Y138.305
G1 F1800 X144.57 Y74.915 E2321.18756
G0 F5400 X144.57 Y75.48
G1 F1800 X81.18 Y138.871 E2327.15095
G0 F5400 X81.18 Y139.437
G1 F1800 X144.674 Y75.942 E2333.12413
G0 F5400 X144.89 Y76.292
G1 F1800 X81.18 Y140.002 E2339.11757
G0 F5400 X81.18 Y140.568
G1 F1800 X145.202 Y76.546 E2345.14037
G0 F5400 X145.642 Y76.671
G1 F1800 X81.18 Y141.134 E2351.20461
G0 F5400 X81.18 Y141.699
G1 F1800 X146.199 Y76.68 E2357.3212
G0 F5400 X146.765 Y76.68
G1 F1800 X81.18 Y142.265 E2363.49103
G0 F5400 X81.18 Y142.831
G1 F1800 X147.331 Y76.68 E2369.71411
G0 F5400 X147.897 Y76.68
G1 F1800 X81.18 Y143.397 E2375.99044
G0 F5400 X81.18 Y143.962
G1 F1800 X148.462 Y76.68 E2382.31991
G0 F5400 X149.028 Y76.68
G1 F1800 X81.18 Y144.528 E2388.70264
G0 F5400 X81.18 Y145.094
G1 F1800 X149.594 Y76.68 E2395.13861
G0 F5400 X150.159 Y76.68
G1 F1800 X81.18 Y145.659 E2401.62773
G0 F5400 X81.18 Y146.225
G1 F1800 X150.725 Y76.68 E2408.1701
G0 F5400 X151.291 Y76.68
G1 F1800 X81.18 Y146.791 E2414.76571
G0 F5400 X81.18 Y147.356
G1 F1800 X151.856 Y76.68 E2421.41447
G0 F5400 X152.422 Y76.68
G1 F1800 X81.18 Y147.922 E2428.11648
G0 F5400 X81.18 Y148.488
G1 F1800 X152.988 Y76.68 E2434.87174
G0 F5400 X153.553 Y76.68
G1 F1800 X81.18 Y149.053 E2441.68015
G0 F5400 X81.18 Y149.619
G1 F1800 X154.119 Y76.68 E2448.5418
G0 F5400 X154.685 Y76.68
G1 F1800 X81.18 Y150.185 E2455.4567
G0 F5400 X81.18 Y150.75
G1 F1800 X155.25 Y76.68 E2462.42475
G0 F5400 X155.816 Y76.68
G1 F1800 X81.18 Y151.316 E2469.44605
G0 F5400 X81.18 Y151.882
G1 F1800 X156.382 Y76.68 E2476.52059
G0 F5400 X156.948 Y76.68
G1 F1800 X81.18 Y152.447 E2483.64834
G0 F5400 X81.18 Y153.013
G1 F1800 X157.513 Y76.68 E2490.82928
G0 F5400 X158.079 Y76.68
G1 F1800 X81.18 Y153.579 E2498.06346
G0 F5400 X81.18 Y154.145
G1 F1800 X158.802 Y76.523 E2505.36566
G0 F5400 X159.29 Y76.034
G1 F1800 X168.819 Y66.505 E2506.26209
G0 F5400 X168.478 Y66.28
G1 F1800 X159.428 Y75.33 E2507.11346
G0 F5400 X159.428 Y74.765
G1 F1800 X167.913 Y66.28 E2507.91168
G0 F5400 X167.347 Y66.28
G1 F1800 X159.429 Y74.198 E2508.65656
G0 F5400 X159.429 Y73.633
G1 F1800 X166.781 Y66.28 E2509.34824
G0 F5400 X166.216 Y66.28
G1 F1800 X159.429 Y73.066 E2509.98667
G0 F5400 X159.429 Y72.501
G1 F1800 X165.65 Y66.28 E2510.5719
G0 F5400 X165.084 Y66.28
G1 F1800 X159.43 Y71.934 E2511.10379
G0 F5400 X159.43 Y71.368
G1 F1800 X164.518 Y66.28 E2511.58244
G0 F5400 X163.953 Y66.28
G1 F1800 X159.431 Y70.802 E2512.00784
G0 F5400 X159.431 Y70.236
G1 F1800 X163.387 Y66.28 E2512.38
G0 F5400 X162.821 Y66.28
G1 F1800 X159.432 Y69.67 E2512.69886
G0 F5400 X159.432 Y69.104
G1 F1800 X162.256 Y66.28 E2512.96453
G0 F5400 X161.69 Y66.28
G1 F1800 X159.432 Y68.538 E2513.17695
G0 F5400 X159.432 Y67.972
G1 F1800 X161.124 Y66.28 E2513.33612
G0 F5400 X160.559 Y66.28
G1 F1800 X159.433 Y67.406 E2513.44205
G0 F5400 X159.433 Y66.84
G1 F1800 X159.993 Y66.28 E2513.49473
G0 F5400 X168.819 Y67.071
G1 F1800 X81.18 Y154.71 E2521.73927
G0 F5400 X81.18 Y155.276
G1 F1800 X168.819 Y67.636 E2529.98386
G0 F5400 X168.819 Y68.202
G1 F1800 X81.18 Y155.842 E2538.22844
G0 F5400 X81.18 Y156.407
G1 F1800 X168.819 Y68.768 E2546.47298
G0 F5400 X168.819 Y69.333
G1 F1800 X81.18 Y156.973 E2554.71757
G0 F5400 X81.18 Y157.539
G1 F1800 X168.819 Y69.899 E2562.96216
G0 F5400 X168.819 Y70.465
G1 F1800 X81.18 Y158.104 E2571.2067
G0 F5400 X81.18 Y158.67
G1 F1800 X168.819 Y71.03 E2579.45128
G0 F5400 X168.819 Y71.596
G1 F1800 X81.18 Y159.236 E2587.69587
G0 F5400 X81.18 Y159.801
G1 F1800 X168.819 Y72.162 E2595.94041
G0 F5400 X168.819 Y72.728
G1 F1800 X81.18 Y160.367 E2604.18495
G0 F5400 X81.18 Y160.933
G1 F1800 X168.819 Y73.293 E2612.42953
G0 F5400 X168.819 Y73.859
G1 F1800 X81.18 Y161.498 E2620.67407
G0 F5400 X81.18 Y162.064
G1 F1800 X168.819 Y74.425 E2628.91861
G0 F5400 X168.819 Y74.99
G1 F1800 X81.18 Y162.63 E2637.1632
G0 F5400 X81.18 Y163.196
G1 F1800 X168.819 Y75.556 E2645.40779
G0 F5400 X168.819 Y76.122
G1 F1800 X81.18 Y163.761 E2653.65233
G0 F5400 X81.18 Y164.327
G1 F1800 X168.819 Y76.687 E2661.89691
G0 F5400 X168.819 Y77.253
G1 F1800 X81.18 Y164.893 E2670.1415
G0 F5400 X81.18 Y165.458
G1 F1800 X168.819 Y77.819 E2678.38604
G0 F5400 X168.819 Y78.384
G1 F1800 X81.18 Y166.024 E2686.63063
G0 F5400 X81.18 Y166.59
G1 F1800 X168.819 Y78.95 E2694.87521
G0 F5400 X168.819 Y79.516
G1 F1800 X81.18 Y167.155 E2703.11975
G0 F5400 X81.18 Y167.721
G1 F1800 X168.819 Y80.081 E2711.36434
G0 F5400 X168.819 Y80.647
G1 F1800 X81.18 Y168.287 E2719.60893
G0 F5400 X81.18 Y168.852
G1 F1800 X168.819 Y81.213 E2727.85347
G0 F5400 X168.819 Y81.779
G1 F1800 X81.18 Y169.418 E2736.09801
G0 F5400 X81.18 Y169.984
G1 F1800 X168.819 Y82.344 E2744.34259
G0 F5400 X168.819 Y82.91
G1 F1800 X81.18 Y170.549 E2752.58713
G0 F5400 X81.18 Y171.115
G1 F1800 X168.819 Y83.476 E2760.83167
G0 F5400 X168.819 Y84.041
G1 F1800 X81.18 Y171.681 E2769.07626
G0 F5400 X81.18 Y172.246
G1 F1800 X168.819 Y84.607 E2777.3208
G0 F5400 X168.819 Y85.173
G1 F1800 X81.18 Y172.812 E2785.56534
G0 F5400 X81.18 Y173.378
G1 F1800 X168.819 Y85.738 E2793.80993
G0 F5400 X168.819 Y86.304
G1 F1800 X81.18 Y173.944 E2802.05451
G0 F5400 X81.18 Y174.509
G1 F1800 X168.819 Y86.87 E2810.29905
G0 F5400 X168.819 Y87.435
G1 F1800 X81.18 Y175.075 E2818.54364
G0 F5400 X81.18 Y175.641
G1 F1800 X168.819 Y88.001 E2826.78823
G0 F5400 X168.819 Y88.567
G1 F1800 X81.18 Y176.206 E2835.03277
G0 F5400 X81.18 Y176.772
G1 F1800 X168.819 Y89.132 E2843.27735
G0 F5400 X168.819 Y89.698
G1 F1800 X81.18 Y177.338 E2851.52194
G0 F5400 X81.18 Y177.903
G1 F1800 X168.819 Y90.264 E2859.76648
G0 F5400 X168.819 Y90.829
G1 F1800 X81.18 Y178.469 E2868.01107
G0 F5400 X81.18 Y179.035
G1 F1800 X168.819 Y91.395 E2876.25565
G0 F5400 X168.819 Y91.961
G1 F1800 X81.18 Y179.6 E2884.50019
G0 F5400 X81.18 Y180.166
G1 F1800 X168.819 Y92.527 E2892.74473
G0 F5400 X168.819 Y93.092
G1 F1800 X81.18 Y180.732 E2900.98932
G0 F5400 X81.18 Y181.297
G1 F1800 X168.819 Y93.658 E2909.23386
G0 F5400 X168.819 Y94.224
G1 F1800 X81.18 Y181.863 E2917.4784
G0 F5400 X81.18 Y182.429
G1 F1800 X168.819 Y94.789 E2925.72299
G0 F5400 X168.819 Y95.355
G1 F1800 X81.18 Y182.994 E2933.96753
G0 F5400 X81.18 Y183.56
G1 F1800 X168.819 Y95.921 E2942.21206
G0 F5400 X168.819 Y96.486
G1 F1800 X81.18 Y184.126 E2950.45665
G0 F5400 X81.18 Y184.692
G1 F1800 X168.819 Y97.052 E2958.70124
G0 F5400 X168.819 Y97.618
G1 F1800 X81.18 Y185.257 E2966.94578
G0 F5400 X81.18 Y185.823
G1 F1800 X168.819 Y98.183 E2975.19036
G0 F5400 X168.819 Y98.749
G1 F1800 X81.18 Y186.389 E2983.43495
G0 F5400 X81.18 Y186.954
G1 F1800 X168.819 Y99.315 E2991.67949
G0 F5400 X168.819 Y99.88
G1 F1800 X81.18 Y187.52 E2999.92408
G0 F5400 X81.18 Y188.086
G1 F1800 X168.819 Y100.446 E3008.16866
G0 F5400 X168.819 Y101.012
G1 F1800 X81.18 Y188.651 E3016.4132
G0 F5400 X81.677 Y188.719
G1 F1800 X168.819 Y101.578 E3024.61094
G0 F5400 X168.819 Y102.143
G1 F1800 X82.243 Y188.719 E3032.75548
G0 F5400 X82.809 Y188.719
G1 F1800 X168.819 Y102.709 E3040.84678
G0 F5400 X168.819 Y103.275
G1 F1800 X83.374 Y188.719 E3048.88487
G0 F5400 X83.94 Y188.719
G1 F1800 X168.819 Y103.84 E3056.86977
G0 F5400 X168.819 Y104.406
G1 F1800 X84.506 Y188.719 E3064.80142
G0 F5400 X85.072 Y188.719
G1 F1800 X168.819 Y104.972 E3072.67982
G0 F5400 X168.819 Y105.537
G1 F1800 X85.637 Y188.719 E3080.50507
G0 F5400 X86.203 Y188.719
G1 F1800 X168.819 Y106.103 E3088.27708
G0 F5400 X168.819 Y106.669
G1 F1800 X86.769 Y188.719 E3095.99584
G0 F5400 X87.334 Y188.719
G1 F1800 X168.819 Y107.234 E3103.66145
G0 F5400 X168.819 Y107.8
G1 F1800 X87.9 Y188.719 E3111.27381
G0 F5400 X88.466 Y188.719
G1 F1800 X168.819 Y108.366 E3118.83293
G0 F5400 X168.819 Y108.931
G1 F1800 X89.031 Y188.719 E3126.3389
G0 F5400 X89.597 Y188.719
G1 F1800 X168.819 Y109.497 E3133.79162
G0 F5400 X168.819 Y110.063
G1 F1800 X90.163 Y188.719 E3141.19109
G0 F5400 X90.728 Y188.719
G1 F1800 X168.819 Y110.628 E3148.53741
G0 F5400 X168.819 Y111.194
G1 F1800 X91.294 Y188.719 E3155.83049
G0 F5400 X91.86 Y188.719
G1 F1800 X168.819 Y111.76 E3163.07032
G0 F5400 X168.819 Y112.326
G1 F1800 X92.425 Y188.719 E3170.25695
G0 F5400 X92.991 Y188.719
G1 F1800 X168.819 Y112.891 E3177.39039
G0 F5400 X168.819 Y113.457
G1 F1800 X93.557 Y188.719 E3184.47057
G0 F5400 X94.122 Y188.719
G1 F1800 X168.819 Y114.023 E3191.49756
G0 F5400 X168.819 Y114.588
G1 F1800 X94.688 Y188.719 E3198.47135
G0 F5400 X95.254 Y188.719
G1 F1800 X168.819 Y115.154 E3205.3919
G0 F5400 X168.819 Y115.72
G1 F1800 X95.82 Y188.719 E3212.25919
G0 F5400 X96.385 Y188.719
G1 F1800 X168.819 Y116.285 E3219.07334
G0 F5400 X168.819 Y116.851
G1 F1800 X96.951 Y188.719 E3225.83424
G0 F5400 X97.517 Y188.719
G1 F1800 X168.819 Y117.417 E3232.5419
G0 F5400 X168.819 Y117.982
G1 F1800 X98.082 Y188.719 E3239.1964
G0 F5400 X98.648 Y188.719
G1 F1800 X168.819 Y118.548 E3245.79766
G0 F5400 X168.819 Y119.114
G1 F1800 X99.214 Y188.719 E3252.34567
G0 F5400 X99.779 Y188.719
G1 F1800 X168.819 Y119.679 E3258.84053
G0 F5400 X168.819 Y120.245
G1 F1800 X100.345 Y188.719 E3265.28214
G0 F5400 X100.911 Y188.719
G1 F1800 X168.819 Y120.811 E3271.67051
G0 F5400 X168.819 Y121.377
G1 F1800 X101.476 Y188.719 E3278.00568
G0 F5400 X102.042 Y188.719
G1 F1800 X168.819 Y121.942 E3284.28765
G0 F5400 X168.819 Y122.508
G1 F1800 X102.608 Y188.719 E3290.51638
G0 F5400 X103.173 Y188.719
G1 F1800 X168.819 Y123.074 E3296.6919
G0 F5400 X168.819 Y123.639
G1 F1800 X103.739 Y188.719 E3302.81423
G0 F5400 X104.305 Y188.719
G1 F1800 X168.819 Y124.205 E3308.88331
G0 F5400 X168.819 Y124.771
G1 F1800 X104.871 Y188.719 E3314.89915
G0 F5400 X105.436 Y188.719
G1 F1800 X168.819 Y125.336 E3320.86183
G0 F5400 X168.819 Y125.902
G1 F1800 X106.002 Y188.719 E3326.77127
G0 F5400 X106.568 Y188.719
G1 F1800 X168.819 Y126.468 E3332.62746
G0 F5400 X168.819 Y127.033
G1 F1800 X107.133 Y188.719 E3338.4305
G0 F5400 X107.699 Y188.719
G1 F1800 X168.819 Y127.599 E3344.1803
G0 F5400 X168.819 Y128.165
G1 F1800 X108.265 Y188.719 E3349.87685
G0 F5400 X108.83 Y188.719
G1 F1800 X168.819 Y128.73 E3355.52024
G0 F5400 X168.819 Y129.296
G1 F1800 X109.396 Y188.719 E3361.11039
G0 F5400 X109.962 Y188.719
G1 F1800 X168.819 Y129.862 E3366.6473
G0 F5400 X168.819 Y130.427
G1 F1800 X110.527 Y188.719 E3372.13105
G0 F5400 X111.093 Y188.719
G1 F1800 X168.819 Y130.993 E3377.56156
G0 F5400 X168.819 Y131.559
G1 F1800 X111.659 Y188.719 E3382.93882
G0 F5400 X112.224 Y188.719
G1 F1800 X168.819 Y132.125 E3388.26289
G0 F5400 X168.819 Y132.69
G1 F1800 X112.79 Y188.719 E3393.53375
G0 F5400 X113.356 Y188.719
G1 F1800 X168.819 Y133.256 E3398.75137
G0 F5400 X168.819 Y133.822
G1 F1800 X113.921 Y188.719 E3403.91579
G0 F5400 X114.487 Y188.719
G1 F1800 X168.819 Y134.387 E3409.02701
G0 F5400 X168.819 Y134.953
G1 F1800 X115.053 Y188.719 E3414.08499
G0 F5400 X115.619 Y188.719
G1 F1800 X168.819 Y135.519 E3419.08972
G0 F5400 X168.819 Y136.084
G1 F1800 X116.184 Y188.719 E3424.0413
G0 F5400 X116.75 Y188.719
G1 F1800 X168.819 Y136.65 E3428.93963
G0 F5400 X168.819 Y137.216
G1 F1800 X117.316 Y188.719 E3433.78471
G0 F5400 X117.881 Y188.719
G1 F1800 X168.819 Y137.781 E3438.57665
G0 F5400 X168.819 Y138.347
G1 F1800 X118.447 Y188.719 E3443.31534
G0 F5400 X119.013 Y188.719
G1 F1800 X168.819 Y138.913 E3448.00078
G0 F5400 X168.819 Y139.478
G1 F1800 X119.578 Y188.719 E3452.63307
G0 F5400 X120.144 Y188.719
G1 F1800 X168.819 Y140.044 E3457.21212
G0 F5400 X168.819 Y140.61
G1 F1800 X120.71 Y188.719 E3461.73792
G0 F5400 X121.275 Y188.719
G1 F1800 X168.819 Y141.175 E3466.21057
G0 F5400 X168.819 Y141.741
G1 F1800 X121.841 Y188.719 E3470.62997
G0 F5400 X122.407 Y188.719
G1 F1800 X168.819 Y142.307 E3474.99612
G0 F5400 X168.819 Y142.873
G1 F1800 X122.972 Y188.719 E3479.30908
G0 F5400 X123.538 Y188.719
G1 F1800 X168.819 Y143.438 E3483.56884
G0 F5400 X168.819 Y144.004
G1 F1800 X124.104 Y188.719 E3487.77535
G0 F5400 X124.669 Y188.719
G1 F1800 X168.819 Y144.57 E3491.92867
G0 F5400 X168.819 Y145.135
G1 F1800 X125.235 Y188.719 E3496.02878
G0 F5400 X125.801 Y188.719
G1 F1800 X168.819 Y145.701 E3500.07565
G0 F5400 X168.819 Y146.267
G1 F1800 X126.367 Y188.719 E3504.06928
G0 F5400 X126.932 Y188.719
G1 F1800 X168.819 Y146.832 E3508.00975
G0 F5400 X168.819 Y147.398
G1 F1800 X127.498 Y188.719 E3511.89698
G0 F5400 X128.064 Y188.719
G1 F1800 X168.819 Y147.964 E3515.73096
G0 F5400 X168.819 Y148.529
G1 F1800 X128.629 Y188.719 E3519.51178
G0 F5400 X129.195 Y188.719
G1 F1800 X168.819 Y149.095 E3523.23937
G0 F5400 X168.819 Y149.661
G1 F1800 X129.761 Y188.719 E3526.9137
G0 F5400 X130.326 Y188.719
G1 F1800 X168.819 Y150.226 E3530.53489
G0 F5400 X168.819 Y150.792
G1 F1800 X130.892 Y188.719 E3534.10283
G0 F5400 X131.458 Y188.719
G1 F1800 X168.819 Y151.358 E3537.61752
G0 F5400 X168.819 Y151.924
G1 F1800 X132.023 Y188.719 E3541.07902
G0 F5400 X132.589 Y188.719
G1 F1800 X168.819 Y152.489 E3544.48731
G0 F5400 X168.819 Y153.055
G1 F1800 X133.155 Y188.719 E3547.84237
G0 F5400 X133.72 Y188.719
G1 F1800 X168.819 Y153.621 E3551.14422
G0 F5400 X168.819 Y154.186
G1 F1800 X134.286 Y188.719 E3554.39287
G0 F5400 X134.852 Y188.719
G1 F1800 X168.819 Y154.752 E3557.58828
G0 F5400 X168.819 Y155.318
G1 F1800 X135.418 Y188.719 E3560.73044
G0 F5400 X135.983 Y188.719
G1 F1800 X168.819 Y155.883 E3563.81945
G0 F5400 X168.819 Y156.449
G1 F1800 X136.549 Y188.719 E3566.85521
G0 F5400 X137.115 Y188.719
G1 F1800 X168.819 Y157.015 E3569.83773
G0 F5400 X168.819 Y157.58
G1 F1800 X137.68 Y188.719 E3572.7671
G0 F5400 X138.246 Y188.719
G1 F1800 X168.819 Y158.146 E3575.64322
G0 F5400 X168.819 Y158.712
G1 F1800 X138.812 Y188.719 E3578.46609
G0 F5400 X139.377 Y188.719
G1 F1800 X168.819 Y159.277 E3581.23581
G0 F5400 X168.819 Y159.843
G1 F1800 X139.943 Y188.719 E3583.95229
G0 F5400 X140.509 Y188.719
G1 F1800 X168.819 Y160.409 E3586.61552
G0 F5400 X168.819 Y160.974
G1 F1800 X141.074 Y188.719 E3589.2256
G0 F5400 X141.64 Y188.719
G1 F1800 X168.819 Y161.54 E3591.78243
G0 F5400 X168.819 Y162.106
G1 F1800 X142.206 Y188.719 E3594.28602
G0 F5400 X142.771 Y188.719
G1 F1800 X168.819 Y162.672 E3596.73641
G0 F5400 X168.819 Y163.237
G1 F1800 X143.337 Y188.719 E3599.1336
G0 F5400 X143.903 Y188.719
G1 F1800 X168.819 Y163.803 E3601.47755
G0 F5400 X168.819 Y164.369
G1 F1800 X144.468 Y188.719 E3603.76829
G0 F5400 X145.034 Y188.719
G1 F1800 X168.819 Y164.934 E3606.00584
G0 F5400 X168.819 Y165.5
G1 F1800 X145.6 Y188.719 E3608.19014
G0 F5400 X146.166 Y188.719
G1 F1800 X168.819 Y166.066 E3610.3212
G0 F5400 X168.819 Y166.631
G1 F1800 X146.731 Y188.719 E3612.3991
G0 F5400 X147.297 Y188.719
G1 F1800 X168.819 Y167.197 E3614.42376
G0 F5400 X168.819 Y167.763
G1 F1800 X147.863 Y188.719 E3616.39517
G0 F5400 X148.428 Y188.719
G1 F1800 X168.819 Y168.328 E3618.31343
G0 F5400 X168.819 Y168.894
G1 F1800 X148.994 Y188.719 E3620.17844
G0 F5400 X149.56 Y188.719
G1 F1800 X168.819 Y169.46 E3621.99021
G0 F5400 X168.819 Y170.025
G1 F1800 X150.125 Y188.719 E3623.74883
G0 F5400 X150.691 Y188.719
G1 F1800 X168.819 Y170.591 E3625.4542
G0 F5400 X168.819 Y171.157
G1 F1800 X151.257 Y188.719 E3627.10633
G0 F5400 X151.822 Y188.719
G1 F1800 X168.819 Y171.723 E3628.70525
G0 F5400 X168.819 Y172.288
G1 F1800 X152.388 Y188.719 E3630.25098
G0 F5400 X152.954 Y188.719
G1 F1800 X168.819 Y172.854 E3631.74346
G0 F5400 X168.819 Y173.42
G1 F1800 X153.519 Y188.719 E3633.18274
G0 F5400 X154.085 Y188.719
G1 F1800 X168.819 Y173.985 E3634.56883
G0 F5400 X168.819 Y174.551
G1 F1800 X154.651 Y188.719 E3635.90167
G0 F5400 X155.217 Y188.719
G1 F1800 X168.819 Y175.117 E3637.18126
G0 F5400 X168.819 Y175.682
G1 F1800 X155.782 Y188.719 E3638.4077
G0 F5400 X156.348 Y188.719
G1 F1800 X168.819 Y176.248 E3639.5809
G0 F5400 X168.819 Y176.814
G1 F1800 X156.914 Y188.719 E3640.70085
G0 F5400 X157.479 Y188.719
G1 F1800 X168.819 Y177.379 E3641.76764
G0 F5400 X168.819 Y177.945
G1 F1800 X158.045 Y188.719 E3642.7812
G0 F5400 X158.611 Y188.719
G1 F1800 X168.819 Y178.511 E3643.7415
G0 F5400 X168.819 Y179.076
G1 F1800 X159.176 Y188.719 E3644.64866
G0 F5400 X159.742 Y188.719
G1 F1800 X168.819 Y179.642 E3645.50256
G0 F5400 X168.819 Y180.208
G1 F1800 X160.308 Y188.719 E3646.30323
G0 F5400 X160.873 Y188.719
G1 F1800 X168.819 Y180.773 E3647.05074
G0 F5400 X168.819 Y181.339
G1 F1800 X161.439 Y188.719 E3647.745
