;FLAVOR:Marlin
;TIME:5933
;Filament used: 10.5418m
;Layer height: 0.4
;MINX:61.2
;MINY:57.3
;MINZ:0.3
;MAXX:188.8
;MAXY:197.7
;MAXZ:13.1
;Generated with Cura_SteamEngine 5.3.0
M140 S60
M105
M190 S60
M104 S200
M105
M109 S200
M82 ;absolute extrusion mode
G21 ;metric values
G90 ;absolute positioning
M82 ;set extruder to absolute mode
M107 ;start with the fan off
G28 X0 Y0 ;move X/Y to min endstops
M300 S1318 P266
G28 Z0 ;move Z to min endstops
G0 Z0.2
G92 E0 ;zero the extruded length
G1 X40 E25 F400 ; Extrude 25mm of filament in a 4cm line. Reduce speed (F) if you have a nozzle smaller than 0.4mm!
G92 E0 ;zero the extruded length again
G1 E-1 F500 ; Retract a little
G1 X80 F4000 ; Quickly wipe away from the filament line
M117 ; Printing…
G5
G92 E0
G92 E0
G1 F1500 E-6.5
;LAYER_COUNT:33
;LAYER:0
M107
G0 F3600 X63.819 Y67.584 Z0.3
;TYPE:SKIRT
G1 F1500 E0
G1 F1800 X65.329 Y66.597 E0.09
G1 X66.589 Y66.001 E0.15954
G1 X68.811 Y65.615 E0.27206
G1 X69.398 Y65.678 E0.30151
G1 X69.402 Y64.362 E0.36717
G1 X69.558 Y63.161 E0.42759
G1 X70.3 Y61.294 E0.52782
G1 X71.663 Y59.517 E0.63955
G1 X72.601 Y58.78 E0.69906
G1 X74.315 Y57.748 E0.79888
G1 X76.437 Y57.3 E0.90708
G1 X182.02 Y57.39 E6.17464
G1 X183.533 Y57.65 E6.25123
G1 X185.058 Y58.46 E6.33738
G1 X186.349 Y59.374 E6.41629
G1 X187.55 Y60.858 E6.51154
G1 X188.526 Y62.823 E6.621
G1 X188.748 Y64.346 E6.69779
G1 X188.8 Y190.664 E12.99982
G1 X188.335 Y192.645 E13.10134
G1 X187.44 Y194.332 E13.19661
G1 X186.58 Y195.361 E13.26352
G1 X185.261 Y196.436 E13.34841
G1 X183.282 Y197.426 E13.45881
G1 X181.754 Y197.648 E13.53584
G1 X175.522 Y197.7 E13.84677
G1 X173.47 Y197.35 E13.95062
G1 X171.945 Y196.54 E14.03677
G1 X170.654 Y195.626 E14.11568
G1 X169.752 Y194.511 E14.18723
G1 X169.225 Y195.252 E14.2326
G1 X167.746 Y196.449 E14.32753
G1 X165.779 Y197.426 E14.4371
G1 X164.256 Y197.648 E14.51388
G1 X154.513 Y197.7 E14.99997
G1 X152.469 Y197.35 E15.10343
G1 X150.943 Y196.54 E15.18962
G1 X149.652 Y195.626 E15.26854
G1 X148.751 Y194.511 E15.34006
G1 X148.224 Y195.252 E15.38542
G1 X146.745 Y196.449 E15.48035
G1 X144.778 Y197.426 E15.58992
G1 X143.255 Y197.648 E15.66671
G1 X132.761 Y197.7 E16.19026
G1 X130.718 Y197.35 E16.29367
G1 X129.192 Y196.54 E16.37987
G1 X127.901 Y195.626 E16.45878
G1 X127 Y194.511 E16.5303
G1 X126.473 Y195.252 E16.57567
G1 X124.994 Y196.449 E16.67059
G1 X123.027 Y197.426 E16.78016
G1 X121.504 Y197.648 E16.85695
G1 X112.261 Y197.7 E17.31809
G1 X110.217 Y197.35 E17.42155
G1 X108.691 Y196.54 E17.50775
G1 X107.4 Y195.626 E17.58666
G1 X106.499 Y194.511 E17.65818
G1 X105.972 Y195.252 E17.70355
G1 X104.493 Y196.449 E17.79847
G1 X102.526 Y197.426 E17.90804
G1 X101.003 Y197.648 E17.98483
G1 X87.006 Y197.7 E18.68315
G1 X84.965 Y197.35 E18.78646
G1 X83.44 Y196.54 E18.87261
G1 X82.149 Y195.626 E18.95152
G1 X81.247 Y194.511 E19.02308
G1 X80.72 Y195.252 E19.06844
G1 X79.241 Y196.449 E19.16337
G1 X77.274 Y197.426 E19.27294
G1 X75.751 Y197.648 E19.34972
G1 X68.517 Y197.7 E19.71064
G1 X66.466 Y197.35 E19.81444
G1 X64.942 Y196.54 E19.90055
G1 X63.651 Y195.626 E19.97946
G1 X62.45 Y194.142 E20.07471
G1 X61.474 Y192.177 E20.18417
G1 X61.252 Y190.654 E20.26096
G1 X61.2 Y72.739 E26.14376
G1 X61.518 Y71.205 E26.22192
G1 X62.312 Y69.342 E26.32295
G1 X63.819 Y67.584 E26.43847
G0 F3600 X64.087 Y67.886
G1 F1800 X65.5 Y66.959 E26.52279
G1 X66.712 Y66.386 E26.58967
G1 X68.823 Y66.019 E26.69657
G1 X69.797 Y66.124 E26.74544
G1 X69.799 Y64.413 E26.83081
G1 X69.948 Y63.263 E26.88866
G1 X70.653 Y61.49 E26.98385
G1 X71.948 Y59.802 E27.08999
G1 X72.807 Y59.123 E27.14462
G1 X74.465 Y58.125 E27.24117
G1 X76.477 Y57.7 E27.34376
G1 X181.952 Y57.784 E32.60593
G1 X183.4 Y58.033 E32.67923
G1 X184.827 Y58.787 E32.75975
G1 X186.075 Y59.67 E32.83603
G1 X187.211 Y61.075 E32.92617
G1 X188.139 Y62.943 E33.03023
G1 X188.352 Y64.404 E33.10389
G1 X188.4 Y190.619 E39.40078
G1 X187.957 Y192.504 E39.49739
G1 X187.107 Y194.107 E39.58791
G1 X186.299 Y195.074 E39.65078
G1 X185.043 Y196.098 E39.73163
G1 X183.161 Y197.039 E39.8366
G1 X181.696 Y197.252 E39.91046
G1 X175.552 Y197.3 E40.21699
G1 X173.603 Y196.967 E40.31564
G1 X172.176 Y196.213 E40.39616
G1 X170.928 Y195.33 E40.47243
G1 X169.731 Y193.849 E40.56743
G1 X168.931 Y194.975 E40.63635
G1 X167.527 Y196.111 E40.72645
G1 X165.659 Y197.039 E40.83051
G1 X164.198 Y197.252 E40.90417
G1 X154.545 Y197.3 E41.38577
G1 X152.601 Y196.967 E41.48416
G1 X151.174 Y196.213 E41.56469
G1 X149.926 Y195.33 E41.64096
G1 X148.73 Y193.85 E41.73589
G1 X147.93 Y194.975 E41.80476
G1 X146.526 Y196.111 E41.89486
G1 X144.658 Y197.039 E41.99893
G1 X143.197 Y197.252 E42.07259
G1 X132.793 Y197.3 E42.59165
G1 X130.85 Y196.967 E42.69
G1 X129.423 Y196.213 E42.77052
G1 X128.175 Y195.33 E42.84679
G1 X126.979 Y193.85 E42.94172
G1 X126.179 Y194.975 E43.01059
G1 X124.775 Y196.111 E43.1007
G1 X122.907 Y197.039 E43.20476
G1 X121.446 Y197.252 E43.27842
G1 X112.293 Y197.3 E43.73507
G1 X110.349 Y196.967 E43.83347
G1 X108.922 Y196.213 E43.91399
G1 X107.674 Y195.33 E43.99026
G1 X106.478 Y193.85 E44.08519
G1 X105.678 Y194.975 E44.15407
G1 X104.274 Y196.111 E44.24417
G1 X102.406 Y197.039 E44.34823
G1 X100.945 Y197.252 E44.42189
G1 X87.038 Y197.3 E45.11572
G1 X85.098 Y196.967 E45.21392
G1 X83.671 Y196.213 E45.29444
G1 X82.423 Y195.33 E45.37071
G1 X81.226 Y193.849 E45.46571
G1 X80.426 Y194.975 E45.53463
G1 X79.022 Y196.111 E45.62473
G1 X77.154 Y197.039 E45.72879
G1 X75.693 Y197.252 E45.80245
G1 X68.547 Y197.3 E46.15897
G1 X66.599 Y196.967 E46.25757
G1 X65.173 Y196.213 E46.33805
G1 X63.925 Y195.33 E46.41432
G1 X62.789 Y193.925 E46.50446
G1 X61.861 Y192.057 E46.60852
G1 X61.648 Y190.596 E46.68218
G1 X61.6 Y72.781 E52.56
G1 X61.902 Y71.324 E52.63423
G1 X62.656 Y69.555 E52.73017
G1 X64.087 Y67.886 E52.83985
G0 F3600 X64.354 Y68.189
G1 F1800 X65.671 Y67.321 E52.91854
G1 X66.836 Y66.77 E52.98284
G1 X68.834 Y66.423 E53.08401
G1 X70.318 Y66.583 E53.15848
G1 X70.197 Y66.124 E53.18216
G1 X70.196 Y64.465 E53.26493
G1 X70.339 Y63.364 E53.32032
G1 X71.006 Y61.686 E53.41041
G1 X72.233 Y60.086 E53.511
G1 X73.013 Y59.466 E53.56071
G1 X74.615 Y58.502 E53.65399
G1 X76.517 Y58.1 E53.75098
G1 X181.884 Y58.178 E59.00776
G1 X183.268 Y58.416 E59.07782
G1 X184.64 Y59.141 E59.15524
G1 X185.8 Y59.966 E59.22625
G1 X186.872 Y61.292 E59.31132
G1 X187.752 Y63.063 E59.40999
G1 X187.956 Y64.462 E59.48052
G1 X188 Y190.575 E65.77232
G1 X187.58 Y192.363 E65.86396
G1 X186.774 Y193.882 E65.94975
G1 X186.018 Y194.787 E66.00858
G1 X184.825 Y195.76 E66.08538
G1 X183.04 Y196.652 E66.18494
G1 X181.638 Y196.856 E66.25562
G1 X175.582 Y196.9 E66.55776
G1 X173.735 Y196.584 E66.65125
G1 X172.363 Y195.859 E66.72867
G1 X171.203 Y195.034 E66.79968
G1 X170.131 Y193.708 E66.88475
G1 X169.763 Y192.968 E66.92598
G1 X169.461 Y193.54 E66.95826
G1 X168.636 Y194.7 E67.02927
G1 X167.31 Y195.772 E67.11434
G1 X165.539 Y196.652 E67.213
G1 X164.14 Y196.856 E67.28354
G1 X154.577 Y196.9 E67.76064
G1 X152.733 Y196.584 E67.85398
G1 X151.361 Y195.859 E67.9314
G1 X150.201 Y195.034 E68.00242
G1 X149.129 Y193.708 E68.08749
G1 X148.762 Y192.969 E68.12865
G1 X148.46 Y193.54 E68.16088
G1 X147.635 Y194.7 E68.23189
G1 X146.309 Y195.772 E68.31696
G1 X144.538 Y196.652 E68.41562
G1 X143.139 Y196.856 E68.48616
G1 X132.825 Y196.9 E69.00073
G1 X130.982 Y196.584 E69.09402
G1 X129.61 Y195.859 E69.17144
G1 X128.45 Y195.034 E69.24246
G1 X127.378 Y193.708 E69.32752
G1 X127.011 Y192.969 E69.36869
G1 X126.709 Y193.54 E69.40092
G1 X125.884 Y194.7 E69.47193
G1 X124.558 Y195.772 E69.557
G1 X122.787 Y196.652 E69.65566
G1 X121.388 Y196.856 E69.7262
G1 X112.325 Y196.9 E70.17836
G1 X110.481 Y196.584 E70.2717
G1 X109.109 Y195.859 E70.34912
G1 X107.949 Y195.034 E70.42013
G1 X106.877 Y193.708 E70.5052
G1 X106.51 Y192.969 E70.54637
G1 X106.208 Y193.54 E70.57859
G1 X105.383 Y194.7 E70.64961
G1 X104.057 Y195.772 E70.73468
G1 X102.286 Y196.652 E70.83334
G1 X100.887 Y196.856 E70.90387
G1 X87.07 Y196.9 E71.59321
G1 X85.23 Y196.584 E71.68635
G1 X83.858 Y195.859 E71.76377
G1 X82.698 Y195.034 E71.83479
G1 X81.626 Y193.708 E71.91986
G1 X81.258 Y192.968 E71.96109
G1 X80.956 Y193.54 E71.99336
G1 X80.131 Y194.7 E72.06438
G1 X78.805 Y195.772 E72.14944
G1 X77.034 Y196.652 E72.24811
G1 X75.635 Y196.856 E72.31864
G1 X68.578 Y196.9 E72.67072
G1 X66.732 Y196.584 E72.76416
G1 X65.36 Y195.859 E72.84158
G1 X64.2 Y195.034 E72.9126
G1 X63.128 Y193.708 E72.99766
G1 X62.248 Y191.937 E73.09633
G1 X62.044 Y190.538 E73.16686
G1 X62 Y72.823 E79.03969
G1 X62.286 Y71.443 E79.11
G1 X63 Y69.768 E79.20084
G1 X64.354 Y68.189 E79.30461
G0 F3600 X64.622 Y68.491
G1 F1800 X65.842 Y67.683 E79.37762
G1 X66.959 Y67.155 E79.43926
G1 X68.846 Y66.827 E79.53481
G1 X70.427 Y66.997 E79.61414
G1 X70.906 Y67.148 E79.6392
G1 X70.597 Y66.123 E79.69261
G1 X70.593 Y64.516 E79.77278
G1 X70.729 Y63.466 E79.82561
G1 X71.359 Y61.882 E79.91065
G1 X72.519 Y60.369 E80.00577
G1 X73.219 Y59.809 E80.05049
G1 X74.765 Y58.879 E80.1405
G1 X76.557 Y58.5 E80.23188
G1 X181.816 Y58.572 E85.48328
G1 X183.136 Y58.799 E85.5501
G1 X184.453 Y59.495 E85.62442
G1 X185.524 Y60.261 E85.69011
G1 X186.533 Y61.509 E85.77018
G1 X187.365 Y63.183 E85.86344
G1 X187.56 Y64.52 E85.93085
G1 X187.6 Y190.53 E92.21751
G1 X187.202 Y192.222 E92.30423
G1 X186.441 Y193.657 E92.38527
G1 X185.737 Y194.5 E92.44006
G1 X184.607 Y195.422 E92.51282
G1 X182.919 Y196.265 E92.60695
G1 X181.58 Y196.46 E92.67446
G1 X175.613 Y196.5 E92.97216
G1 X173.867 Y196.201 E93.06054
G1 X172.55 Y195.505 E93.13486
G1 X171.479 Y194.739 E93.20055
G1 X170.47 Y193.491 E93.28062
G1 X169.774 Y192.091 E93.35862
G1 X169.107 Y193.353 E93.42983
G1 X168.341 Y194.424 E93.49552
G1 X167.093 Y195.433 E93.57559
G1 X165.419 Y196.265 E93.66885
G1 X164.082 Y196.46 E93.73626
G1 X154.609 Y196.5 E94.20888
G1 X152.865 Y196.201 E94.29715
G1 X151.548 Y195.505 E94.37147
G1 X150.477 Y194.739 E94.43716
G1 X149.468 Y193.491 E94.51723
G1 X148.773 Y192.092 E94.59516
G1 X148.106 Y193.353 E94.66633
G1 X147.34 Y194.424 E94.73203
G1 X146.092 Y195.433 E94.81209
G1 X144.418 Y196.265 E94.90536
G1 X143.081 Y196.46 E94.97277
G1 X132.857 Y196.5 E95.48285
G1 X131.114 Y196.201 E95.57108
G1 X129.797 Y195.505 E95.64539
G1 X128.726 Y194.739 E95.71108
G1 X127.717 Y193.491 E95.79115
G1 X127.022 Y192.092 E95.86909
G1 X126.355 Y193.353 E95.94026
G1 X125.589 Y194.424 E96.00595
G1 X124.341 Y195.433 E96.08602
G1 X122.667 Y196.265 E96.17928
G1 X121.33 Y196.46 E96.24669
G1 X112.357 Y196.5 E96.69436
G1 X110.613 Y196.201 E96.78263
G1 X109.296 Y195.505 E96.85695
G1 X108.225 Y194.739 E96.92264
G1 X107.216 Y193.491 E97.00271
G1 X106.521 Y192.092 E97.08064
G1 X105.854 Y193.353 E97.15181
G1 X105.088 Y194.424 E97.21751
G1 X103.84 Y195.433 E97.29757
G1 X102.166 Y196.265 E97.39084
G1 X100.829 Y196.46 E97.45825
G1 X87.102 Y196.5 E98.14309
G1 X85.362 Y196.201 E98.23117
G1 X84.045 Y195.505 E98.30549
G1 X82.974 Y194.739 E98.37118
G1 X81.965 Y193.491 E98.45125
G1 X81.269 Y192.091 E98.52925
G1 X80.602 Y193.353 E98.60046
G1 X79.836 Y194.424 E98.66616
G1 X78.588 Y195.433 E98.74622
G1 X76.914 Y196.265 E98.83949
G1 X75.577 Y196.46 E98.90689
G1 X68.61 Y196.5 E99.25449
G1 X66.864 Y196.201 E99.34286
G1 X65.547 Y195.505 E99.41718
G1 X64.476 Y194.739 E99.48287
G1 X63.467 Y193.491 E99.56294
G1 X62.635 Y191.817 E99.6562
G1 X62.44 Y190.48 E99.72361
G1 X62.4 Y72.865 E105.59145
G1 X62.67 Y71.562 E105.65783
G1 X63.344 Y69.981 E105.74358
G1 X64.622 Y68.491 E105.84151
G0 F3600 X64.889 Y68.794
G1 F1800 X66.013 Y68.045 E105.9089
G1 X67.082 Y67.54 E105.96788
G1 X68.858 Y67.231 E106.05782
G1 X70.384 Y67.395 E106.13439
G1 X71.599 Y67.801 E106.1983
G1 X71.414 Y67.448 E106.21819
G1 X70.997 Y66.064 E106.2903
G1 X70.99 Y64.568 E106.36494
G1 X71.12 Y63.567 E106.4153
G1 X71.712 Y62.078 E106.49524
G1 X72.806 Y60.651 E106.58495
G1 X73.425 Y60.152 E106.62461
G1 X74.915 Y59.256 E106.71135
G1 X76.597 Y58.9 E106.79713
G1 X181.748 Y58.966 E112.04313
G1 X183.004 Y59.182 E112.10672
G1 X184.266 Y59.849 E112.17793
G1 X185.248 Y60.555 E112.23827
G1 X186.194 Y61.726 E112.31337
G1 X186.978 Y63.303 E112.40124
G1 X187.164 Y64.578 E112.46552
G1 X187.2 Y190.485 E118.74705
G1 X186.824 Y192.081 E118.82885
G1 X186.108 Y193.432 E118.90513
G1 X185.456 Y194.213 E118.95589
G1 X184.389 Y195.084 E119.02461
G1 X182.798 Y195.878 E119.11332
G1 X181.522 Y196.064 E119.17765
G1 X175.645 Y196.1 E119.47086
G1 X173.999 Y195.818 E119.55418
G1 X172.737 Y195.151 E119.62539
G1 X171.755 Y194.445 E119.68573
G1 X170.809 Y193.274 E119.76083
G1 X170.025 Y191.697 E119.8487
G1 X169.839 Y190.422 E119.91298
G1 X169.813 Y186.598 E120.10377
G1 X169.702 Y186.598 E120.1093
G1 X169.702 Y190.263 E120.29215
G1 X169.42 Y191.904 E120.37522
G1 X168.753 Y193.166 E120.44644
G1 X168.047 Y194.148 E120.50677
G1 X166.876 Y195.094 E120.58188
G1 X165.299 Y195.878 E120.66974
G1 X164.024 Y196.064 E120.73402
G1 X154.641 Y196.1 E121.20215
G1 X152.997 Y195.818 E121.28537
G1 X151.735 Y195.151 E121.35658
G1 X150.753 Y194.445 E121.41692
G1 X149.807 Y193.274 E121.49202
G1 X149.023 Y191.697 E121.57989
G1 X148.837 Y190.422 E121.64417
G1 X148.811 Y186.598 E121.83495
G1 X148.701 Y186.598 E121.84044
G1 X148.701 Y190.263 E122.02329
G1 X148.419 Y191.904 E122.10636
G1 X147.752 Y193.166 E122.17757
G1 X147.046 Y194.148 E122.23791
G1 X145.875 Y195.094 E122.31302
G1 X144.298 Y195.878 E122.40088
G1 X143.023 Y196.064 E122.46516
G1 X132.889 Y196.1 E122.97075
G1 X131.246 Y195.818 E123.05392
G1 X129.984 Y195.151 E123.12514
G1 X129.002 Y194.445 E123.18548
G1 X128.056 Y193.274 E123.26058
G1 X127.272 Y191.697 E123.34844
G1 X127.086 Y190.422 E123.41273
G1 X127.06 Y186.598 E123.60351
G1 X126.95 Y186.598 E123.609
G1 X126.95 Y190.263 E123.79185
G1 X126.668 Y191.904 E123.87492
G1 X126.001 Y193.166 E123.94613
G1 X125.295 Y194.148 E124.00647
G1 X124.124 Y195.094 E124.08157
G1 X122.547 Y195.878 E124.16944
G1 X121.272 Y196.064 E124.23372
G1 X112.389 Y196.1 E124.6769
G1 X110.745 Y195.818 E124.76012
G1 X109.483 Y195.151 E124.83133
G1 X108.501 Y194.445 E124.89167
G1 X107.555 Y193.274 E124.96677
G1 X106.771 Y191.697 E125.05464
G1 X106.585 Y190.422 E125.11892
G1 X106.559 Y186.598 E125.3097
G1 X106.449 Y186.598 E125.31519
G1 X106.449 Y190.263 E125.49804
G1 X106.167 Y191.904 E125.58111
G1 X105.5 Y193.166 E125.65232
G1 X104.794 Y194.148 E125.71266
G1 X103.623 Y195.094 E125.78777
G1 X102.046 Y195.878 E125.87563
G1 X100.771 Y196.064 E125.93991
G1 X87.135 Y196.1 E126.62022
G1 X85.494 Y195.818 E126.70329
G1 X84.232 Y195.151 E126.7745
G1 X83.25 Y194.445 E126.83484
G1 X82.304 Y193.274 E126.90995
G1 X81.52 Y191.697 E126.99781
G1 X81.334 Y190.422 E127.06209
G1 X81.306 Y185.698 E127.29778
G1 X81.197 Y185.698 E127.30322
G1 X81.197 Y190.263 E127.53096
G1 X80.915 Y191.904 E127.61403
G1 X80.248 Y193.166 E127.68525
G1 X79.542 Y194.148 E127.74559
G1 X78.371 Y195.094 E127.82069
G1 X76.794 Y195.878 E127.90855
G1 X75.519 Y196.064 E127.97284
G1 X68.642 Y196.1 E128.31594
G1 X66.996 Y195.818 E128.39925
G1 X65.734 Y195.151 E128.47047
G1 X64.752 Y194.445 E128.53081
G1 X63.806 Y193.274 E128.60591
G1 X63.022 Y191.697 E128.69377
G1 X62.836 Y190.422 E128.75806
G1 X62.8 Y72.907 E134.6209
G1 X63.054 Y71.681 E134.68337
G1 X63.688 Y70.194 E134.76402
G1 X64.889 Y68.794 E134.85604
G0 F3600 X65.159 Y69.095
G1 F1800 X66.184 Y68.407 E134.91763
G1 X67.206 Y67.924 E134.97403
G1 X68.869 Y67.635 E135.05824
G1 X70.301 Y67.789 E135.13009
G1 X71.697 Y68.255 E135.20352
G1 X72.85 Y69.071 E135.27399
G1 X76.917 Y73.373 E135.56934
G1 X76.95 Y73.343 E135.57157
G1 X72.553 Y68.693 E135.89085
G1 X71.797 Y67.333 E135.96848
G1 X71.397 Y66.005 E136.03768
G1 X71.387 Y64.62 E136.10678
G1 X71.511 Y63.668 E136.15467
G1 X72.065 Y62.274 E136.22951
G1 X73.092 Y60.934 E136.31374
G1 X73.631 Y60.495 E136.34842
G1 X75.065 Y59.633 E136.43189
G1 X76.637 Y59.3 E136.51206
G1 X181.68 Y59.36 E141.75268
G1 X182.872 Y59.565 E141.81302
G1 X184.079 Y60.203 E141.88113
G1 X184.972 Y60.85 E141.93615
G1 X185.855 Y61.943 E142.00625
G1 X186.591 Y63.423 E142.08871
G1 X186.768 Y64.636 E142.14987
G1 X186.8 Y190.44 E148.42626
G1 X186.446 Y191.94 E148.50315
G1 X185.775 Y193.207 E148.57468
G1 X185.175 Y193.926 E148.6214
G1 X184.171 Y194.746 E148.68607
G1 X182.677 Y195.491 E148.76936
G1 X181.464 Y195.668 E148.83052
G1 X175.677 Y195.7 E149.11924
G1 X174.131 Y195.435 E149.19749
G1 X172.924 Y194.797 E149.26561
G1 X172.031 Y194.15 E149.32062
G1 X171.148 Y193.057 E149.39072
G1 X170.412 Y191.577 E149.47319
G1 X170.235 Y190.364 E149.53434
G1 X170.211 Y186.198 E149.74219
G1 X169.302 Y186.198 E149.78754
G1 X169.302 Y190.23 E149.9887
G1 X169.037 Y191.772 E150.06676
G1 X168.399 Y192.979 E150.13487
G1 X167.752 Y193.872 E150.18989
G1 X166.659 Y194.755 E150.25999
G1 X165.179 Y195.491 E150.34245
G1 X163.966 Y195.668 E150.40361
G1 X154.673 Y195.7 E150.86724
G1 X153.129 Y195.435 E150.9454
G1 X151.922 Y194.797 E151.01351
G1 X151.029 Y194.15 E151.06853
G1 X150.146 Y193.057 E151.13863
G1 X149.41 Y191.577 E151.22109
G1 X149.233 Y190.364 E151.28225
G1 X149.209 Y186.198 E151.4901
G1 X148.301 Y186.198 E151.5354
G1 X148.301 Y190.23 E151.73655
G1 X148.036 Y191.772 E151.81461
G1 X147.398 Y192.979 E151.88272
G1 X146.751 Y193.872 E151.93774
G1 X145.658 Y194.755 E152.00784
G1 X144.178 Y195.491 E152.09031
G1 X142.965 Y195.668 E152.15146
G1 X132.921 Y195.7 E152.65256
G1 X131.378 Y195.435 E152.73067
G1 X130.171 Y194.797 E152.79878
G1 X129.278 Y194.15 E152.8538
G1 X128.395 Y193.057 E152.9239
G1 X127.659 Y191.577 E153.00636
G1 X127.482 Y190.364 E153.06752
G1 X127.458 Y186.198 E153.27537
G1 X126.55 Y186.198 E153.32067
G1 X126.55 Y190.23 E153.52183
G1 X126.285 Y191.772 E153.59988
G1 X125.647 Y192.979 E153.668
G1 X125 Y193.872 E153.72301
G1 X123.907 Y194.755 E153.79311
G1 X122.427 Y195.491 E153.87558
G1 X121.214 Y195.668 E153.93674
G1 X112.421 Y195.7 E154.37542
G1 X110.877 Y195.435 E154.45358
G1 X109.67 Y194.797 E154.52169
G1 X108.777 Y194.15 E154.57671
G1 X107.894 Y193.057 E154.64681
G1 X107.158 Y191.577 E154.72927
G1 X106.981 Y190.364 E154.79043
G1 X106.957 Y186.198 E154.99828
G1 X106.049 Y186.198 E155.04358
G1 X106.049 Y190.23 E155.24473
G1 X105.784 Y191.772 E155.32279
G1 X105.146 Y192.979 E155.39091
G1 X104.499 Y193.872 E155.44592
G1 X103.406 Y194.755 E155.51602
G1 X101.926 Y195.491 E155.59849
G1 X100.713 Y195.668 E155.65964
G1 X87.168 Y195.7 E156.33541
G1 X85.626 Y195.435 E156.41347
G1 X84.419 Y194.797 E156.48158
G1 X83.526 Y194.15 E156.5366
G1 X82.643 Y193.057 E156.6067
G1 X81.907 Y191.577 E156.68916
G1 X81.73 Y190.364 E156.75032
G1 X81.704 Y185.298 E157.00307
G1 X80.797 Y185.298 E157.04832
G1 X80.797 Y190.23 E157.29438
G1 X80.532 Y191.772 E157.37243
G1 X79.894 Y192.979 E157.44055
G1 X79.247 Y193.872 E157.49556
G1 X78.154 Y194.755 E157.56566
G1 X76.674 Y195.491 E157.64813
G1 X75.461 Y195.668 E157.70929
G1 X68.674 Y195.7 E158.04789
G1 X67.128 Y195.435 E158.12615
G1 X65.921 Y194.797 E158.19426
G1 X65.028 Y194.15 E158.24928
G1 X64.145 Y193.057 E158.31938
G1 X63.409 Y191.577 E158.40184
G1 X63.232 Y190.364 E158.463
G1 X63.2 Y72.949 E164.32086
G1 X63.438 Y71.8 E164.3794
G1 X64.031 Y70.409 E164.45484
G1 X65.159 Y69.095 E164.54124
G0 F3600 X65.428 Y69.396
G1 F1800 X66.355 Y68.769 E164.59707
G1 X67.329 Y68.309 E164.65081
G1 X68.881 Y68.039 E164.7294
G1 X70.218 Y68.183 E164.79649
G1 X71.512 Y68.615 E164.86455
G1 X72.586 Y69.375 E164.93019
G1 X76.895 Y73.933 E165.24312
G1 X77.521 Y73.365 E165.2853
G1 X72.878 Y68.454 E165.62247
G1 X72.167 Y67.175 E165.69548
G1 X71.797 Y65.945 E165.75956
G1 X71.784 Y64.672 E165.82307
G1 X71.902 Y63.769 E165.86851
G1 X72.418 Y62.47 E165.93824
G1 X73.379 Y61.216 E166.01706
G1 X73.837 Y60.838 E166.04669
G1 X75.215 Y60.01 E166.12689
G1 X76.677 Y59.7 E166.20145
G1 X181.612 Y59.754 E171.43668
G1 X182.74 Y59.948 E171.49379
G1 X183.892 Y60.557 E171.5588
G1 X184.695 Y61.144 E171.60842
G1 X185.516 Y62.16 E171.67359
G1 X186.204 Y63.543 E171.75065
G1 X186.372 Y64.694 E171.80869
G1 X186.4 Y190.395 E178.07993
G1 X186.069 Y191.796 E178.15175
G1 X185.441 Y192.983 E178.21875
G1 X184.891 Y193.641 E178.26154
G1 X183.951 Y194.409 E178.3221
G1 X182.557 Y195.104 E178.39981
G1 X181.406 Y195.272 E178.45784
G1 X175.709 Y195.3 E178.74207
G1 X174.263 Y195.052 E178.81526
G1 X173.111 Y194.443 E178.88027
G1 X172.308 Y193.856 E178.9299
G1 X171.487 Y192.84 E178.99507
G1 X170.799 Y191.457 E179.07213
G1 X170.631 Y190.306 E179.13016
G1 X170.609 Y185.798 E179.35507
G1 X168.902 Y185.798 E179.44023
G1 X168.902 Y190.197 E179.6597
G1 X168.654 Y191.64 E179.73275
G1 X168.045 Y192.792 E179.79776
G1 X167.458 Y193.595 E179.84738
G1 X166.442 Y194.416 E179.91255
G1 X165.059 Y195.104 E179.98962
G1 X163.908 Y195.272 E180.04765
G1 X154.705 Y195.3 E180.50679
G1 X153.261 Y195.052 E180.57989
G1 X152.109 Y194.443 E180.6449
G1 X151.306 Y193.856 E180.69452
G1 X150.485 Y192.84 E180.75969
G1 X149.797 Y191.457 E180.83675
G1 X149.629 Y190.306 E180.89479
G1 X149.607 Y185.798 E181.11969
G1 X147.901 Y185.798 E181.20481
G1 X147.901 Y190.197 E181.42427
G1 X147.653 Y191.64 E181.49732
G1 X147.044 Y192.792 E181.56233
G1 X146.457 Y193.595 E181.61195
G1 X145.441 Y194.416 E181.67712
G1 X144.058 Y195.104 E181.75419
G1 X142.907 Y195.272 E181.81222
G1 X132.953 Y195.3 E182.30883
G1 X131.51 Y195.052 E182.38188
G1 X130.358 Y194.443 E182.44689
G1 X129.555 Y193.856 E182.49651
G1 X128.734 Y192.84 E182.56168
G1 X128.046 Y191.457 E182.63874
G1 X127.878 Y190.306 E182.69678
G1 X127.856 Y185.798 E182.92168
G1 X126.15 Y185.798 E183.0068
G1 X126.15 Y190.197 E183.22626
G1 X125.902 Y191.64 E183.29931
G1 X125.293 Y192.792 E183.36432
G1 X124.706 Y193.595 E183.41395
G1 X123.69 Y194.416 E183.47912
G1 X122.307 Y195.104 E183.55618
G1 X121.156 Y195.272 E183.61421
G1 X112.453 Y195.3 E184.04841
G1 X111.009 Y195.052 E184.1215
G1 X109.857 Y194.443 E184.18652
G1 X109.054 Y193.856 E184.23614
G1 X108.233 Y192.84 E184.30131
G1 X107.545 Y191.457 E184.37837
G1 X107.377 Y190.306 E184.43641
G1 X107.355 Y185.798 E184.66131
G1 X105.649 Y185.798 E184.74643
G1 X105.649 Y190.197 E184.96589
G1 X105.401 Y191.64 E185.03894
G1 X104.792 Y192.792 E185.10395
G1 X104.205 Y193.595 E185.15357
G1 X103.189 Y194.416 E185.21874
G1 X101.806 Y195.104 E185.29581
G1 X100.655 Y195.272 E185.35384
G1 X87.201 Y195.3 E186.02506
G1 X85.758 Y195.052 E186.09811
G1 X84.606 Y194.443 E186.16312
G1 X83.803 Y193.856 E186.21275
G1 X82.982 Y192.84 E186.27792
G1 X82.294 Y191.457 E186.35498
G1 X82.126 Y190.306 E186.41301
G1 X82.102 Y184.898 E186.68282
G1 X80.397 Y184.898 E186.76788
G1 X80.397 Y190.197 E187.03225
G1 X80.149 Y191.64 E187.1053
G1 X79.54 Y192.792 E187.17031
G1 X78.953 Y193.595 E187.21993
G1 X77.937 Y194.416 E187.2851
G1 X76.554 Y195.104 E187.36217
G1 X75.403 Y195.272 E187.4202
G1 X68.706 Y195.3 E187.75432
G1 X67.26 Y195.052 E187.82751
G1 X66.108 Y194.443 E187.89252
G1 X65.305 Y193.856 E187.94215
G1 X64.484 Y192.84 E188.00732
G1 X63.796 Y191.457 E188.08438
G1 X63.628 Y190.306 E188.14241
G1 X63.6 Y72.991 E193.99528
G1 X63.822 Y71.919 E194.0499
G1 X64.375 Y70.622 E194.12024
G1 X65.428 Y69.396 E194.20087
G0 F3600 X65.698 Y69.696
G1 F1800 X66.526 Y69.131 E194.25088
G1 X67.453 Y68.693 E194.30203
G1 X68.892 Y68.443 E194.3749
G1 X70.135 Y68.577 E194.43727
G1 X71.33 Y68.976 E194.50013
G1 X72.319 Y69.676 E194.56058
G1 X76.873 Y74.493 E194.89129
G1 X78.092 Y73.386 E194.97345
G1 X73.203 Y68.215 E195.32848
G1 X72.537 Y67.017 E195.39686
G1 X72.196 Y65.885 E195.45584
G1 X72.181 Y64.724 E195.51377
G1 X72.293 Y63.87 E195.55674
G1 X72.771 Y62.666 E195.62137
G1 X73.667 Y61.497 E195.69485
G1 X74.092 Y61.146 E195.72235
G1 X75.363 Y60.387 E195.79621
G1 X76.717 Y60.1 E195.86526
G1 X181.544 Y60.148 E201.0951
G1 X182.608 Y60.331 E201.14897
G1 X183.705 Y60.911 E201.21087
G1 X184.417 Y61.436 E201.25501
G1 X185.177 Y62.377 E201.31535
G1 X185.817 Y63.663 E201.38702
G1 X185.976 Y64.752 E201.44193
G1 X186 Y190.35 E207.70803
G1 X185.692 Y191.652 E207.77478
G1 X185.105 Y192.761 E207.83739
G1 X184.61 Y193.354 E207.87592
G1 X183.731 Y194.072 E207.93255
G1 X182.437 Y194.717 E208.00468
G1 X181.348 Y194.876 E208.05959
G1 X175.741 Y194.9 E208.33932
G1 X174.395 Y194.669 E208.40746
G1 X173.298 Y194.089 E208.46937
G1 X172.586 Y193.564 E208.5135
G1 X171.826 Y192.623 E208.57385
G1 X171.186 Y191.337 E208.64551
G1 X171.027 Y190.248 E208.70042
G1 X171.007 Y185.398 E208.94239
G1 X168.502 Y185.398 E209.06736
G1 X168.502 Y190.164 E209.30514
G1 X168.271 Y191.508 E209.37317
G1 X167.691 Y192.605 E209.43508
G1 X167.166 Y193.317 E209.47922
G1 X166.225 Y194.077 E209.53956
G1 X164.939 Y194.717 E209.61123
G1 X163.85 Y194.876 E209.66613
G1 X154.737 Y194.9 E210.12079
G1 X153.393 Y194.669 E210.18882
G1 X152.296 Y194.089 E210.25073
G1 X151.584 Y193.564 E210.29486
G1 X150.824 Y192.623 E210.35521
G1 X150.184 Y191.337 E210.42688
G1 X150.025 Y190.248 E210.48178
G1 X150.005 Y185.398 E210.72375
G1 X147.501 Y185.398 E210.84868
G1 X147.501 Y190.164 E211.08645
G1 X147.27 Y191.508 E211.15449
G1 X146.69 Y192.605 E211.2164
G1 X146.165 Y193.317 E211.26053
G1 X145.224 Y194.077 E211.32088
G1 X143.938 Y194.717 E211.39254
G1 X142.849 Y194.876 E211.44745
G1 X132.986 Y194.9 E211.93952
G1 X131.642 Y194.669 E212.00755
G1 X130.545 Y194.089 E212.06946
G1 X129.833 Y193.564 E212.1136
G1 X129.073 Y192.623 E212.17394
G1 X128.433 Y191.337 E212.24561
G1 X128.274 Y190.248 E212.30051
G1 X128.254 Y185.398 E212.54248
G1 X125.75 Y185.398 E212.66741
G1 X125.75 Y190.164 E212.90518
G1 X125.519 Y191.508 E212.97322
G1 X124.939 Y192.605 E213.03513
G1 X124.414 Y193.317 E213.07926
G1 X123.473 Y194.077 E213.13961
G1 X122.187 Y194.717 E213.21127
G1 X121.098 Y194.876 E213.26618
G1 X112.485 Y194.9 E213.69589
G1 X111.141 Y194.669 E213.76392
G1 X110.044 Y194.089 E213.82583
G1 X109.332 Y193.564 E213.86996
G1 X108.572 Y192.623 E213.93031
G1 X107.932 Y191.337 E214.00198
G1 X107.773 Y190.248 E214.05688
G1 X107.753 Y185.398 E214.29885
G1 X105.249 Y185.398 E214.42378
G1 X105.249 Y190.164 E214.66155
G1 X105.018 Y191.508 E214.72959
G1 X104.438 Y192.605 E214.7915
G1 X103.913 Y193.317 E214.83563
G1 X102.972 Y194.077 E214.89598
G1 X101.686 Y194.717 E214.96764
G1 X100.597 Y194.876 E215.02255
G1 X87.234 Y194.9 E215.68923
G1 X85.89 Y194.669 E215.75727
G1 X84.793 Y194.089 E215.81918
G1 X84.081 Y193.564 E215.86331
G1 X83.321 Y192.623 E215.92366
G1 X82.681 Y191.337 E215.99532
G1 X82.522 Y190.248 E216.05023
G1 X82.501 Y184.498 E216.3371
G1 X79.997 Y184.498 E216.46202
G1 X79.997 Y190.164 E216.7447
G1 X79.766 Y191.508 E216.81274
G1 X79.186 Y192.605 E216.87465
G1 X78.661 Y193.317 E216.91878
G1 X77.72 Y194.077 E216.97913
G1 X76.434 Y194.717 E217.05079
G1 X75.345 Y194.876 E217.1057
G1 X68.738 Y194.9 E217.43532
G1 X67.392 Y194.669 E217.50346
G1 X66.295 Y194.089 E217.56537
G1 X65.583 Y193.564 E217.6095
G1 X64.823 Y192.623 E217.66985
G1 X64.183 Y191.337 E217.74151
G1 X64.024 Y190.248 E217.79642
G1 X64 Y73.033 E223.6443
G1 X64.206 Y72.038 E223.69499
G1 X64.719 Y70.835 E223.76024
G1 X65.698 Y69.696 E223.83517
G0 F3600 X65.967 Y69.996
G1 F1800 X66.697 Y69.493 E223.8794
G1 X67.576 Y69.078 E223.92789
G1 X68.904 Y68.847 E223.99514
G1 X70.052 Y68.971 E224.05275
G1 X71.145 Y69.336 E224.11024
G1 X72.055 Y69.98 E224.16586
G1 X76.851 Y75.053 E224.51415
G1 X78.663 Y73.408 E224.63625
G1 X73.528 Y67.976 E225.00918
G1 X72.907 Y66.859 E225.07294
G1 X72.595 Y65.824 E225.12687
G1 X72.578 Y64.776 E225.17916
G1 X72.684 Y63.97 E225.21972
G1 X73.123 Y62.863 E225.27913
G1 X73.953 Y61.78 E225.3472
G1 X74.347 Y61.455 E225.37269
G1 X75.512 Y60.764 E225.44026
G1 X76.757 Y60.5 E225.50376
G1 X181.476 Y60.542 E230.72821
G1 X182.476 Y60.714 E230.77883
G1 X183.518 Y61.265 E230.83764
G1 X184.14 Y61.729 E230.87635
G1 X184.838 Y62.594 E230.93181
G1 X185.43 Y63.783 E230.99807
G1 X185.58 Y64.81 E231.04985
G1 X185.6 Y190.305 E237.31082
G1 X185.315 Y191.511 E237.37265
G1 X184.772 Y192.536 E237.43052
G1 X184.329 Y193.067 E237.46502
G1 X183.511 Y193.735 E237.51771
G1 X182.317 Y194.33 E237.58426
G1 X181.29 Y194.48 E237.63604
G1 X175.773 Y194.5 E237.91129
G1 X174.527 Y194.286 E237.97436
G1 X173.485 Y193.735 E238.03317
G1 X172.863 Y193.271 E238.07188
G1 X172.165 Y192.406 E238.12734
G1 X171.573 Y191.217 E238.1936
G1 X171.423 Y190.19 E238.24538
G1 X171.406 Y184.998 E238.50442
G1 X168.102 Y184.998 E238.66925
G1 X168.102 Y190.131 E238.92534
G1 X167.888 Y191.376 E238.98836
G1 X167.337 Y192.418 E239.04717
G1 X166.873 Y193.04 E239.08588
G1 X166.008 Y193.738 E239.14134
G1 X164.819 Y194.33 E239.2076
G1 X163.792 Y194.48 E239.25938
G1 X154.77 Y194.5 E239.70949
G1 X153.525 Y194.286 E239.77252
G1 X152.483 Y193.735 E239.83132
G1 X151.861 Y193.271 E239.87004
G1 X151.163 Y192.406 E239.92549
G1 X150.571 Y191.217 E239.99176
G1 X150.421 Y190.19 E240.04354
G1 X150.404 Y184.998 E240.30257
G1 X147.101 Y184.998 E240.46736
G1 X147.101 Y190.131 E240.72344
G1 X146.887 Y191.376 E240.78647
G1 X146.336 Y192.418 E240.84527
G1 X145.872 Y193.04 E240.88399
G1 X145.007 Y193.738 E240.93944
G1 X143.818 Y194.33 E241.00571
G1 X142.791 Y194.48 E241.05749
G1 X133.019 Y194.5 E241.54502
G1 X131.774 Y194.286 E241.60804
G1 X130.732 Y193.735 E241.66685
G1 X130.11 Y193.271 E241.70556
G1 X129.412 Y192.406 E241.76101
G1 X128.82 Y191.217 E241.82728
G1 X128.67 Y190.19 E241.87906
G1 X128.653 Y184.998 E242.13809
G1 X125.35 Y184.998 E242.30288
G1 X125.35 Y190.131 E242.55897
G1 X125.136 Y191.376 E242.62199
G1 X124.585 Y192.418 E242.6808
G1 X124.121 Y193.04 E242.71951
G1 X123.256 Y193.738 E242.77496
G1 X122.067 Y194.33 E242.84123
G1 X121.04 Y194.48 E242.89301
G1 X112.518 Y194.5 E243.31818
G1 X111.273 Y194.286 E243.3812
G1 X110.231 Y193.735 E243.44001
G1 X109.609 Y193.271 E243.47872
G1 X108.911 Y192.406 E243.53417
G1 X108.319 Y191.217 E243.60044
G1 X108.169 Y190.19 E243.65222
G1 X108.152 Y184.998 E243.91125
G1 X104.849 Y184.998 E244.07604
G1 X104.849 Y190.131 E244.33213
G1 X104.635 Y191.376 E244.39515
G1 X104.084 Y192.418 E244.45396
G1 X103.62 Y193.04 E244.49267
G1 X102.755 Y193.738 E244.54812
G1 X101.566 Y194.33 E244.61439
G1 X100.539 Y194.48 E244.66617
G1 X87.267 Y194.5 E245.32831
G1 X86.022 Y194.286 E245.39134
G1 X84.98 Y193.735 E245.45014
G1 X84.358 Y193.271 E245.48886
G1 X83.66 Y192.406 E245.54431
G1 X83.068 Y191.217 E245.61058
G1 X82.918 Y190.19 E245.66236
G1 X82.9 Y184.098 E245.96629
G1 X79.597 Y184.098 E246.13108
G1 X79.597 Y190.131 E246.43207
G1 X79.383 Y191.376 E246.49509
G1 X78.832 Y192.418 E246.5539
G1 X78.368 Y193.04 E246.59261
G1 X77.503 Y193.738 E246.64806
G1 X76.314 Y194.33 E246.71433
G1 X75.287 Y194.48 E246.76611
G1 X68.77 Y194.5 E247.09125
G1 X67.524 Y194.286 E247.15432
G1 X66.482 Y193.735 E247.21313
G1 X65.86 Y193.271 E247.25184
G1 X65.162 Y192.406 E247.30729
G1 X64.57 Y191.217 E247.37356
G1 X64.42 Y190.19 E247.42534
G1 X64.4 Y73.075 E253.26823
G1 X64.59 Y72.157 E253.315
G1 X65.063 Y71.048 E253.37515
G1 X65.967 Y69.996 E253.44435
G0 F3600 X66.236 Y70.296
G1 F1800 X66.868 Y69.855 E253.4828
G1 X67.7 Y69.462 E253.52871
G1 X68.915 Y69.251 E253.59023
G1 X69.969 Y69.365 E253.64312
G1 X70.963 Y69.697 E253.69541
G1 X71.788 Y70.281 E253.74583
G1 X76.829 Y75.613 E254.11191
G1 X79.234 Y73.429 E254.27399
G1 X73.853 Y67.737 E254.66477
G1 X73.278 Y66.702 E254.72384
G1 X72.994 Y65.761 E254.77288
G1 X72.978 Y64.77 E254.82233
G1 X73.073 Y64.074 E254.85738
G1 X73.475 Y63.062 E254.9117
G1 X74.271 Y62.023 E254.977
G1 X74.551 Y61.799 E254.99489
G1 X75.66 Y61.141 E255.05923
G1 X76.797 Y60.9 E255.11721
G1 X181.408 Y60.936 E260.33627
G1 X182.344 Y61.097 E260.38366
G1 X183.331 Y61.619 E260.43936
G1 X183.861 Y62.02 E260.47252
G1 X184.499 Y62.811 E260.52322
G1 X185.043 Y63.903 E260.58409
G1 X185.184 Y64.868 E260.63274
G1 X185.2 Y190.26 E266.88857
G1 X184.938 Y191.367 E266.94533
G1 X184.438 Y192.312 E266.99867
G1 X184.045 Y192.782 E267.02923
G1 X183.291 Y193.398 E267.07781
G1 X182.197 Y193.943 E267.13878
G1 X181.232 Y194.084 E267.18744
G1 X175.805 Y194.1 E267.45819
G1 X174.659 Y193.903 E267.51621
G1 X173.672 Y193.381 E267.57191
G1 X173.142 Y192.98 E267.60507
G1 X172.504 Y192.189 E267.65577
G1 X171.96 Y191.097 E267.71664
G1 X171.819 Y190.132 E267.76529
G1 X171.805 Y184.598 E268.04138
G1 X167.702 Y184.598 E268.24608
G1 X167.702 Y190.098 E268.52048
G1 X167.505 Y191.244 E268.57849
G1 X166.983 Y192.231 E268.6342
G1 X166.582 Y192.761 E268.66735
G1 X165.791 Y193.399 E268.71805
G1 X164.699 Y193.943 E268.77892
G1 X163.734 Y194.084 E268.82757
G1 X154.803 Y194.1 E269.27314
G1 X153.657 Y193.903 E269.33116
G1 X152.67 Y193.381 E269.38686
G1 X152.14 Y192.98 E269.42002
G1 X151.502 Y192.189 E269.47072
G1 X150.958 Y191.097 E269.53159
G1 X150.817 Y190.132 E269.58024
G1 X150.803 Y184.598 E269.85633
G1 X146.701 Y184.598 E270.06098
G1 X146.701 Y190.098 E270.33538
G1 X146.504 Y191.244 E270.39339
G1 X145.982 Y192.231 E270.4491
G1 X145.581 Y192.761 E270.48225
G1 X144.79 Y193.399 E270.53295
G1 X143.698 Y193.943 E270.59382
G1 X142.733 Y194.084 E270.64247
G1 X133.052 Y194.1 E271.12546
G1 X131.906 Y193.903 E271.18348
G1 X130.919 Y193.381 E271.23918
G1 X130.389 Y192.98 E271.27234
G1 X129.751 Y192.189 E271.32304
G1 X129.207 Y191.097 E271.3839
G1 X129.066 Y190.132 E271.43256
G1 X129.052 Y184.598 E271.70865
G1 X124.95 Y184.598 E271.9133
G1 X124.95 Y190.098 E272.1877
G1 X124.753 Y191.244 E272.24571
G1 X124.231 Y192.231 E272.30141
G1 X123.83 Y192.761 E272.33457
G1 X123.039 Y193.399 E272.38527
G1 X121.947 Y193.943 E272.44614
G1 X120.982 Y194.084 E272.49479
G1 X112.551 Y194.1 E272.91542
G1 X111.405 Y193.903 E272.97343
G1 X110.418 Y193.381 E273.02913
G1 X109.888 Y192.98 E273.06229
G1 X109.25 Y192.189 E273.11299
G1 X108.706 Y191.097 E273.17386
G1 X108.565 Y190.132 E273.22251
G1 X108.551 Y184.598 E273.49861
G1 X104.449 Y184.598 E273.70326
G1 X104.449 Y190.098 E273.97765
G1 X104.252 Y191.244 E274.03567
G1 X103.73 Y192.231 E274.09137
G1 X103.329 Y192.761 E274.12453
G1 X102.538 Y193.399 E274.17523
G1 X101.446 Y193.943 E274.23609
G1 X100.481 Y194.084 E274.28475
G1 X87.3 Y194.1 E274.94235
G1 X86.154 Y193.903 E275.00036
G1 X85.167 Y193.381 E275.05607
G1 X84.637 Y192.98 E275.08923
G1 X83.999 Y192.189 E275.13993
G1 X83.455 Y191.097 E275.20079
G1 X83.314 Y190.132 E275.24945
G1 X83.299 Y183.698 E275.57044
G1 X79.197 Y183.698 E275.77509
G1 X79.197 Y190.098 E276.09439
G1 X79 Y191.244 E276.1524
G1 X78.478 Y192.231 E276.20811
G1 X78.077 Y192.761 E276.24126
G1 X77.286 Y193.399 E276.29196
G1 X76.194 Y193.943 E276.35283
G1 X75.229 Y194.084 E276.40148
G1 X68.802 Y194.1 E276.72213
G1 X67.656 Y193.903 E276.78014
G1 X66.669 Y193.381 E276.83585
G1 X66.139 Y192.98 E276.869
G1 X65.501 Y192.189 E276.9197
G1 X64.957 Y191.097 E276.98057
G1 X64.816 Y190.132 E277.02922
G1 X64.8 Y73.117 E282.86713
G1 X64.974 Y72.276 E282.90997
G1 X65.407 Y71.261 E282.96503
G1 X66.236 Y70.296 E283.0285
G0 F3600 X66.507 Y70.594
G1 F1800 X67.039 Y70.217 E283.06103
G1 X67.823 Y69.847 E283.10428
G1 X68.927 Y69.655 E283.16018
G1 X69.886 Y69.759 E283.20831
G1 X70.781 Y70.058 E283.25539
G1 X71.521 Y70.582 E283.30062
G1 X76.807 Y76.173 E283.68449
G1 X79.805 Y73.45 E283.88655
G1 X74.178 Y67.498 E284.29519
G1 X73.649 Y66.545 E284.34957
G1 X73.393 Y65.698 E284.39371
G1 X73.378 Y64.764 E284.44032
G1 X73.463 Y64.178 E284.46986
G1 X73.828 Y63.258 E284.51924
G1 X74.558 Y62.306 E284.57909
G1 X74.755 Y62.143 E284.59184
G1 X75.808 Y61.518 E284.65294
G1 X76.837 Y61.3 E284.70541
G1 X181.34 Y61.33 E289.91909
G1 X182.212 Y61.48 E289.96323
G1 X183.144 Y61.973 E290.01583
G1 X183.578 Y62.306 E290.04313
G1 X184.162 Y63.031 E290.08957
G1 X184.656 Y64.023 E290.14486
G1 X184.788 Y64.926 E290.19039
G1 X184.8 Y190.214 E296.44103
G1 X184.561 Y191.223 E296.49276
G1 X184.102 Y192.09 E296.54171
G1 X183.764 Y192.495 E296.56803
G1 X183.071 Y193.061 E296.61267
G1 X182.077 Y193.556 E296.66806
G1 X181.174 Y193.688 E296.71359
G1 X175.838 Y193.7 E296.97981
G1 X174.791 Y193.52 E297.03281
G1 X173.859 Y193.027 E297.08541
G1 X173.425 Y192.694 E297.1127
G1 X172.841 Y191.969 E297.15915
G1 X172.347 Y190.977 E297.21444
G1 X172.215 Y190.074 E297.25997
G1 X172.204 Y184.198 E297.55312
G1 X167.302 Y184.198 E297.79769
G1 X167.302 Y190.065 E298.09039
G1 X167.122 Y191.112 E298.14339
G1 X166.629 Y192.044 E298.19599
G1 X166.296 Y192.478 E298.22329
G1 X165.571 Y193.062 E298.26973
G1 X164.579 Y193.556 E298.32502
G1 X163.676 Y193.688 E298.37055
G1 X154.836 Y193.7 E298.81158
G1 X153.789 Y193.52 E298.86458
G1 X152.857 Y193.027 E298.91718
G1 X152.423 Y192.694 E298.94447
G1 X151.839 Y191.969 E298.99092
G1 X151.345 Y190.977 E299.04621
G1 X151.213 Y190.074 E299.09174
G1 X151.202 Y184.198 E299.38489
G1 X146.301 Y184.198 E299.6294
G1 X146.301 Y190.065 E299.92211
G1 X146.121 Y191.112 E299.97511
G1 X145.628 Y192.044 E300.02771
G1 X145.295 Y192.478 E300.05501
G1 X144.57 Y193.062 E300.10145
G1 X143.578 Y193.556 E300.15674
G1 X142.675 Y193.688 E300.20227
G1 X133.085 Y193.7 E300.68072
G1 X132.038 Y193.52 E300.73372
G1 X131.106 Y193.027 E300.78632
G1 X130.672 Y192.694 E300.81361
G1 X130.088 Y191.969 E300.86006
G1 X129.594 Y190.977 E300.91535
G1 X129.462 Y190.074 E300.96088
G1 X129.451 Y184.198 E301.25403
G1 X124.55 Y184.198 E301.49854
G1 X124.55 Y190.065 E301.79125
G1 X124.37 Y191.112 E301.84425
G1 X123.877 Y192.044 E301.89685
G1 X123.544 Y192.478 E301.92414
G1 X122.819 Y193.062 E301.97059
G1 X121.827 Y193.556 E302.02588
G1 X120.924 Y193.688 E302.07141
G1 X112.584 Y193.7 E302.48749
G1 X111.537 Y193.52 E302.54049
G1 X110.605 Y193.027 E302.5931
G1 X110.171 Y192.694 E302.62039
G1 X109.587 Y191.969 E302.66683
G1 X109.093 Y190.977 E302.72212
G1 X108.961 Y190.074 E302.76765
G1 X108.95 Y184.198 E303.06081
G1 X104.049 Y184.198 E303.30532
G1 X104.049 Y190.065 E303.59802
G1 X103.869 Y191.112 E303.65102
G1 X103.376 Y192.044 E303.70363
G1 X103.043 Y192.478 E303.73092
G1 X102.318 Y193.062 E303.77736
G1 X101.326 Y193.556 E303.83265
G1 X100.423 Y193.688 E303.87818
G1 X87.333 Y193.7 E304.53124
G1 X86.286 Y193.52 E304.58425
G1 X85.354 Y193.027 E304.63685
G1 X84.92 Y192.694 E304.66414
G1 X84.336 Y191.969 E304.71059
G1 X83.842 Y190.977 E304.76587
G1 X83.71 Y190.074 E304.8114
G1 X83.698 Y183.298 E305.14946
G1 X78.797 Y183.298 E305.39397
G1 X78.797 Y190.065 E305.73158
G1 X78.617 Y191.112 E305.78458
G1 X78.124 Y192.044 E305.83718
G1 X77.791 Y192.478 E305.86447
G1 X77.066 Y193.062 E305.91092
G1 X76.074 Y193.556 E305.96621
G1 X75.171 Y193.688 E306.01174
G1 X68.835 Y193.7 E306.32784
G1 X67.788 Y193.52 E306.38084
G1 X66.856 Y193.027 E306.43345
G1 X66.422 Y192.694 E306.46074
G1 X65.838 Y191.969 E306.50718
G1 X65.344 Y190.977 E306.56247
G1 X65.212 Y190.074 E306.608
G1 X65.2 Y73.159 E312.44091
G1 X65.358 Y72.395 E312.47984
G1 X65.751 Y71.474 E312.52979
G1 X66.507 Y70.594 E312.58767
G0 F3600 X66.777 Y70.893
G1 F1800 X67.242 Y70.564 E312.61609
G1 X67.947 Y70.231 E312.65499
G1 X68.938 Y70.059 E312.70517
G1 X69.803 Y70.153 E312.74858
G1 X70.599 Y70.419 E312.79045
G1 X71.254 Y70.883 E312.8305
G1 X76.785 Y76.733 E313.23215
G1 X80.376 Y73.472 E313.47415
G1 X74.503 Y67.259 E313.90069
G1 X74.02 Y66.388 E313.95038
G1 X73.792 Y65.635 E313.98963
G1 X73.778 Y64.758 E314.03339
G1 X73.851 Y64.285 E314.05727
G1 X74.181 Y63.454 E314.10187
G1 X74.846 Y62.587 E314.15639
G1 X74.959 Y62.487 E314.16392
G1 X75.956 Y61.895 E314.22176
G1 X76.877 Y61.7 E314.26873
G1 X181.272 Y61.724 E319.47702
G1 X182.08 Y61.863 E319.51792
G1 X182.957 Y62.327 E319.56742
G1 X183.266 Y62.557 E319.58664
G1 X183.825 Y63.251 E319.6311
G1 X184.269 Y64.143 E319.68081
G1 X184.392 Y64.984 E319.72321
G1 X184.4 Y190.168 E325.96867
G1 X184.184 Y191.079 E326.01538
G1 X183.748 Y191.903 E326.06189
G1 X183.511 Y192.185 E326.08027
G1 X182.851 Y192.724 E326.12278
G1 X181.957 Y193.169 E326.1726
G1 X181.116 Y193.292 E326.21501
G1 X175.871 Y193.3 E326.47668
G1 X174.923 Y193.137 E326.52467
G1 X174.046 Y192.673 E326.57417
G1 X173.737 Y192.443 E326.59339
G1 X173.178 Y191.749 E326.63785
G1 X172.734 Y190.857 E326.68756
G1 X172.611 Y190.016 E326.72996
G1 X172.603 Y183.798 E327.04018
G1 X166.902 Y183.798 E327.3246
G1 X166.902 Y190.032 E327.63562
G1 X166.739 Y190.98 E327.68361
G1 X166.275 Y191.857 E327.73311
G1 X166.045 Y192.166 E327.75233
G1 X165.351 Y192.725 E327.79678
G1 X164.459 Y193.169 E327.84649
G1 X163.618 Y193.292 E327.8889
G1 X154.869 Y193.3 E328.32539
G1 X153.921 Y193.137 E328.37338
G1 X153.044 Y192.673 E328.42288
G1 X152.735 Y192.443 E328.4421
G1 X152.176 Y191.749 E328.48656
G1 X151.732 Y190.857 E328.53627
G1 X151.609 Y190.016 E328.57867
G1 X151.601 Y183.798 E328.88889
G1 X145.901 Y183.798 E329.17326
G1 X145.901 Y190.032 E329.48428
G1 X145.738 Y190.98 E329.53227
G1 X145.274 Y191.857 E329.58177
G1 X145.044 Y192.166 E329.60098
G1 X144.35 Y192.725 E329.64544
G1 X143.458 Y193.169 E329.69515
G1 X142.617 Y193.292 E329.73756
G1 X133.118 Y193.3 E330.21146
G1 X132.17 Y193.137 E330.25945
G1 X131.293 Y192.673 E330.30896
G1 X130.984 Y192.443 E330.32817
G1 X130.425 Y191.749 E330.37263
G1 X129.981 Y190.857 E330.42234
G1 X129.858 Y190.016 E330.46475
G1 X129.85 Y183.798 E330.77496
G1 X124.15 Y183.798 E331.05934
G1 X124.15 Y190.032 E331.37035
G1 X123.987 Y190.98 E331.41834
G1 X123.523 Y191.857 E331.46784
G1 X123.293 Y192.166 E331.48706
G1 X122.599 Y192.725 E331.53152
G1 X121.707 Y193.169 E331.58123
G1 X120.866 Y193.292 E331.62363
G1 X112.617 Y193.3 E332.03518
G1 X111.669 Y193.137 E332.08317
G1 X110.792 Y192.673 E332.13267
G1 X110.483 Y192.443 E332.15189
G1 X109.924 Y191.749 E332.19635
G1 X109.48 Y190.857 E332.24606
G1 X109.357 Y190.016 E332.28846
G1 X109.349 Y183.798 E332.59868
G1 X103.649 Y183.798 E332.88305
G1 X103.649 Y190.032 E333.19407
G1 X103.486 Y190.98 E333.24206
G1 X103.022 Y191.857 E333.29156
G1 X102.792 Y192.166 E333.31077
G1 X102.098 Y192.725 E333.35523
G1 X101.206 Y193.169 E333.40494
G1 X100.365 Y193.292 E333.44735
G1 X87.366 Y193.3 E334.09587
G1 X86.418 Y193.137 E334.14386
G1 X85.541 Y192.673 E334.19336
G1 X85.232 Y192.443 E334.21258
G1 X84.673 Y191.749 E334.25704
G1 X84.229 Y190.857 E334.30675
G1 X84.106 Y190.016 E334.34915
G1 X84.098 Y182.898 E334.70427
G1 X78.397 Y182.898 E334.98869
G1 X78.397 Y190.032 E335.34461
G1 X78.234 Y190.98 E335.3926
G1 X77.77 Y191.857 E335.4421
G1 X77.54 Y192.166 E335.46132
G1 X76.846 Y192.725 E335.50578
G1 X75.954 Y193.169 E335.55549
G1 X75.113 Y193.292 E335.59789
G1 X68.868 Y193.3 E335.90946
G1 X67.92 Y193.137 E335.95745
G1 X67.043 Y192.673 E336.00695
G1 X66.734 Y192.443 E336.02616
G1 X66.175 Y191.749 E336.07062
G1 X65.731 Y190.857 E336.12033
G1 X65.608 Y190.016 E336.16274
G1 X65.6 Y73.201 E341.99066
G1 X65.742 Y72.514 E342.02566
G1 X66.095 Y71.687 E342.07052
G1 X66.777 Y70.893 E342.12274
G0 F3600 X67.047 Y71.192
G1 F1800 X67.413 Y70.926 E342.14531
G1 X68.071 Y70.615 E342.18162
G1 X68.949 Y70.463 E342.22608
G1 X69.72 Y70.547 E342.26477
G1 X70.417 Y70.78 E342.30144
G1 X70.987 Y71.184 E342.33629
G1 X76.763 Y77.293 E342.75573
G1 X80.947 Y73.493 E343.03772
G1 X74.828 Y67.02 E343.48211
G1 X74.391 Y66.231 E343.52711
G1 X74.191 Y65.572 E343.56146
G1 X74.175 Y64.809 E343.59954
G1 X74.223 Y64.433 E343.61845
G1 X74.533 Y63.652 E343.66037
G1 X75.163 Y62.831 E343.712
G1 X76.104 Y62.272 E343.76661
G1 X76.917 Y62.1 E343.80806
G1 X181.204 Y62.118 E349.01096
G1 X181.948 Y62.246 E349.04863
G1 X182.77 Y62.681 E349.09503
G1 X182.987 Y62.848 E349.10869
G1 X183.486 Y63.467 E349.14835
G1 X183.882 Y64.263 E349.19271
G1 X183.996 Y65.042 E349.23199
G1 X184 Y190.122 E355.47225
G1 X183.807 Y190.935 E355.51394
G1 X183.394 Y191.716 E355.55802
G1 X183.213 Y191.918 E355.57155
G1 X182.633 Y192.386 E355.60873
G1 X181.837 Y192.782 E355.65309
G1 X181.058 Y192.896 E355.69237
G1 X175.904 Y192.9 E355.9495
G1 X175.055 Y192.754 E355.99248
G1 X174.233 Y192.319 E356.03888
G1 X174.016 Y192.152 E356.05254
G1 X173.517 Y191.533 E356.09221
G1 X173.121 Y190.737 E356.13656
G1 X173.007 Y189.958 E356.17584
G1 X173.003 Y183.398 E356.50312
G1 X166.502 Y183.398 E356.82746
G1 X166.502 Y189.999 E357.15678
G1 X166.356 Y190.848 E357.19976
G1 X165.921 Y191.67 E357.24616
G1 X165.754 Y191.887 E357.25982
G1 X165.135 Y192.386 E357.29949
G1 X164.339 Y192.782 E357.34384
G1 X163.56 Y192.896 E357.38312
G1 X154.902 Y192.9 E357.81507
G1 X154.053 Y192.754 E357.85805
G1 X153.231 Y192.319 E357.90445
G1 X153.014 Y192.152 E357.91811
G1 X152.515 Y191.533 E357.95777
G1 X152.119 Y190.737 E358.00213
G1 X152.005 Y189.958 E358.04141
G1 X152.001 Y183.398 E358.36869
G1 X145.501 Y183.398 E358.69297
G1 X145.501 Y189.999 E359.0223
G1 X145.355 Y190.848 E359.06528
G1 X144.92 Y191.67 E359.11168
G1 X144.753 Y191.887 E359.12534
G1 X144.134 Y192.386 E359.165
G1 X143.338 Y192.782 E359.20936
G1 X142.559 Y192.896 E359.24864
G1 X133.151 Y192.9 E359.718
G1 X132.302 Y192.754 E359.76098
G1 X131.48 Y192.319 E359.80738
G1 X131.263 Y192.152 E359.82104
G1 X130.764 Y191.533 E359.86071
G1 X130.368 Y190.737 E359.90506
G1 X130.254 Y189.958 E359.94434
G1 X130.25 Y183.398 E360.27162
G1 X123.75 Y183.398 E360.59591
G1 X123.75 Y189.999 E360.92523
G1 X123.604 Y190.848 E360.96821
G1 X123.169 Y191.67 E361.01461
G1 X123.002 Y191.887 E361.02827
G1 X122.383 Y192.386 E361.06794
G1 X121.587 Y192.782 E361.11229
G1 X120.808 Y192.896 E361.15157
G1 X112.65 Y192.9 E361.55858
G1 X111.801 Y192.754 E361.60156
G1 X110.979 Y192.319 E361.64795
G1 X110.762 Y192.152 E361.66161
G1 X110.263 Y191.533 E361.70128
G1 X109.867 Y190.737 E361.74564
G1 X109.753 Y189.958 E361.78492
G1 X109.749 Y183.398 E362.1122
G1 X103.249 Y183.398 E362.43648
G1 X103.249 Y189.999 E362.76581
G1 X103.103 Y190.848 E362.80879
G1 X102.668 Y191.67 E362.85518
G1 X102.501 Y191.887 E362.86884
G1 X101.882 Y192.386 E362.90851
G1 X101.086 Y192.782 E362.95287
G1 X100.307 Y192.896 E362.99215
G1 X87.399 Y192.9 E363.63613
G1 X86.55 Y192.754 E363.67911
G1 X85.728 Y192.319 E363.7255
G1 X85.511 Y192.152 E363.73917
G1 X85.012 Y191.533 E363.77883
G1 X84.616 Y190.737 E363.82319
G1 X84.502 Y189.958 E363.86247
G1 X84.498 Y182.498 E364.23465
G1 X77.997 Y182.498 E364.55898
G1 X77.997 Y189.999 E364.93321
G1 X77.851 Y190.848 E364.97619
G1 X77.416 Y191.67 E365.02259
G1 X77.249 Y191.887 E365.03625
G1 X76.63 Y192.386 E365.07591
G1 X75.834 Y192.782 E365.12027
G1 X75.055 Y192.896 E365.15955
G1 X68.901 Y192.9 E365.46657
G1 X68.052 Y192.754 E365.50955
G1 X67.23 Y192.319 E365.55595
G1 X67.013 Y192.152 E365.56961
G1 X66.514 Y191.533 E365.60928
G1 X66.118 Y190.737 E365.65363
G1 X66.004 Y189.958 E365.69291
G1 X66 Y73.243 E371.51585
G1 X66.126 Y72.633 E371.54692
G1 X66.439 Y71.9 E371.58669
G1 X67.047 Y71.192 E371.63325
G0 F3600 X67.351 Y71.452
G1 F1800 X67.584 Y71.288 E371.64746
G1 X68.195 Y70.999 E371.68118
G1 X68.96 Y70.867 E371.71991
G1 X69.638 Y70.941 E371.75394
G1 X70.232 Y71.139 E371.78518
G1 X70.722 Y71.487 E371.81516
G1 X76.741 Y77.853 E372.25225
G1 X81.518 Y73.515 E372.57417
G1 X75.153 Y66.781 E373.03646
G1 X74.762 Y66.074 E373.07677
G1 X74.59 Y65.508 E373.10628
G1 X74.575 Y64.801 E373.14156
G1 X74.614 Y64.533 E373.15507
G1 X74.884 Y63.851 E373.19167
G1 X75.434 Y63.135 E373.23671
G1 X76.252 Y62.649 E373.28418
G1 X76.957 Y62.5 E373.32013
G1 X181.136 Y62.512 E378.51764
G1 X181.816 Y62.629 E378.55207
G1 X182.583 Y63.035 E378.59536
G1 X182.707 Y63.138 E378.6034
G1 X183.147 Y63.683 E378.63835
G1 X183.495 Y64.383 E378.67735
G1 X183.6 Y65.1 E378.7135
G1 X183.6 Y190.076 E384.94858
G1 X183.43 Y190.794 E384.98539
G1 X183.065 Y191.483 E385.02429
G1 X182.962 Y191.607 E385.03233
G1 X182.417 Y192.047 E385.06728
G1 X181.717 Y192.395 E385.10628
G1 X181 Y192.5 E385.14243
G1 X175.937 Y192.5 E385.39503
G1 X175.187 Y192.371 E385.43299
G1 X174.42 Y191.965 E385.47629
G1 X174.296 Y191.862 E385.48433
G1 X173.856 Y191.317 E385.51928
G1 X173.508 Y190.617 E385.55828
G1 X173.403 Y189.9 E385.59443
G1 X173.403 Y182.998 E385.93877
G1 X166.102 Y182.998 E386.30302
G1 X166.102 Y189.966 E386.65066
G1 X165.973 Y190.716 E386.68862
G1 X165.567 Y191.483 E386.73192
G1 X165.464 Y191.607 E386.73996
G1 X164.919 Y192.047 E386.77491
G1 X164.219 Y192.395 E386.81391
G1 X163.502 Y192.5 E386.85006
G1 X154.935 Y192.5 E387.27747
G1 X154.185 Y192.371 E387.31544
G1 X153.418 Y191.965 E387.35873
G1 X153.294 Y191.862 E387.36678
G1 X152.854 Y191.317 E387.40172
G1 X152.506 Y190.617 E387.44072
G1 X152.401 Y189.9 E387.47688
G1 X152.401 Y182.998 E387.82122
G1 X145.101 Y182.998 E388.18542
G1 X145.101 Y189.966 E388.53305
G1 X144.972 Y190.716 E388.57102
G1 X144.566 Y191.483 E388.61431
G1 X144.463 Y191.607 E388.62236
G1 X143.918 Y192.047 E388.6573
G1 X143.218 Y192.395 E388.6963
G1 X142.501 Y192.5 E388.73246
G1 X133.184 Y192.5 E389.19728
G1 X132.434 Y192.371 E389.23525
G1 X131.667 Y191.965 E389.27855
G1 X131.543 Y191.862 E389.28659
G1 X131.103 Y191.317 E389.32153
G1 X130.755 Y190.617 E389.36053
G1 X130.65 Y189.9 E389.39669
G1 X130.65 Y182.998 E389.74103
G1 X123.35 Y182.998 E390.10523
G1 X123.35 Y189.966 E390.45286
G1 X123.221 Y190.716 E390.49083
G1 X122.815 Y191.483 E390.53413
G1 X122.712 Y191.607 E390.54217
G1 X122.167 Y192.047 E390.57711
G1 X121.467 Y192.395 E390.61611
G1 X120.75 Y192.5 E390.65227
G1 X112.683 Y192.5 E391.05473
G1 X111.933 Y192.371 E391.0927
G1 X111.166 Y191.965 E391.13599
G1 X111.042 Y191.862 E391.14404
G1 X110.602 Y191.317 E391.17898
G1 X110.254 Y190.617 E391.21798
G1 X110.149 Y189.9 E391.25414
G1 X110.149 Y182.998 E391.59848
G1 X102.849 Y182.998 E391.96268
G1 X102.849 Y189.966 E392.31031
G1 X102.72 Y190.716 E392.34828
G1 X102.314 Y191.483 E392.39157
G1 X102.211 Y191.607 E392.39962
G1 X101.666 Y192.047 E392.43456
G1 X100.966 Y192.395 E392.47356
G1 X100.249 Y192.5 E392.50972
G1 X87.432 Y192.5 E393.14916
G1 X86.682 Y192.371 E393.18713
G1 X85.915 Y191.965 E393.23042
G1 X85.791 Y191.862 E393.23846
G1 X85.351 Y191.317 E393.27341
G1 X85.003 Y190.617 E393.31241
G1 X84.898 Y189.9 E393.34856
G1 X84.898 Y182.098 E393.73781
G1 X77.597 Y182.098 E394.10205
G1 X77.597 Y189.966 E394.49459
G1 X77.468 Y190.716 E394.53256
G1 X77.062 Y191.483 E394.57585
G1 X76.959 Y191.607 E394.5839
G1 X76.414 Y192.047 E394.61884
G1 X75.714 Y192.395 E394.65784
G1 X74.997 Y192.5 E394.69399
G1 X68.934 Y192.5 E394.99648
G1 X68.184 Y192.371 E395.03445
G1 X67.417 Y191.965 E395.07774
G1 X67.293 Y191.862 E395.08578
G1 X66.853 Y191.317 E395.12073
G1 X66.505 Y190.617 E395.15973
G1 X66.4 Y189.9 E395.19588
G1 X66.4 Y73.285 E401.01383
G1 X66.51 Y72.752 E401.04098
G1 X66.783 Y72.114 E401.0756
G1 X67.351 Y71.452 E401.11912
G0 F3600 X67.622 Y71.751
G1 F1800 X67.755 Y71.65 E401.12745
G1 X68.319 Y71.383 E401.15858
G1 X68.971 Y71.271 E401.19159
G1 X69.595 Y71.339 E401.22291
G1 X70.049 Y71.499 E401.24692
G1 X70.431 Y71.762 E401.27006
G1 X76.719 Y78.413 E401.7267
G1 X82.089 Y73.536 E402.08861
G1 X75.478 Y66.542 E402.56875
G1 X75.112 Y65.88 E402.60649
G1 X74.989 Y65.445 E402.62904
G1 X74.975 Y64.792 E402.66163
G1 X75.003 Y64.636 E402.66953
G1 X75.235 Y64.05 E402.70098
G1 X75.705 Y63.439 E402.73944
G1 X76.4 Y63.026 E402.77977
G1 X76.997 Y62.9 E402.81021
G1 X181.068 Y62.906 E408.00233
G1 X181.684 Y63.012 E408.03352
G1 X182.396 Y63.389 E408.07371
G1 X182.808 Y63.899 E408.10642
G1 X183.109 Y64.505 E408.14018
G1 X183.2 Y65.1 E408.17021
G1 X183.2 Y190.03 E414.40299
G1 X183.053 Y190.65 E414.43478
G1 X182.711 Y191.296 E414.47125
G1 X182.201 Y191.708 E414.50396
G1 X181.595 Y192.009 E414.53771
G1 X181 Y192.1 E414.56774
G1 X175.97 Y192.1 E414.81869
G1 X175.319 Y191.988 E414.85165
G1 X174.607 Y191.611 E414.89184
G1 X174.195 Y191.101 E414.92455
G1 X173.894 Y190.495 E414.95831
G1 X173.803 Y189.9 E414.98834
G1 X173.803 Y182.598 E415.35264
G1 X165.702 Y182.598 E415.7568
G1 X165.702 Y189.933 E416.12274
G1 X165.59 Y190.584 E416.1557
G1 X165.213 Y191.296 E416.19589
G1 X164.703 Y191.708 E416.2286
G1 X164.097 Y192.009 E416.26236
G1 X163.502 Y192.1 E416.29239
G1 X154.968 Y192.1 E416.71815
G1 X154.317 Y191.988 E416.75111
G1 X153.605 Y191.611 E416.7913
G1 X153.193 Y191.101 E416.82401
G1 X152.892 Y190.495 E416.85777
G1 X152.801 Y189.9 E416.8878
G1 X152.801 Y182.598 E417.2521
G1 X144.701 Y182.598 E417.65621
G1 X144.701 Y189.933 E418.02215
G1 X144.589 Y190.584 E418.05511
G1 X144.212 Y191.296 E418.0953
G1 X143.702 Y191.708 E418.12801
G1 X143.096 Y192.009 E418.16177
G1 X142.501 Y192.1 E418.1918
G1 X133.217 Y192.1 E418.65498
G1 X132.566 Y191.988 E418.68793
G1 X131.854 Y191.611 E418.72813
G1 X131.442 Y191.101 E418.76084
G1 X131.141 Y190.495 E418.79459
G1 X131.05 Y189.9 E418.82462
G1 X131.05 Y182.598 E419.18892
G1 X122.95 Y182.598 E419.59303
G1 X122.95 Y189.933 E419.95898
G1 X122.838 Y190.584 E419.99193
G1 X122.461 Y191.296 E420.03213
G1 X121.951 Y191.708 E420.06484
G1 X121.345 Y192.009 E420.09859
G1 X120.75 Y192.1 E420.12862
G1 X112.716 Y192.1 E420.52944
G1 X112.065 Y191.988 E420.5624
G1 X111.353 Y191.611 E420.60259
G1 X110.941 Y191.101 E420.6353
G1 X110.64 Y190.495 E420.66906
G1 X110.549 Y189.9 E420.69909
G1 X110.549 Y182.598 E421.06339
G1 X102.449 Y182.598 E421.4675
G1 X102.449 Y189.933 E421.83344
G1 X102.337 Y190.584 E421.8664
G1 X101.96 Y191.296 E421.90659
G1 X101.45 Y191.708 E421.9393
G1 X100.844 Y192.009 E421.97306
G1 X100.249 Y192.1 E422.00309
G1 X87.465 Y192.1 E422.64088
G1 X86.814 Y191.988 E422.67384
G1 X86.102 Y191.611 E422.71403
G1 X85.69 Y191.101 E422.74674
G1 X85.389 Y190.495 E422.7805
G1 X85.298 Y189.9 E422.81053
G1 X85.298 Y181.698 E423.21973
G1 X77.197 Y181.698 E423.62389
G1 X77.197 Y189.933 E424.03474
G1 X77.085 Y190.584 E424.06769
G1 X76.708 Y191.296 E424.10789
G1 X76.198 Y191.708 E424.1406
G1 X75.592 Y192.009 E424.17435
G1 X74.997 Y192.1 E424.20438
G1 X68.967 Y192.1 E424.50522
G1 X68.316 Y191.988 E424.53818
G1 X67.604 Y191.611 E424.57837
G1 X67.192 Y191.101 E424.61108
G1 X66.891 Y190.495 E424.64484
G1 X66.8 Y189.9 E424.67487
G1 X66.8 Y73.327 E430.49072
G1 X66.894 Y72.872 E430.5139
G1 X67.127 Y72.328 E430.54342
G1 X67.622 Y71.751 E430.58135
G0 F3600 X67.926 Y72.011
G1 F1800 X67.471 Y72.542 E430.61624
G1 X67.286 Y72.953 E430.63872
G1 X67.2 Y73.369 E430.65992
G1 X67.2 Y189.9 E436.47367
G1 X67.277 Y190.374 E436.49763
G1 X67.55 Y190.923 E436.52822
G1 X67.862 Y191.295 E436.55244
G1 X68.448 Y191.605 E436.58552
G1 X69 Y191.7 E436.61346
G1 X74.997 Y191.7 E436.91265
G1 X75.471 Y191.623 E436.93661
G1 X76.02 Y191.35 E436.9672
G1 X76.392 Y191.038 E436.99142
G1 X76.702 Y190.452 E437.0245
G1 X76.797 Y189.9 E437.05244
G1 X76.797 Y181.298 E437.4816
G1 X85.698 Y181.298 E437.92567
G1 X85.698 Y189.9 E438.35482
G1 X85.775 Y190.374 E438.37878
G1 X86.048 Y190.923 E438.40937
G1 X86.36 Y191.295 E438.43359
G1 X86.946 Y191.605 E438.46667
G1 X87.498 Y191.7 E438.49461
G1 X100.249 Y191.7 E439.13076
G1 X100.723 Y191.623 E439.15472
G1 X101.272 Y191.35 E439.18531
G1 X101.644 Y191.038 E439.20953
G1 X101.954 Y190.452 E439.24261
G1 X102.049 Y189.9 E439.27055
G1 X102.049 Y182.198 E439.65481
G1 X110.949 Y182.198 E440.09883
G1 X110.949 Y189.9 E440.48308
G1 X111.026 Y190.374 E440.50704
G1 X111.299 Y190.923 E440.53763
G1 X111.611 Y191.295 E440.56185
G1 X112.197 Y191.605 E440.59493
G1 X112.749 Y191.7 E440.62287
G1 X120.75 Y191.7 E441.02204
G1 X121.224 Y191.623 E441.046
G1 X121.773 Y191.35 E441.07659
G1 X122.145 Y191.038 E441.10081
G1 X122.455 Y190.452 E441.13389
G1 X122.55 Y189.9 E441.16183
G1 X122.55 Y182.198 E441.54609
G1 X131.45 Y182.198 E441.99011
G1 X131.45 Y189.9 E442.37436
G1 X131.527 Y190.374 E442.39832
G1 X131.8 Y190.923 E442.42891
G1 X132.112 Y191.295 E442.45313
G1 X132.698 Y191.605 E442.48621
G1 X133.25 Y191.7 E442.51415
G1 X142.501 Y191.7 E442.97569
G1 X142.975 Y191.623 E442.99964
G1 X143.524 Y191.35 E443.03023
G1 X143.896 Y191.038 E443.05446
G1 X144.206 Y190.452 E443.08753
G1 X144.301 Y189.9 E443.11547
G1 X144.301 Y182.198 E443.49973
G1 X153.201 Y182.198 E443.94375
G1 X153.201 Y189.9 E444.32801
G1 X153.278 Y190.374 E444.35196
G1 X153.551 Y190.923 E444.38255
G1 X153.863 Y191.295 E444.40678
G1 X154.449 Y191.605 E444.43985
G1 X155.001 Y191.7 E444.46779
G1 X163.502 Y191.7 E444.89191
G1 X163.976 Y191.623 E444.91587
G1 X164.525 Y191.35 E444.94646
G1 X164.897 Y191.038 E444.97068
G1 X165.207 Y190.452 E445.00376
G1 X165.302 Y189.9 E445.0317
G1 X165.302 Y182.198 E445.41595
G1 X174.203 Y182.198 E445.86003
G1 X174.203 Y189.9 E446.24428
G1 X174.28 Y190.374 E446.26824
G1 X174.553 Y190.923 E446.29883
G1 X174.865 Y191.295 E446.32305
G1 X175.451 Y191.605 E446.35613
G1 X176.003 Y191.7 E446.38407
G1 X181 Y191.7 E446.63337
G1 X181.474 Y191.623 E446.65733
G1 X182.023 Y191.35 E446.68792
G1 X182.395 Y191.038 E446.71214
G1 X182.676 Y190.506 E446.74216
G1 X182.8 Y189.984 E446.76892
G1 X182.8 Y65.1 E452.99941
G1 X182.723 Y64.626 E453.02337
G1 X182.45 Y64.077 E453.05396
G1 X182.138 Y63.705 E453.07818
G1 X181.552 Y63.395 E453.11126
G1 X181 Y63.3 E453.1392
G1 X76.997 Y63.3 E458.32793
G1 X76.548 Y63.404 E458.35093
G1 X75.975 Y63.745 E458.38419
G1 X75.586 Y64.25 E458.41599
G1 X75.375 Y64.783 E458.44459
G1 X75.389 Y65.436 E458.47718
G1 X75.482 Y65.723 E458.49223
G1 X75.802 Y66.302 E458.52524
G1 X82.66 Y73.557 E459.02331
G1 X76.697 Y78.973 E459.4252
G1 X70.14 Y72.037 E459.90139
G1 X69.83 Y71.834 E459.91987
G1 X69.473 Y71.72 E459.93857
G1 X68.984 Y71.674 E459.96307
G1 X68.439 Y71.768 E459.99066
G1 X67.926 Y72.011 E460.01898
G0 F3600 X68.174 Y72.336
G1 F1800 X68.507 Y72.162 E460.03773
G1 X69.052 Y72.068 E460.06532
G1 X69.42 Y72.117 E460.08384
G1 X69.701 Y72.213 E460.09866
G1 X69.849 Y72.312 E460.10754
G1 X76.675 Y79.533 E460.60328
G1 X83.231 Y73.579 E461.04512
G1 X76.126 Y66.062 E461.56115
G1 X75.832 Y65.53 E461.59148
G1 X75.788 Y65.372 E461.59966
G1 X75.777 Y64.853 E461.62556
G1 X75.903 Y64.494 E461.64454
G1 X76.245 Y64.05 E461.6725
G1 X76.649 Y63.791 E461.69644
G1 X76.997 Y63.7 E461.71439
G1 X181 Y63.7 E466.90312
G1 X181.419 Y63.778 E466.92438
G1 X181.883 Y64.023 E466.95056
G1 X182.092 Y64.255 E466.96614
G1 X182.338 Y64.749 E466.99367
G1 X182.4 Y65.1 E467.01145
G1 X182.4 Y189.942 E473.23985
G1 X182.322 Y190.319 E473.25905
G1 X182.077 Y190.783 E473.28523
G1 X181.845 Y190.992 E473.30081
G1 X181.351 Y191.238 E473.32834
G1 X181 Y191.3 E473.34613
G1 X176.003 Y191.3 E473.59543
G1 X175.584 Y191.222 E473.61669
G1 X175.12 Y190.977 E473.64287
G1 X174.911 Y190.745 E473.65845
G1 X174.665 Y190.251 E473.68598
G1 X174.603 Y189.9 E473.70376
G1 X174.603 Y181.798 E474.10797
G1 X164.902 Y181.798 E474.59196
G1 X164.902 Y189.9 E474.99617
G1 X164.824 Y190.319 E475.01743
G1 X164.579 Y190.783 E475.04361
G1 X164.347 Y190.992 E475.05919
G1 X163.853 Y191.238 E475.08672
G1 X163.502 Y191.3 E475.1045
G1 X155.001 Y191.3 E475.52862
G1 X154.582 Y191.222 E475.54988
G1 X154.118 Y190.977 E475.57606
G1 X153.909 Y190.745 E475.59164
G1 X153.663 Y190.251 E475.61917
G1 X153.601 Y189.9 E475.63695
G1 X153.601 Y181.798 E476.04116
G1 X143.901 Y181.798 E476.5251
G1 X143.901 Y189.9 E476.92931
G1 X143.823 Y190.319 E476.95057
G1 X143.578 Y190.783 E476.97675
G1 X143.346 Y190.992 E476.99233
G1 X142.852 Y191.238 E477.01986
G1 X142.501 Y191.3 E477.03764
G1 X133.25 Y191.3 E477.49918
G1 X132.831 Y191.222 E477.52044
G1 X132.367 Y190.977 E477.54662
G1 X132.158 Y190.745 E477.5622
G1 X131.912 Y190.251 E477.58973
G1 X131.85 Y189.9 E477.60751
G1 X131.85 Y181.798 E478.01172
G1 X122.15 Y181.798 E478.49566
G1 X122.15 Y189.9 E478.89987
G1 X122.072 Y190.319 E478.92113
G1 X121.827 Y190.783 E478.94731
G1 X121.595 Y190.992 E478.96289
G1 X121.101 Y191.238 E478.99042
G1 X120.75 Y191.3 E479.0082
G1 X112.749 Y191.3 E479.40737
G1 X112.33 Y191.222 E479.42864
G1 X111.866 Y190.977 E479.45482
G1 X111.657 Y190.745 E479.47039
G1 X111.411 Y190.251 E479.49793
G1 X111.349 Y189.9 E479.51571
G1 X111.349 Y181.798 E479.91992
G1 X101.649 Y181.798 E480.40385
G1 X101.649 Y189.9 E480.80806
G1 X101.571 Y190.319 E480.82933
G1 X101.326 Y190.783 E480.85551
G1 X101.094 Y190.992 E480.87108
G1 X100.6 Y191.238 E480.89862
G1 X100.249 Y191.3 E480.9164
G1 X87.498 Y191.3 E481.55255
G1 X87.079 Y191.222 E481.57381
G1 X86.615 Y190.977 E481.59999
G1 X86.406 Y190.745 E481.61557
G1 X86.16 Y190.251 E481.6431
G1 X86.098 Y189.9 E481.66088
G1 X86.098 Y180.898 E482.11
G1 X76.397 Y180.898 E482.59398
G1 X76.397 Y189.9 E483.04309
G1 X76.319 Y190.319 E483.06436
G1 X76.074 Y190.783 E483.09053
G1 X75.842 Y190.992 E483.10611
G1 X75.348 Y191.238 E483.13364
G1 X74.997 Y191.3 E483.15143
G1 X69 Y191.3 E483.45062
G1 X68.581 Y191.222 E483.47188
G1 X68.117 Y190.977 E483.49806
G1 X67.908 Y190.745 E483.51364
G1 X67.662 Y190.251 E483.54117
G1 X67.6 Y189.9 E483.55895
G1 X67.6 Y73.411 E489.37061
G1 X67.678 Y73.034 E489.38982
G1 X67.775 Y72.802 E489.40237
G1 X68.174 Y72.336 E489.43297
G0 F3600 X68.377 Y72.68
G1 F1800 X68.137 Y72.972 E489.45183
G1 X68.07 Y73.115 E489.45971
G1 X68 Y73.453 E489.47693
G1 X68 Y189.9 E495.28649
G1 X68.054 Y190.173 E495.30038
G1 X68.26 Y190.555 E495.32203
G1 X68.399 Y190.693 E495.3318
G1 X68.662 Y190.83 E495.3466
G1 X69 Y190.9 E495.36382
G1 X74.997 Y190.9 E495.66301
G1 X75.27 Y190.846 E495.67689
G1 X75.652 Y190.64 E495.69854
G1 X75.79 Y190.501 E495.70832
G1 X75.927 Y190.238 E495.72311
G1 X75.997 Y189.9 E495.74033
G1 X75.997 Y180.498 E496.2094
G1 X86.498 Y180.498 E496.7333
G1 X86.498 Y189.9 E497.20236
G1 X86.552 Y190.173 E497.21625
G1 X86.758 Y190.555 E497.2379
G1 X86.897 Y190.693 E497.24767
G1 X87.16 Y190.83 E497.26247
G1 X87.498 Y190.9 E497.27969
G1 X100.249 Y190.9 E497.91584
G1 X100.522 Y190.846 E497.92972
G1 X100.904 Y190.64 E497.95137
G1 X101.042 Y190.501 E497.96115
G1 X101.179 Y190.238 E497.97594
G1 X101.249 Y189.9 E497.99316
G1 X101.249 Y181.398 E498.41733
G1 X111.749 Y181.398 E498.94118
G1 X111.749 Y189.9 E499.36534
G1 X111.803 Y190.173 E499.37923
G1 X112.009 Y190.555 E499.40088
G1 X112.148 Y190.693 E499.41065
G1 X112.411 Y190.83 E499.42545
G1 X112.749 Y190.9 E499.44267
G1 X120.75 Y190.9 E499.84184
G1 X121.023 Y190.846 E499.85572
G1 X121.405 Y190.64 E499.87737
G1 X121.543 Y190.501 E499.88715
G1 X121.68 Y190.238 E499.90194
G1 X121.75 Y189.9 E499.91916
G1 X121.75 Y181.398 E500.34333
G1 X132.25 Y181.398 E500.86718
G1 X132.25 Y189.9 E501.29134
G1 X132.304 Y190.173 E501.30523
G1 X132.51 Y190.555 E501.32688
G1 X132.649 Y190.693 E501.33665
G1 X132.912 Y190.83 E501.35144
G1 X133.25 Y190.9 E501.36867
G1 X142.501 Y190.9 E501.8302
G1 X142.774 Y190.846 E501.84408
G1 X143.156 Y190.64 E501.86574
G1 X143.294 Y190.501 E501.87551
G1 X143.431 Y190.238 E501.8903
G1 X143.501 Y189.9 E501.90752
G1 X143.501 Y181.398 E502.33169
G1 X154.001 Y181.398 E502.85554
G1 X154.001 Y189.9 E503.2797
G1 X154.055 Y190.173 E503.29359
G1 X154.261 Y190.555 E503.31524
G1 X154.4 Y190.693 E503.32501
G1 X154.663 Y190.83 E503.33981
G1 X155.001 Y190.9 E503.35703
G1 X163.502 Y190.9 E503.78114
G1 X163.775 Y190.846 E503.79503
G1 X164.157 Y190.64 E503.81668
G1 X164.295 Y190.501 E503.82645
G1 X164.432 Y190.238 E503.84125
G1 X164.502 Y189.9 E503.85847
G1 X164.502 Y181.398 E504.28263
G1 X175.003 Y181.398 E504.80653
G1 X175.003 Y189.9 E505.2307
G1 X175.057 Y190.173 E505.24458
G1 X175.263 Y190.555 E505.26623
G1 X175.402 Y190.693 E505.27601
G1 X175.665 Y190.83 E505.2908
G1 X176.003 Y190.9 E505.30802
G1 X181 Y190.9 E505.55732
G1 X181.273 Y190.846 E505.57121
G1 X181.655 Y190.64 E505.59286
G1 X181.793 Y190.501 E505.60263
G1 X181.93 Y190.238 E505.61743
G1 X182 Y189.9 E505.63465
G1 X182 Y65.1 E511.86094
G1 X181.946 Y64.827 E511.87483
G1 X181.74 Y64.445 E511.89648
G1 X181.601 Y64.307 E511.90625
G1 X181.338 Y64.17 E511.92105
G1 X181 Y64.1 E511.93827
G1 X76.997 Y64.1 E517.127
G1 X76.769 Y64.172 E517.13893
G1 X76.473 Y64.378 E517.15692
G1 X76.23 Y64.724 E517.17801
G1 X76.161 Y64.964 E517.19047
G1 X76.187 Y65.345 E517.20952
G1 X76.417 Y65.787 E517.23438
G1 X83.802 Y73.601 E517.77078
G1 X76.653 Y80.093 E518.25256
G1 X69.558 Y72.587 E518.76786
G1 X69.367 Y72.514 E518.77806
G1 X68.999 Y72.465 E518.79658
G1 X68.592 Y72.553 E518.81735
G1 X68.377 Y72.68 E518.82981
G0 F3600 X68.608 Y73.007
G1 F1800 X68.459 Y73.209 E518.84233
G1 X68.4 Y73.453 E518.85486
G1 X68.4 Y189.9 E524.66442
G1 X68.443 Y190.08 E524.67366
G1 X68.604 Y190.35 E524.68934
G1 X68.756 Y190.441 E524.69818
G1 X69 Y190.5 E524.7107
G1 X74.997 Y190.5 E525.00989
G1 X75.177 Y190.457 E525.01913
G1 X75.447 Y190.296 E525.03481
G1 X75.538 Y190.144 E525.04365
G1 X75.597 Y189.9 E525.05617
G1 X75.597 Y180.098 E525.5452
G1 X86.898 Y180.098 E526.10901
G1 X86.898 Y189.9 E526.59803
G1 X86.941 Y190.08 E526.60726
G1 X87.102 Y190.35 E526.62295
G1 X87.254 Y190.441 E526.63178
G1 X87.498 Y190.5 E526.64431
G1 X100.249 Y190.5 E527.28046
G1 X100.429 Y190.457 E527.28969
G1 X100.699 Y190.296 E527.30537
G1 X100.79 Y190.144 E527.31421
G1 X100.849 Y189.9 E527.32674
G1 X100.849 Y180.998 E527.77086
G1 X112.149 Y180.998 E528.33462
G1 X112.149 Y189.9 E528.77874
G1 X112.192 Y190.08 E528.78797
G1 X112.353 Y190.35 E528.80366
G1 X112.505 Y190.441 E528.8125
G1 X112.749 Y190.5 E528.82502
G1 X120.75 Y190.5 E529.22419
G1 X120.93 Y190.457 E529.23342
G1 X121.2 Y190.296 E529.24911
G1 X121.291 Y190.144 E529.25795
G1 X121.35 Y189.9 E529.27047
G1 X121.35 Y180.998 E529.71459
G1 X132.65 Y180.998 E530.27835
G1 X132.65 Y189.9 E530.72247
G1 X132.693 Y190.08 E530.73171
G1 X132.854 Y190.35 E530.74739
G1 X133.006 Y190.441 E530.75623
G1 X133.25 Y190.5 E530.76875
G1 X142.501 Y190.5 E531.23029
G1 X142.681 Y190.457 E531.23952
G1 X142.951 Y190.296 E531.2552
G1 X143.042 Y190.144 E531.26404
G1 X143.101 Y189.9 E531.27657
G1 X143.101 Y180.998 E531.72069
G1 X154.401 Y180.998 E532.28445
G1 X154.401 Y189.9 E532.72857
G1 X154.444 Y190.08 E532.7378
G1 X154.605 Y190.35 E532.75349
G1 X154.757 Y190.441 E532.76233
G1 X155.001 Y190.5 E532.77485
G1 X163.502 Y190.5 E533.19897
G1 X163.682 Y190.457 E533.2082
G1 X163.952 Y190.296 E533.22388
G1 X164.043 Y190.144 E533.23272
G1 X164.102 Y189.9 E533.24525
G1 X164.102 Y180.998 E533.68937
G1 X175.403 Y180.998 E534.25318
G1 X175.403 Y189.9 E534.6973
G1 X175.446 Y190.08 E534.70653
G1 X175.607 Y190.35 E534.72222
G1 X175.759 Y190.441 E534.73105
G1 X176.003 Y190.5 E534.74358
G1 X181 Y190.5 E534.99288
G1 X181.18 Y190.457 E535.00211
G1 X181.45 Y190.296 E535.0178
G1 X181.541 Y190.144 E535.02663
G1 X181.6 Y189.9 E535.03916
G1 X181.6 Y65.1 E541.26546
G1 X181.557 Y64.92 E541.27469
G1 X181.396 Y64.65 E541.29037
G1 X181.244 Y64.559 E541.29921
G1 X181 Y64.5 E541.31173
G1 X76.997 Y64.5 E546.50047
G1 X76.701 Y64.706 E546.51846
G1 X76.578 Y64.922 E546.53086
G1 X76.553 Y65.044 E546.53707
G1 X76.584 Y65.296 E546.54974
G1 X76.708 Y65.512 E546.56216
G1 X84.373 Y73.623 E547.11893
G1 X76.631 Y80.653 E547.64065
G1 X69.314 Y72.911 E548.17211
G1 X68.946 Y72.862 E548.19063
G1 X68.71 Y72.935 E548.20296
G1 X68.608 Y73.007 E548.20919
G0 F3600 X68.839 Y73.334
G1 F1800 X68.8 Y73.453 E548.21544
G1 X68.8 Y189.9 E554.025
G1 X68.881 Y190.061 E554.03399
G1 X69 Y190.1 E554.04024
G1 X74.997 Y190.1 E554.33943
G1 X75.158 Y190.019 E554.34842
G1 X75.197 Y189.9 E554.35467
G1 X75.197 Y179.698 E554.86365
G1 X87.298 Y179.698 E555.46737
G1 X87.298 Y189.9 E555.97635
G1 X87.379 Y190.061 E555.98534
G1 X87.498 Y190.1 E555.99159
G1 X100.249 Y190.1 E556.62774
G1 X100.41 Y190.019 E556.63673
G1 X100.449 Y189.9 E556.64298
G1 X100.449 Y180.598 E557.10706
G1 X112.549 Y180.598 E557.71073
G1 X112.549 Y189.9 E558.17481
G1 X112.63 Y190.061 E558.1838
G1 X112.749 Y190.1 E558.19005
G1 X120.75 Y190.1 E558.58922
G1 X120.911 Y190.019 E558.59821
G1 X120.95 Y189.9 E558.60446
G1 X120.95 Y180.598 E559.06854
G1 X133.05 Y180.598 E559.67221
G1 X133.05 Y189.9 E560.13629
G1 X133.131 Y190.061 E560.14528
G1 X133.25 Y190.1 E560.15153
G1 X142.501 Y190.1 E560.61306
G1 X142.662 Y190.019 E560.62205
G1 X142.701 Y189.9 E560.6283
G1 X142.701 Y180.598 E561.09238
G1 X154.801 Y180.598 E561.69605
G1 X154.801 Y189.9 E562.16013
G1 X154.882 Y190.061 E562.16912
G1 X155.001 Y190.1 E562.17537
G1 X163.502 Y190.1 E562.59948
G1 X163.663 Y190.019 E562.60848
G1 X163.702 Y189.9 E562.61472
G1 X163.702 Y180.598 E563.0788
G1 X175.803 Y180.598 E563.68252
G1 X175.803 Y189.9 E564.1466
G1 X175.884 Y190.061 E564.15559
G1 X176.003 Y190.1 E564.16184
G1 X181 Y190.1 E564.41114
G1 X181.161 Y190.019 E564.42013
G1 X181.2 Y189.9 E564.42638
G1 X181.2 Y65.1 E570.65268
G1 X181.119 Y64.939 E570.66167
G1 X181 Y64.9 E570.66792
G1 X77.082 Y64.9 E575.85241
G1 X76.97 Y65.002 E575.85997
G1 X76.945 Y65.124 E575.86618
G1 X76.999 Y65.237 E575.87243
G1 X84.944 Y73.645 E576.44955
G1 X76.609 Y81.213 E577.01123
G1 X69.096 Y73.264 E577.55691
G1 X68.941 Y73.262 E577.56464
G1 X68.839 Y73.334 E577.57087
G1 F1500 E571.07087
;MESH:Cat_Tray.stl
G0 F3600 X68.335 Y73.334
G0 X69.171 Y72.676
G0 X76.631 Y80.579
G0 X76.673 Y81.964
G0 X162.602 Y180.326
G0 X162.902 Y180.326
;TYPE:WALL-INNER
G1 F1500 E577.57087
G1 F1800 X163.014 Y180.048 E577.58582
G1 X163.23 Y179.862 E577.60005
G1 X163.476 Y179.798 E577.61273
G1 X176.082 Y179.798 E578.24164
G1 X176.364 Y179.917 E578.25691
G1 X176.484 Y180.037 E578.26538
G1 X176.571 Y180.203 E578.27473
G1 X176.604 Y180.398 E578.2846
G1 X176.604 Y189.3 E578.72872
G1 X180.4 Y189.3 E578.9181
G1 X180.4 Y65.7 E585.08453
G1 X78.537 Y65.701 E590.1665
G1 X85.711 Y73.29 E590.68751
G1 X85.797 Y73.458 E590.69692
G1 X85.827 Y73.706 E590.70939
G1 X85.789 Y73.873 E590.71793
G1 X85.69 Y74.048 E590.72796
G1 X76.986 Y81.951 E591.3145
G1 X76.805 Y82.056 E591.32494
G1 X76.474 Y82.08 E591.3415
G1 X76.319 Y82.024 E591.34972
G1 X76.161 Y81.905 E591.35959
G1 X69.601 Y74.964 E591.83606
G1 X69.601 Y189.3 E597.54031
G1 X74.397 Y189.3 E597.77958
G1 X74.397 Y179.38 E598.27449
G1 X74.487 Y179.18 E598.28543
G1 X74.692 Y178.981 E598.29969
G1 X74.934 Y178.898 E598.31245
G1 X87.546 Y178.899 E598.94167
G1 X87.756 Y178.955 E598.95251
G1 X87.916 Y179.066 E598.96222
G1 X88.04 Y179.238 E598.9728
G1 X88.094 Y179.424 E598.98247
G1 X88.099 Y189.3 E599.47518
G1 X99.649 Y189.3 E600.05141
G1 X99.654 Y180.313 E600.49978
G1 X99.691 Y180.175 E600.5069
G1 X99.842 Y179.956 E600.52018
G1 X100.025 Y179.84 E600.53099
G1 X100.216 Y179.798 E600.54074
G1 X112.78 Y179.798 E601.16756
G1 X112.967 Y179.838 E601.1771
G1 X113.136 Y179.938 E601.1869
G1 X113.307 Y180.176 E601.20152
G1 X113.35 Y180.398 E601.2128
G1 X113.35 Y189.299 E601.65688
G1 X120.15 Y189.299 E601.99613
G1 X120.15 Y180.318 E602.44419
G1 X120.279 Y180.025 E602.46016
G1 X120.499 Y179.852 E602.47413
G1 X120.72 Y179.798 E602.48548
G1 X133.282 Y179.798 E603.1122
G1 X133.604 Y179.912 E603.12924
G1 X133.745 Y180.058 E603.13937
G1 X133.818 Y180.203 E603.14747
G1 X133.851 Y180.398 E603.15733
G1 X133.851 Y189.299 E603.60141
G1 X141.901 Y189.299 E604.00302
G1 X141.901 Y180.327 E604.45064
G1 X142.006 Y180.058 E604.46504
G1 X142.147 Y179.912 E604.47517
G1 X142.387 Y179.798 E604.48842
G1 X155.058 Y179.8 E605.12058
G1 X155.273 Y179.862 E605.13175
G1 X155.41 Y179.958 E605.14009
G1 X155.567 Y180.195 E605.15428
G1 X155.602 Y180.398 E605.16455
G1 X155.602 Y189.3 E605.60868
G1 X162.902 Y189.3 E605.97287
G1 X162.902 Y180.326 E606.42059
G0 F3600 X162.602 Y180.326
G0 X155.829 Y179.57
G0 X141.673 Y179.57
G0 X142.336 Y180.284
;TYPE:WALL-OUTER
G1 F1800 X142.483 Y180.198 E606.42909
G1 X155.02 Y180.198 E607.05456
G1 X155.116 Y180.233 E607.05966
G1 X155.202 Y180.346 E607.06674
G1 X155.202 Y189.7 E607.53341
G1 X163.302 Y189.7 E607.93753
G1 X163.302 Y180.344 E608.4043
G1 X163.387 Y180.233 E608.41127
G1 X163.485 Y180.198 E608.41646
G1 X176.04 Y180.201 E609.04284
G1 X176.124 Y180.237 E609.0474
G1 X176.204 Y180.348 E609.05422
G1 X176.204 Y189.7 E609.52079
G1 X180.8 Y189.7 E609.75009
G1 X180.8 Y65.3 E615.95643
G1 X77.608 Y65.301 E621.1047
G1 X85.394 Y73.541 E621.67029
G1 X85.429 Y73.672 E621.67705
G1 X85.38 Y73.788 E621.68334
G1 X76.708 Y81.66 E622.26765
G1 X76.58 Y81.692 E622.27423
G1 X76.478 Y81.653 E622.27968
G1 X69.201 Y73.959 E622.80803
G1 X69.201 Y189.7 E628.58237
G1 X74.797 Y189.7 E628.86156
G1 X74.797 Y179.456 E629.37263
G1 X74.914 Y179.3 E629.38236
G1 X87.563 Y179.299 E630.01342
G1 X87.671 Y179.395 E630.02063
G1 X87.697 Y179.473 E630.02473
G1 X87.699 Y189.7 E630.53496
G1 X100.049 Y189.7 E631.1511
G1 X100.05 Y180.369 E631.61663
G1 X100.122 Y180.242 E631.62391
G1 X100.232 Y180.198 E631.62982
G1 X112.817 Y180.209 E632.25769
G1 X112.892 Y180.257 E632.26213
G1 X112.946 Y180.359 E632.26789
G1 X112.95 Y189.699 E632.73387
G1 X120.55 Y189.699 E633.11303
G1 X120.553 Y180.359 E633.57901
G1 X120.643 Y180.228 E633.58694
G1 X120.73 Y180.198 E633.59153
G1 X133.306 Y180.205 E634.21895
G1 X133.451 Y180.35 E634.22918
G1 X133.451 Y189.699 E634.6956
G1 X142.301 Y189.699 E635.13713
G1 X142.303 Y180.364 E635.60285
G1 X142.336 Y180.284 E635.60717
G0 F3600 X142.483 Y180.198
G0 X142.513 Y180.198
G0 X142.513 Y179.498
G0 X155.829 Y179.57
G0 X162.523 Y180.277
;TYPE:SKIN
G1 F1800 X162.522 Y188.92 E636.03837
G1 X155.982 Y188.92 E636.36466
G1 X155.982 Y180.381 E636.79067
G1 X155.918 Y180.048 E636.80759
G1 X155.794 Y179.818 E636.82062
G1 X155.412 Y179.507 E636.8452
G1 X155.08 Y179.421 E636.86231
G1 X142.443 Y179.419 E637.49277
G1 X142.19 Y179.468 E637.50563
G1 X141.909 Y179.616 E637.52147
G1 X141.678 Y179.867 E637.53849
G1 X141.521 Y180.295 E637.56123
G1 X141.521 Y188.919 E637.99149
G1 X134.231 Y188.919 E638.35519
G1 X134.231 Y180.382 E638.7811
G1 X134.165 Y180.05 E638.79799
G1 X133.922 Y179.684 E638.8199
G1 X133.715 Y179.534 E638.83266
G1 X133.351 Y179.424 E638.85163
G1 X120.686 Y179.419 E639.48349
G1 X120.454 Y179.463 E639.49527
G1 X120.173 Y179.604 E639.51095
G1 X119.905 Y179.9 E639.53088
G1 X119.773 Y180.247 E639.5494
G1 X119.77 Y188.919 E639.98205
G1 X113.73 Y188.919 E640.28338
G1 X113.727 Y180.25 E640.71588
G1 X113.594 Y179.897 E640.7347
G1 X113.46 Y179.719 E640.74582
G1 X113.178 Y179.514 E640.76321
G1 X112.931 Y179.436 E640.77613
G1 X100.128 Y179.424 E641.41488
G1 X99.76 Y179.547 E641.43424
G1 X99.476 Y179.794 E641.45301
G1 X99.335 Y180.039 E641.46712
G1 X99.271 Y180.278 E641.47946
G1 X99.269 Y188.92 E641.91061
G1 X88.479 Y188.92 E642.44893
G1 X88.472 Y179.375 E642.92513
G1 X88.342 Y178.996 E642.94512
G1 X88.182 Y178.795 E642.95794
G1 X87.833 Y178.574 E642.97854
G1 X87.553 Y178.519 E642.99278
G1 X74.882 Y178.52 E643.62494
G1 X74.46 Y178.682 E643.64749
G1 X74.149 Y179.005 E643.66986
G1 X74.048 Y179.25 E643.68308
G1 X74.018 Y179.473 E643.69431
G1 X74.017 Y188.92 E644.16562
G1 X69.981 Y188.92 E644.36698
G1 X69.982 Y75.923 E650.00442
G1 X75.908 Y82.188 E650.43466
G1 X76.14 Y82.36 E650.44907
G1 X76.405 Y82.453 E650.46308
G1 X76.795 Y82.453 E650.48253
G1 X77.187 Y82.277 E650.50397
G1 X86.007 Y74.267 E651.09838
G1 X86.161 Y73.964 E651.11534
G1 X86.207 Y73.743 E651.1266
G1 X86.157 Y73.332 E651.14726
G1 X86.004 Y73.047 E651.1634
G1 X79.416 Y66.081 E651.64174
G1 X180.02 Y66.081 E656.66089
G1 X180.02 Y188.92 E662.78935
G1 X176.984 Y188.92 E662.94082
G1 X176.982 Y180.366 E663.36758
G1 X176.918 Y180.047 E663.38381
G1 X176.771 Y179.788 E663.39867
G1 X176.552 Y179.589 E663.41343
G1 X176.142 Y179.421 E663.43554
G1 X163.398 Y179.423 E664.07134
G1 X163.22 Y179.458 E664.08039
G1 X162.932 Y179.6 E664.09641
G1 X162.71 Y179.818 E664.11193
G1 X162.523 Y180.277 E664.13666
G0 F3600 X155.829 Y179.57
G0 X88.326 Y178.67
G0 X74.169 Y178.67
G0 X70.49 Y188.719
G1 F1800 X70.181 Y188.409 E664.1585
G0 F3600 X70.181 Y187.843
G1 F1800 X71.056 Y188.719 E664.22027
G0 F3600 X71.622 Y188.719
G1 F1800 X70.181 Y187.277 E664.32197
G0 F3600 X70.181 Y186.712
G1 F1800 X72.187 Y188.719 E664.46354
G0 F3600 X72.753 Y188.719
G1 F1800 X70.181 Y186.146 E664.64505
G0 F3600 X70.181 Y185.58
G1 F1800 X73.319 Y188.719 E664.86648
G0 F3600 X73.817 Y188.651
G1 F1800 X70.181 Y185.015 E665.12302
G0 F3600 X70.181 Y184.449
G1 F1800 X73.817 Y188.086 E665.3796
G0 F3600 X73.817 Y187.52
G1 F1800 X70.181 Y183.883 E665.63617
G0 F3600 X70.181 Y183.318
G1 F1800 X73.817 Y186.954 E665.89271
G0 F3600 X73.818 Y186.389
G1 F1800 X70.181 Y182.752 E666.14932
G0 F3600 X70.181 Y182.186
G1 F1800 X73.818 Y185.824 E666.40597
G0 F3600 X73.818 Y185.258
G1 F1800 X70.181 Y181.621 E666.66258
G0 F3600 X70.181 Y181.055
G1 F1800 X73.819 Y184.693 E666.91926
G0 F3600 X73.819 Y184.127
G1 F1800 X70.181 Y180.489 E667.17594
G0 F3600 X70.181 Y179.924
G1 F1800 X73.819 Y183.562 E667.43262
G0 F3600 X73.819 Y182.997
G1 F1800 X70.181 Y179.358 E667.68934
G0 F3600 X70.181 Y178.792
G1 F1800 X73.819 Y182.431 E667.94605
G0 F3600 X73.819 Y181.865
G1 F1800 X70.181 Y178.226 E668.20277
G0 F3600 X70.181 Y177.661
G1 F1800 X73.819 Y181.3 E668.45948
G0 F3600 X73.82 Y180.735
G1 F1800 X70.181 Y177.095 E668.71627
G0 F3600 X70.181 Y176.529
G1 F1800 X73.82 Y180.169 E668.97306
G0 F3600 X73.82 Y179.603
G1 F1800 X70.181 Y175.964 E669.22981
G0 F3600 X70.181 Y175.398
G1 F1800 X73.886 Y179.103 E669.49122
G0 F3600 X74.101 Y178.753
G1 F1800 X70.181 Y174.832 E669.76783
G0 F3600 X70.181 Y174.267
G1 F1800 X74.394 Y178.48 E670.06508
G0 F3600 X74.814 Y178.334
G1 F1800 X70.181 Y173.701 E670.39196
G0 F3600 X70.181 Y173.135
G1 F1800 X75.366 Y178.321 E670.75783
G0 F3600 X75.931 Y178.321
G1 F1800 X70.181 Y172.57 E671.16355
G0 F3600 X70.181 Y172.004
G1 F1800 X76.497 Y178.321 E671.60922
G0 F3600 X77.062 Y178.32
G1 F1800 X70.181 Y171.438 E672.09474
G0 F3600 X70.181 Y170.873
G1 F1800 X77.628 Y178.32 E672.62017
G0 F3600 X78.193 Y178.32
G1 F1800 X70.181 Y170.307 E673.1855
G0 F3600 X70.181 Y169.741
G1 F1800 X78.759 Y178.32 E673.79076
G0 F3600 X79.324 Y178.319
G1 F1800 X70.181 Y169.176 E674.43584
G0 F3600 X70.181 Y168.61
G1 F1800 X79.89 Y178.319 E675.12087
G0 F3600 X80.456 Y178.319
G1 F1800 X70.181 Y168.044 E675.84582
G0 F3600 X70.181 Y167.478
G1 F1800 X81.021 Y178.319 E676.61068
G0 F3600 X81.586 Y178.318
G1 F1800 X70.181 Y166.913 E677.41536
G0 F3600 X70.181 Y166.347
G1 F1800 X82.152 Y178.318 E678.25998
G0 F3600 X82.718 Y178.318
G1 F1800 X70.181 Y165.781 E679.14453
G0 F3600 X70.181 Y165.216
G1 F1800 X83.283 Y178.318 E680.06895
G0 F3600 X83.848 Y178.318
G1 F1800 X70.181 Y164.65 E681.03327
G0 F3600 X70.181 Y164.084
G1 F1800 X84.414 Y178.318 E682.03752
G0 F3600 X84.98 Y178.318
G1 F1800 X70.181 Y163.519 E683.08167
G0 F3600 X70.181 Y162.953
G1 F1800 X85.545 Y178.317 E684.16568
G0 F3600 X86.11 Y178.317
G1 F1800 X70.181 Y162.387 E685.28959
G0 F3600 X70.181 Y161.822
G1 F1800 X86.676 Y178.317 E686.4534
G0 F3600 X87.242 Y178.317
G1 F1800 X70.181 Y161.256 E687.65715
G0 F3600 X70.181 Y160.69
G1 F1800 X87.87 Y178.379 E688.9052
G1 X87.94 Y178.449
G0 F3600 X88.586 Y179.096
G1 F1800 X98.209 Y188.719 E689.58416
G0 F3600 X97.643 Y188.719
G1 F1800 X88.672 Y179.747 E690.21715
G0 F3600 X88.672 Y180.313
G1 F1800 X97.077 Y188.719 E690.8102
G0 F3600 X96.512 Y188.719
G1 F1800 X88.673 Y180.88 E691.36328
G0 F3600 X88.674 Y181.446
G1 F1800 X95.946 Y188.719 E691.8764
G0 F3600 X95.38 Y188.719
G1 F1800 X88.674 Y182.012 E692.34958
G0 F3600 X88.674 Y182.578
G1 F1800 X94.815 Y188.719 E692.78286
G0 F3600 X94.249 Y188.719
G1 F1800 X88.674 Y183.144 E693.1762
G0 F3600 X88.675 Y183.71
G1 F1800 X93.683 Y188.719 E693.52958
G0 F3600 X93.118 Y188.719
G1 F1800 X88.675 Y184.276 E693.84306
G0 F3600 X88.676 Y184.842
G1 F1800 X92.552 Y188.719 E694.11657
G0 F3600 X91.986 Y188.719
G1 F1800 X88.676 Y185.408 E694.35014
G0 F3600 X88.676 Y185.974
G1 F1800 X91.421 Y188.719 E694.54382
G0 F3600 X90.855 Y188.719
G1 F1800 X88.676 Y186.54 E694.69756
G0 F3600 X88.677 Y187.106
G1 F1800 X90.289 Y188.719 E694.81133
G0 F3600 X89.724 Y188.719
G1 F1800 X88.677 Y187.672 E694.8852
G0 F3600 X88.678 Y188.238
G1 F1800 X89.158 Y188.719 E694.9191
G0 F3600 X98.775 Y188.719
G1 F1800 X70.181 Y160.125 E696.93656
G0 F3600 X70.181 Y159.559
G1 F1800 X99.069 Y188.447 E698.97477
G0 F3600 X99.069 Y187.881
G1 F1800 X70.181 Y158.993 E701.01297
G0 F3600 X70.181 Y158.427
G1 F1800 X99.069 Y187.316 E703.05121
G0 F3600 X99.069 Y186.75
G1 F1800 X70.181 Y157.862 E705.08941
G0 F3600 X70.181 Y157.296
G1 F1800 X99.069 Y186.184 E707.12762
G0 F3600 X99.069 Y185.619
G1 F1800 X70.181 Y156.73 E709.16586
G0 F3600 X70.181 Y156.165
G1 F1800 X99.069 Y185.053 E711.20406
G0 F3600 X99.069 Y184.487
G1 F1800 X70.181 Y155.599 E713.24227
G0 F3600 X70.181 Y155.033
G1 F1800 X99.069 Y183.922 E715.28051
G0 F3600 X99.069 Y183.356
G1 F1800 X70.181 Y154.468 E717.31871
G0 F3600 X70.181 Y153.902
G1 F1800 X99.069 Y182.79 E719.35692
G0 F3600 X99.069 Y182.224
G1 F1800 X70.181 Y153.336 E721.39512
G0 F3600 X70.181 Y152.771
G1 F1800 X99.069 Y181.659 E723.43332
G0 F3600 X99.069 Y181.093
G1 F1800 X70.181 Y152.205 E725.47153
G0 F3600 X70.181 Y151.639
G1 F1800 X99.069 Y180.527 E727.50973
G0 F3600 X99.132 Y180.025
G1 F1800 X70.181 Y151.074 E729.55238
G0 F3600 X70.181 Y150.508
G1 F1800 X99.332 Y179.66 E731.60918
G0 F3600 X99.639 Y179.401
G1 F1800 X70.181 Y149.942 E733.68763
G0 F3600 X70.181 Y149.377
G1 F1800 X100.043 Y179.239 E735.79456
G0 F3600 X100.59 Y179.221
G1 F1800 X70.181 Y148.811 E737.94011
G0 F3600 X70.181 Y148.245
G1 F1800 X101.157 Y179.221 E740.12564
G0 F3600 X101.723 Y179.222
G1 F1800 X70.181 Y147.679 E742.35113
G0 F3600 X70.181 Y147.114
G1 F1800 X102.289 Y179.222 E744.61652
G0 F3600 X102.855 Y179.223
G1 F1800 X70.181 Y146.548 E746.92189
G0 F3600 X70.181 Y145.982
G1 F1800 X103.422 Y179.223 E749.26722
G0 F3600 X103.988 Y179.224
G1 F1800 X70.181 Y145.417 E751.65249
G0 F3600 X70.181 Y144.851
G1 F1800 X104.554 Y179.224 E754.07769
G0 F3600 X105.12 Y179.225
G1 F1800 X70.181 Y144.285 E756.54286
G0 F3600 X70.181 Y143.72
G1 F1800 X105.687 Y179.226 E759.048
G0 F3600 X106.253 Y179.226
G1 F1800 X70.181 Y143.154 E761.59307
G0 F3600 X70.181 Y142.588
G1 F1800 X106.819 Y179.226 E764.17808
G0 F3600 X107.385 Y179.227
G1 F1800 X70.181 Y142.023 E766.80302
G0 F3600 X70.181 Y141.457
G1 F1800 X107.951 Y179.228 E769.46794
G0 F3600 X108.518 Y179.228
G1 F1800 X70.181 Y140.891 E772.17282
G0 F3600 X70.181 Y140.326
G1 F1800 X109.083 Y179.228 E774.91756
G0 F3600 X109.65 Y179.229
G1 F1800 X70.181 Y139.76 E777.70232
G0 F3600 X70.181 Y139.194
G1 F1800 X110.216 Y179.23 E780.52704
G0 F3600 X110.783 Y179.231
G1 F1800 X70.181 Y138.628 E783.39176
G0 F3600 X70.181 Y138.063
G1 F1800 X111.348 Y179.231 E786.29635
G0 F3600 X111.915 Y179.231
G1 F1800 X70.181 Y137.497 E789.24091
G0 F3600 X70.181 Y136.931
G1 F1800 X112.481 Y179.232 E792.22544
G0 F3600 X113.096 Y179.281
G1 F1800 X70.181 Y136.366 E795.25332
G0 F3600 X70.181 Y135.8
G1 F1800 X119.57 Y185.189 E798.73799
G0 F3600 X119.57 Y184.624
G1 F1800 X70.181 Y135.234 E802.22268
G0 F3600 X70.181 Y134.669
G1 F1800 X119.57 Y184.058 E805.70734
G0 F3600 X119.57 Y183.492
G1 F1800 X70.181 Y134.103 E809.192
G0 F3600 X70.181 Y133.537
G1 F1800 X119.57 Y182.927 E812.6767
G0 F3600 X119.57 Y182.361
G1 F1800 X70.181 Y132.972 E816.16136
G0 F3600 X70.181 Y132.406
G1 F1800 X119.57 Y181.795 E819.64602
G0 F3600 X119.57 Y181.23
G1 F1800 X70.181 Y131.84 E823.13072
G0 F3600 X70.181 Y131.275
G1 F1800 X119.57 Y180.664 E826.61538
G0 F3600 X119.604 Y180.133
G1 F1800 X70.181 Y130.709 E830.10247
G0 F3600 X70.181 Y130.143
G1 F1800 X119.781 Y179.744 E833.60206
G0 F3600 X120.053 Y179.45
G1 F1800 X70.181 Y129.578 E837.12079
G0 F3600 X70.181 Y129.012
G1 F1800 X120.433 Y179.264 E840.66634
G0 F3600 X120.951 Y179.216
G1 F1800 X70.181 Y128.446 E844.24844
G0 F3600 X70.181 Y127.88
G1 F1800 X121.517 Y179.216 E847.87047
G0 F3600 X122.083 Y179.217
G1 F1800 X70.181 Y127.315 E851.53244
G0 F3600 X70.181 Y126.749
G1 F1800 X122.649 Y179.218 E855.23438
G0 F3600 X123.215 Y179.218
G1 F1800 X70.181 Y126.183 E858.97625
G0 F3600 X70.181 Y125.618
G1 F1800 X123.781 Y179.219 E862.75805
G0 F3600 X124.347 Y179.219
G1 F1800 X70.181 Y125.052 E866.57979
G0 F3600 X70.181 Y124.486
G1 F1800 X124.913 Y179.219 E870.44146
G0 F3600 X125.479 Y179.219
G1 F1800 X70.181 Y123.921 E874.34304
G0 F3600 X70.181 Y123.355
G1 F1800 X126.046 Y179.22 E878.28461
G0 F3600 X126.612 Y179.221
G1 F1800 X70.181 Y122.789 E882.26616
G0 F3600 X70.181 Y122.224
G1 F1800 X127.178 Y179.221 E886.28761
G0 F3600 X127.744 Y179.221
G1 F1800 X70.181 Y121.658 E890.34899
G0 F3600 X70.181 Y121.092
G1 F1800 X128.31 Y179.221 E894.4503
G0 F3600 X128.876 Y179.222
G1 F1800 X70.181 Y120.527 E898.59155
G0 F3600 X70.181 Y119.961
G1 F1800 X129.442 Y179.222 E902.77274
G0 F3600 X130.008 Y179.223
G1 F1800 X70.181 Y119.395 E906.99389
G0 F3600 X70.181 Y118.83
G1 F1800 X130.575 Y179.223 E911.25498
G0 F3600 X131.14 Y179.223
G1 F1800 X70.181 Y118.264 E915.55596
G0 F3600 X70.181 Y117.698
G1 F1800 X131.707 Y179.224 E919.89696
G0 F3600 X132.272 Y179.224
G1 F1800 X70.181 Y117.132 E924.27785
G0 F3600 X70.181 Y116.567
G1 F1800 X132.839 Y179.225 E928.69871
G0 F3600 X133.414 Y179.234
G1 F1800 X70.181 Y116.001 E933.16014
G0 F3600 X70.181 Y115.435
G1 F1800 X141.321 Y186.576 E938.17948
G0 F3600 X141.321 Y187.142
G1 F1800 X134.405 Y180.225 E938.66748
G0 F3600 X134.43 Y180.816
G1 F1800 X141.321 Y187.707 E939.15368
G0 F3600 X141.321 Y188.273
G1 F1800 X134.43 Y181.382 E939.63987
G0 F3600 X134.43 Y181.947
G1 F1800 X141.2 Y188.718 E940.11757
G0 F3600 X140.635 Y188.718
G1 F1800 X134.43 Y182.513 E940.55536
G0 F3600 X134.43 Y183.079
G1 F1800 X140.069 Y188.718 E940.95323
G0 F3600 X139.503 Y188.718
G1 F1800 X134.43 Y183.644 E941.31119
G0 F3600 X134.43 Y184.21
G1 F1800 X138.937 Y188.718 E941.62922
G0 F3600 X138.372 Y188.718
G1 F1800 X134.43 Y184.776 E941.90735
G0 F3600 X134.43 Y185.341
G1 F1800 X137.806 Y188.718 E942.14558
G0 F3600 X137.24 Y188.718
G1 F1800 X134.43 Y185.907 E942.34387
G0 F3600 X134.43 Y186.473
G1 F1800 X136.675 Y188.718 E942.50227
G0 F3600 X136.109 Y188.718
G1 F1800 X134.43 Y187.038 E942.62077
G0 F3600 X134.43 Y187.604
G1 F1800 X135.543 Y188.718 E942.69933
G0 F3600 X134.978 Y188.718
G1 F1800 X134.43 Y188.17 E942.738
G0 F3600 X141.321 Y186.01
G1 F1800 X70.181 Y114.87 E947.75731
G0 F3600 X70.181 Y114.304
G1 F1800 X141.321 Y185.445 E952.77665
G0 F3600 X141.321 Y184.879
G1 F1800 X70.181 Y113.738 E957.796
G0 F3600 X70.181 Y113.173
G1 F1800 X141.321 Y184.313 E962.81531
G0 F3600 X141.321 Y183.748
G1 F1800 X70.181 Y112.607 E967.83466
G0 F3600 X70.181 Y112.041
G1 F1800 X141.321 Y183.182 E972.854
G0 F3600 X141.321 Y182.616
G1 F1800 X70.181 Y111.476 E977.87332
G0 F3600 X70.181 Y110.91
G1 F1800 X141.321 Y182.051 E982.89266
G0 F3600 X141.321 Y181.485
G1 F1800 X70.181 Y110.344 E987.91201
G0 F3600 X70.181 Y109.779
G1 F1800 X141.321 Y180.919 E992.93132
G0 F3600 X141.321 Y180.353
G1 F1800 X70.181 Y109.213 E997.95063
G0 F3600 X70.181 Y108.647
G1 F1800 X141.455 Y179.921 E1002.9794
G0 F3600 X141.675 Y179.576
G1 F1800 X70.181 Y108.081 E1008.02372
G0 F3600 X70.181 Y107.516
G1 F1800 X142.003 Y179.338 E1013.09115
G0 F3600 X142.448 Y179.217
G1 F1800 X70.181 Y106.95 E1018.18998
G0 F3600 X70.181 Y106.384
G1 F1800 X143.013 Y179.217 E1023.3287
G0 F3600 X143.579 Y179.217
G1 F1800 X70.181 Y105.819 E1028.50733
G0 F3600 X70.181 Y105.253
G1 F1800 X144.145 Y179.217 E1033.72589
G0 F3600 X144.71 Y179.217
G1 F1800 X70.181 Y104.687 E1038.98435
G0 F3600 X70.181 Y104.122
G1 F1800 X145.276 Y179.217 E1044.28271
G0 F3600 X145.842 Y179.217
G1 F1800 X70.181 Y103.556 E1049.621
G0 F3600 X70.181 Y102.99
G1 F1800 X146.407 Y179.217 E1054.99919
G0 F3600 X146.974 Y179.218
G1 F1800 X70.181 Y102.425 E1060.41735
G0 F3600 X70.181 Y101.859
G1 F1800 X147.539 Y179.218 E1065.87541
G0 F3600 X148.105 Y179.218
G1 F1800 X70.181 Y101.293 E1071.3734
G0 F3600 X70.181 Y100.728
G1 F1800 X148.671 Y179.218 E1076.9113
G0 F3600 X149.237 Y179.218
G1 F1800 X70.181 Y100.162 E1082.48913
G0 F3600 X70.181 Y99.596
G1 F1800 X149.802 Y179.218 E1088.10685
G0 F3600 X150.368 Y179.218
G1 F1800 X70.181 Y99.031 E1093.76448
G0 F3600 X70.181 Y98.465
G1 F1800 X150.934 Y179.219 E1099.46207
G0 F3600 X151.5 Y179.219
G1 F1800 X70.181 Y97.899 E1105.1996
G0 F3600 X70.181 Y97.333
G1 F1800 X152.066 Y179.219 E1110.97707
G0 F3600 X152.631 Y179.219
G1 F1800 X70.181 Y96.768 E1116.7944
G0 F3600 X70.181 Y96.202
G1 F1800 X153.197 Y179.219 E1122.65166
G0 F3600 X153.763 Y179.219
G1 F1800 X70.181 Y95.636 E1128.54886
G0 F3600 X70.181 Y95.071
G1 F1800 X154.328 Y179.219 E1134.48592
G0 F3600 X154.894 Y179.219
G1 F1800 X70.181 Y94.505 E1140.46291
G0 F3600 X70.181 Y93.939
G1 F1800 X155.863 Y179.622 E1146.50827
G1 X155.967 Y179.726
G1 X162.323 Y186.082 E1146.95672
G0 F3600 X162.322 Y186.647
G1 F1800 X156.18 Y180.504 E1147.39011
G0 F3600 X156.18 Y181.07
G1 F1800 X162.322 Y187.212 E1147.82346
G0 F3600 X162.322 Y187.778
G1 F1800 X156.18 Y181.635 E1148.25685
G0 F3600 X156.18 Y182.201
G1 F1800 X162.322 Y188.344 E1148.69024
G0 F3600 X162.131 Y188.719
G1 F1800 X156.18 Y182.767 E1149.11015
G0 F3600 X156.18 Y183.333
G1 F1800 X161.566 Y188.719 E1149.49016
G0 F3600 X161 Y188.719
G1 F1800 X156.18 Y183.899 E1149.83023
G0 F3600 X156.18 Y184.465
G1 F1800 X160.434 Y188.719 E1150.13038
G0 F3600 X159.869 Y188.719
G1 F1800 X156.18 Y185.03 E1150.39066
G0 F3600 X156.18 Y185.596
G1 F1800 X159.303 Y188.719 E1150.611
G0 F3600 X158.737 Y188.719
G1 F1800 X156.181 Y186.162 E1150.79137
G0 F3600 X156.181 Y186.728
G1 F1800 X158.172 Y188.719 E1150.93185
G0 F3600 X157.606 Y188.719
G1 F1800 X156.181 Y187.294 E1151.03239
G0 F3600 X156.181 Y187.859
G1 F1800 X157.04 Y188.719 E1151.09303
G0 F3600 X156.474 Y188.719
G1 F1800 X156.181 Y188.425 E1151.11374
G0 F3600 X162.323 Y185.516
G1 F1800 X70.181 Y93.374 E1157.61486
G0 F3600 X70.181 Y92.808
G1 F1800 X162.323 Y184.95 E1164.11597
G0 F3600 X162.324 Y184.385
G1 F1800 X70.181 Y92.242 E1170.61716
G0 F3600 X70.181 Y91.677
G1 F1800 X162.324 Y183.82 E1177.11835
G0 F3600 X162.324 Y183.254
G1 F1800 X70.181 Y91.111 E1183.61953
G0 F3600 X70.181 Y90.545
G1 F1800 X162.324 Y182.688 E1190.12072
G0 F3600 X162.324 Y182.123
G1 F1800 X70.181 Y89.98 E1196.62191
G0 F3600 X70.181 Y89.414
G1 F1800 X162.324 Y181.558 E1203.12313
G0 F3600 X162.324 Y180.992
G1 F1800 X70.181 Y88.848 E1209.62435
G0 F3600 X70.181 Y88.282
G1 F1800 X162.324 Y180.426 E1216.12557
G0 F3600 X162.432 Y179.968
G1 F1800 X70.181 Y87.717 E1222.63438
G0 F3600 X70.181 Y87.151
G1 F1800 X162.643 Y179.614 E1229.15811
G0 F3600 X162.961 Y179.366
G1 F1800 X70.181 Y86.585 E1235.70427
G0 F3600 X70.181 Y86.02
G1 F1800 X163.386 Y179.225 E1242.28039
G0 F3600 X163.945 Y179.219
G1 F1800 X70.181 Y85.454 E1248.89598
G0 F3600 X70.181 Y84.888
G1 F1800 X164.511 Y179.219 E1255.55151
G0 F3600 X165.076 Y179.219
G1 F1800 X70.181 Y84.323 E1262.2469
G0 F3600 X70.181 Y83.757
G1 F1800 X165.642 Y179.219 E1268.98222
G0 F3600 X166.208 Y179.219
G1 F1800 X70.181 Y83.191 E1275.75748
G0 F3600 X70.181 Y82.626
G1 F1800 X166.773 Y179.219 E1282.5726
G0 F3600 X167.339 Y179.219
G1 F1800 X70.181 Y82.06 E1289.42766
G0 F3600 X70.181 Y81.494
G1 F1800 X167.904 Y179.218 E1296.32258
G0 F3600 X168.47 Y179.218
G1 F1800 X70.181 Y80.929 E1303.2574
G0 F3600 X70.181 Y80.363
G1 F1800 X169.035 Y179.218 E1310.23212
G0 F3600 X169.601 Y179.218
G1 F1800 X70.181 Y79.797 E1317.24677
G0 F3600 X70.181 Y79.232
G1 F1800 X170.167 Y179.218 E1324.30132
G0 F3600 X170.733 Y179.218
G1 F1800 X70.181 Y78.666 E1331.39581
G0 F3600 X70.181 Y78.1
G1 F1800 X171.298 Y179.218 E1338.5302
G0 F3600 X171.864 Y179.218
G1 F1800 X70.181 Y77.534 E1345.70452
G0 F3600 X70.181 Y76.969
G1 F1800 X172.429 Y179.217 E1352.91866
G0 F3600 X172.995 Y179.217
G1 F1800 X76.426 Y82.649 E1359.73209
G0 F3600 X76.943 Y82.599
G1 F1800 X173.56 Y179.217 E1366.54898
G0 F3600 X174.126 Y179.217
G1 F1800 X77.329 Y82.42 E1373.37853
G0 F3600 X77.625 Y82.15
G1 F1800 X174.692 Y179.217 E1380.22713
G0 F3600 X175.257 Y179.217
G1 F1800 X77.921 Y81.881 E1387.09471
G0 F3600 X78.218 Y81.612
G1 F1800 X175.823 Y179.217 E1393.98127
G0 F3600 X176.54 Y179.368
G1 F1800 X78.515 Y81.343 E1400.89747
G0 F3600 X78.811 Y81.074
G1 F1800 X179.82 Y182.082 E1408.02416
G0 F3600 X179.82 Y181.517
G1 F1800 X79.108 Y80.805 E1415.12994
G0 F3600 X79.404 Y80.535
G1 F1800 X179.82 Y180.951 E1422.21483
G0 F3600 X179.82 Y180.385
G1 F1800 X79.7 Y80.266 E1429.2788
G0 F3600 X79.997 Y79.997
G1 F1800 X179.82 Y179.82 E1436.32185
G0 F3600 X179.82 Y179.254
G1 F1800 X80.294 Y79.728 E1443.34395
G0 F3600 X80.59 Y79.459
G1 F1800 X179.82 Y178.688 E1450.34513
G0 F3600 X179.82 Y178.123
G1 F1800 X80.886 Y79.189 E1457.32545
G0 F3600 X81.183 Y78.92
G1 F1800 X179.82 Y177.557 E1464.28483
G0 F3600 X179.82 Y176.991
G1 F1800 X81.479 Y78.651 E1471.22328
G0 F3600 X81.776 Y78.382
G1 F1800 X179.82 Y176.425 E1478.14078
G0 F3600 X179.82 Y175.86
G1 F1800 X82.073 Y78.113 E1485.03736
G0 F3600 X82.369 Y77.843
G1 F1800 X179.82 Y175.294 E1491.91305
G0 F3600 X179.82 Y174.728
G1 F1800 X82.665 Y77.574 E1498.76783
G0 F3600 X82.962 Y77.305
G1 F1800 X179.82 Y174.163 E1505.60168
G0 F3600 X179.82 Y173.597
G1 F1800 X83.258 Y77.036 E1512.41462
G0 F3600 X83.555 Y76.767
G1 F1800 X179.82 Y173.031 E1519.2066
G0 F3600 X179.82 Y172.466
G1 F1800 X83.851 Y76.497 E1525.97773
G0 F3600 X84.148 Y76.228
G1 F1800 X179.82 Y171.9 E1532.7279
G0 F3600 X179.82 Y171.334
G1 F1800 X84.444 Y75.959 E1539.45716
G0 F3600 X84.741 Y75.69
G1 F1800 X179.82 Y170.769 E1546.1655
G0 F3600 X179.82 Y170.203
G1 F1800 X85.038 Y75.421 E1552.85288
G0 F3600 X85.334 Y75.152
G1 F1800 X179.82 Y169.637 E1559.51934
G0 F3600 X179.82 Y169.072
G1 F1800 X85.63 Y74.882 E1566.16496
G0 F3600 X85.926 Y74.613
G1 F1800 X179.82 Y168.506 E1572.78965
G0 F3600 X179.82 Y167.94
G1 F1800 X86.196 Y74.316 E1579.39533
G0 F3600 X86.37 Y73.925
G1 F1800 X179.82 Y167.375 E1585.98873
G0 F3600 X179.82 Y166.809
G1 F1800 X86.361 Y73.35 E1592.58277
G1 X86.291 Y73.28
G0 F3600 X86.08 Y66.281
G1 F1800 X179.82 Y160.021 E1599.19663
G0 F3600 X179.82 Y160.586
G1 F1800 X85.514 Y66.281 E1605.85039
G0 F3600 X84.948 Y66.281
G1 F1800 X179.82 Y161.152 E1612.54409
G0 F3600 X179.82 Y161.718
G1 F1800 X84.383 Y66.281 E1619.27769
G0 F3600 X83.817 Y66.281
G1 F1800 X179.82 Y162.283 E1626.05118
G0 F3600 X179.82 Y162.849
G1 F1800 X83.251 Y66.281 E1632.86461
G0 F3600 X82.686 Y66.281
G1 F1800 X179.82 Y163.415 E1639.71794
G0 F3600 X179.82 Y163.98
G1 F1800 X82.12 Y66.281 E1646.61117
G0 F3600 X81.554 Y66.281
G1 F1800 X179.82 Y164.546 E1653.54433
G0 F3600 X179.82 Y165.112
G1 F1800 X80.989 Y66.281 E1660.51739
G0 F3600 X80.423 Y66.281
G1 F1800 X179.82 Y165.677 E1667.53035
G0 F3600 X179.82 Y166.243
G1 F1800 X80.266 Y66.69 E1674.55439
G1 X80.196 Y66.62
G0 F3600 X86.646 Y66.281
G1 F1800 X179.82 Y159.455 E1681.12831
G0 F3600 X179.82 Y158.889
G1 F1800 X87.211 Y66.281 E1687.66234
G0 F3600 X87.777 Y66.281
G1 F1800 X179.82 Y158.324 E1694.15648
G0 F3600 X179.82 Y157.758
G1 F1800 X88.343 Y66.281 E1700.61067
G0 F3600 X88.908 Y66.281
G1 F1800 X179.82 Y157.192 E1707.02497
G0 F3600 X179.82 Y156.626
G1 F1800 X89.474 Y66.281 E1713.39933
G0 F3600 X90.04 Y66.281
G1 F1800 X179.82 Y156.061 E1719.7338
G0 F3600 X179.82 Y155.495
G1 F1800 X90.605 Y66.281 E1726.02836
G0 F3600 X91.171 Y66.281
G1 F1800 X179.82 Y154.929 E1732.28299
G0 F3600 X179.82 Y154.364
G1 F1800 X91.737 Y66.281 E1738.49772
G0 F3600 X92.302 Y66.281
G1 F1800 X179.82 Y153.798 E1744.67255
G0 F3600 X179.82 Y153.232
G1 F1800 X92.868 Y66.281 E1750.80745
G0 F3600 X93.434 Y66.281
G1 F1800 X179.82 Y152.667 E1756.90245
G0 F3600 X179.82 Y152.101
G1 F1800 X93.999 Y66.281 E1762.95755
G0 F3600 X94.565 Y66.281
G1 F1800 X179.82 Y151.535 E1768.97272
G0 F3600 X179.82 Y150.97
G1 F1800 X95.131 Y66.281 E1774.94798
G0 F3600 X95.697 Y66.281
G1 F1800 X179.82 Y150.404 E1780.88332
G0 F3600 X179.82 Y149.838
G1 F1800 X96.262 Y66.281 E1786.77875
G0 F3600 X96.828 Y66.281
G1 F1800 X179.82 Y149.273 E1792.63428
G0 F3600 X179.82 Y148.707
G1 F1800 X97.394 Y66.281 E1798.44988
G0 F3600 X97.959 Y66.281
G1 F1800 X179.82 Y148.141 E1804.22558
G0 F3600 X179.82 Y147.576
G1 F1800 X98.525 Y66.281 E1809.96138
G0 F3600 X99.091 Y66.281
G1 F1800 X179.82 Y147.01 E1815.65725
G0 F3600 X179.82 Y146.444
G1 F1800 X99.656 Y66.281 E1821.31322
G0 F3600 X100.222 Y66.281
G1 F1800 X179.82 Y145.878 E1826.92925
G0 F3600 X179.82 Y145.313
G1 F1800 X100.788 Y66.281 E1832.50539
G0 F3600 X101.353 Y66.281
G1 F1800 X179.82 Y144.747 E1838.04162
G0 F3600 X179.82 Y144.181
G1 F1800 X101.919 Y66.281 E1843.53792
G0 F3600 X102.485 Y66.281
G1 F1800 X179.82 Y143.616 E1848.99432
G0 F3600 X179.82 Y143.05
G1 F1800 X103.05 Y66.281 E1854.41083
G0 F3600 X103.616 Y66.281
G1 F1800 X179.82 Y142.484 E1859.7874
G0 F3600 X179.82 Y141.919
G1 F1800 X104.182 Y66.281 E1865.12407
G0 F3600 X104.747 Y66.281
G1 F1800 X179.82 Y141.353 E1870.42084
G0 F3600 X179.82 Y140.787
G1 F1800 X105.313 Y66.281 E1875.67767
G0 F3600 X105.879 Y66.281
G1 F1800 X179.82 Y140.222 E1880.89461
G0 F3600 X179.82 Y139.656
G1 F1800 X106.445 Y66.281 E1886.07161
G0 F3600 X107.01 Y66.281
G1 F1800 X179.82 Y139.09 E1891.20871
G0 F3600 X179.82 Y138.525
G1 F1800 X107.576 Y66.281 E1896.30592
G0 F3600 X108.142 Y66.281
G1 F1800 X179.82 Y137.959 E1901.36319
G0 F3600 X179.82 Y137.393
G1 F1800 X108.707 Y66.281 E1906.38056
G0 F3600 X109.273 Y66.281
G1 F1800 X179.82 Y136.827 E1911.358
G0 F3600 X179.82 Y136.262
G1 F1800 X109.839 Y66.281 E1916.29553
G0 F3600 X110.404 Y66.281
G1 F1800 X179.82 Y135.696 E1921.19317
G0 F3600 X179.82 Y135.13
G1 F1800 X110.97 Y66.281 E1926.05088
G0 F3600 X111.536 Y66.281
G1 F1800 X179.82 Y134.565 E1930.86868
G0 F3600 X179.82 Y133.999
G1 F1800 X112.101 Y66.281 E1935.64659
G0 F3600 X112.667 Y66.281
G1 F1800 X179.82 Y133.433 E1940.38456
G0 F3600 X179.82 Y132.868
G1 F1800 X113.233 Y66.281 E1945.08263
G0 F3600 X113.798 Y66.281
G1 F1800 X179.82 Y132.302 E1949.74081
G0 F3600 X179.82 Y131.736
G1 F1800 X114.364 Y66.281 E1954.35904
G0 F3600 X114.93 Y66.281
G1 F1800 X179.82 Y131.171 E1958.93738
G0 F3600 X179.82 Y130.605
G1 F1800 X115.495 Y66.281 E1963.47583
G0 F3600 X116.061 Y66.281
G1 F1800 X179.82 Y130.039 E1967.97433
G0 F3600 X179.82 Y129.474
G1 F1800 X116.627 Y66.281 E1972.43294
G0 F3600 X117.193 Y66.281
G1 F1800 X179.82 Y128.908 E1976.85161
G0 F3600 X179.82 Y128.342
G1 F1800 X117.758 Y66.281 E1981.23039
G0 F3600 X118.324 Y66.281
G1 F1800 X179.82 Y127.777 E1985.56926
G0 F3600 X179.82 Y127.211
G1 F1800 X118.89 Y66.281 E1989.8682
G0 F3600 X119.455 Y66.281
G1 F1800 X179.82 Y126.645 E1994.12724
G0 F3600 X179.82 Y126.079
G1 F1800 X120.021 Y66.281 E1998.34635
G0 F3600 X120.587 Y66.281
G1 F1800 X179.82 Y125.514 E2002.52556
G0 F3600 X179.82 Y124.948
G1 F1800 X121.152 Y66.281 E2006.66487
G0 F3600 X121.718 Y66.281
G1 F1800 X179.82 Y124.382 E2010.76424
G0 F3600 X179.82 Y123.817
G1 F1800 X122.284 Y66.281 E2014.82372
G0 F3600 X122.849 Y66.281
G1 F1800 X179.82 Y123.251 E2018.84329
G0 F3600 X179.82 Y122.685
G1 F1800 X123.415 Y66.281 E2022.82294
G0 F3600 X123.981 Y66.281
G1 F1800 X179.82 Y122.12 E2026.76268
G0 F3600 X179.82 Y121.554
G1 F1800 X124.546 Y66.281 E2030.66252
G0 F3600 X125.112 Y66.281
G1 F1800 X179.82 Y120.988 E2034.52243
G0 F3600 X179.82 Y120.423
G1 F1800 X125.678 Y66.281 E2038.34244
G0 F3600 X126.244 Y66.281
G1 F1800 X179.82 Y119.857 E2042.12252
G0 F3600 X179.82 Y119.291
G1 F1800 X126.809 Y66.281 E2045.8627
G0 F3600 X127.375 Y66.281
G1 F1800 X179.82 Y118.726 E2049.56297
G0 F3600 X179.82 Y118.16
G1 F1800 X127.941 Y66.281 E2053.22332
G0 F3600 X128.506 Y66.281
G1 F1800 X179.82 Y117.594 E2056.84376
G0 F3600 X179.82 Y117.029
G1 F1800 X129.072 Y66.281 E2060.42431
G0 F3600 X129.638 Y66.281
G1 F1800 X179.82 Y116.463 E2063.96492
G0 F3600 X179.82 Y115.897
G1 F1800 X130.203 Y66.281 E2067.46563
G0 F3600 X130.769 Y66.281
G1 F1800 X179.82 Y115.331 E2070.92641
G0 F3600 X179.82 Y114.766
G1 F1800 X131.335 Y66.281 E2074.34729
G0 F3600 X131.9 Y66.281
G1 F1800 X179.82 Y114.2 E2077.72827
G0 F3600 X179.82 Y113.634
G1 F1800 X132.466 Y66.281 E2081.06931
G0 F3600 X133.032 Y66.281
G1 F1800 X179.82 Y113.069 E2084.37046
G0 F3600 X179.82 Y112.503
G1 F1800 X133.597 Y66.281 E2087.63171
G0 F3600 X134.163 Y66.281
G1 F1800 X179.82 Y111.937 E2090.85302
G0 F3600 X179.82 Y111.372
G1 F1800 X134.729 Y66.281 E2094.03443
G0 F3600 X135.294 Y66.281
G1 F1800 X179.82 Y110.806 E2097.17595
G0 F3600 X179.82 Y110.24
G1 F1800 X135.86 Y66.281 E2100.27753
G0 F3600 X136.426 Y66.281
G1 F1800 X179.82 Y109.675 E2103.33921
G0 F3600 X179.82 Y109.109
G1 F1800 X136.992 Y66.281 E2106.36095
G0 F3600 X137.557 Y66.281
G1 F1800 X179.82 Y108.543 E2109.3428
G0 F3600 X179.82 Y107.978
G1 F1800 X138.123 Y66.281 E2112.28475
G0 F3600 X138.689 Y66.281
G1 F1800 X179.82 Y107.412 E2115.18676
G0 F3600 X179.82 Y106.846
G1 F1800 X139.254 Y66.281 E2118.04888
G0 F3600 X139.82 Y66.281
G1 F1800 X179.82 Y106.28 E2120.87106
G0 F3600 X179.82 Y105.715
G1 F1800 X140.386 Y66.281 E2123.65334
G0 F3600 X140.951 Y66.281
G1 F1800 X179.82 Y105.149 E2126.39573
G0 F3600 X179.82 Y104.583
G1 F1800 X141.517 Y66.281 E2129.09817
G0 F3600 X142.083 Y66.281
G1 F1800 X179.82 Y104.018 E2131.76072
G0 F3600 X179.82 Y103.452
G1 F1800 X142.648 Y66.281 E2134.38337
G0 F3600 X143.214 Y66.281
G1 F1800 X179.82 Y102.886 E2136.96609
G0 F3600 X179.82 Y102.321
G1 F1800 X143.78 Y66.281 E2139.5089
G0 F3600 X144.345 Y66.281
G1 F1800 X179.82 Y101.755 E2142.01182
G0 F3600 X179.82 Y101.189
G1 F1800 X144.911 Y66.281 E2144.47481
G0 F3600 X145.477 Y66.281
G1 F1800 X179.82 Y100.624 E2146.89789
G0 F3600 X179.82 Y100.058
G1 F1800 X146.043 Y66.281 E2149.28104
G0 F3600 X146.608 Y66.281
G1 F1800 X179.82 Y99.492 E2151.62429
G0 F3600 X179.82 Y98.927
G1 F1800 X147.174 Y66.281 E2153.92764
G0 F3600 X147.74 Y66.281
G1 F1800 X179.82 Y98.361 E2156.19106
G0 F3600 X179.82 Y97.795
G1 F1800 X148.305 Y66.281 E2158.41458
G0 F3600 X148.871 Y66.281
G1 F1800 X179.82 Y97.23 E2160.5982
G0 F3600 X179.82 Y96.664
G1 F1800 X149.437 Y66.281 E2162.74188
G0 F3600 X150.002 Y66.281
G1 F1800 X179.82 Y96.098 E2164.84567
G0 F3600 X179.82 Y95.532
G1 F1800 X150.568 Y66.281 E2166.90952
G0 F3600 X151.134 Y66.281
G1 F1800 X179.82 Y94.967 E2168.93347
G0 F3600 X179.82 Y94.401
G1 F1800 X151.699 Y66.281 E2170.91752
G0 F3600 X152.265 Y66.281
G1 F1800 X179.82 Y93.835 E2172.86164
G0 F3600 X179.82 Y93.27
G1 F1800 X152.831 Y66.281 E2174.76586
G0 F3600 X153.396 Y66.281
G1 F1800 X179.82 Y92.704 E2176.63018
G0 F3600 X179.82 Y92.138
G1 F1800 X153.962 Y66.281 E2178.45457
G0 F3600 X154.528 Y66.281
G1 F1800 X179.82 Y91.573 E2180.23906
G0 F3600 X179.82 Y91.007
G1 F1800 X155.093 Y66.281 E2181.98364
G0 F3600 X155.659 Y66.281
