;FLAVOR:Marlin
;TIME:2352
;Filament used: 4.52302m
;Layer height: 0.4
;MINX:67.2
;MINY:92.467
;MINZ:0.3
;MAXX:182.799
;MAXY:162.414
;MAXZ:9.9
;Generated with Cura_SteamEngine 5.3.0
M140 S60
M105
M190 S60
M104 S200
M105
M109 S200
M82 ;absolute extrusion mode
G21 ;metric values
G90 ;absolute positioning
M82 ;set extruder to absolute mode
M107 ;start with the fan off
G28 X0 Y0 ;move X/Y to min endstops
M300 S1318 P266
G28 Z0 ;move Z to min endstops
G0 Z0.2
G92 E0 ;zero the extruded length
G1 X40 E25 F400 ; Extrude 25mm of filament in a 4cm line. Reduce speed (F) if you have a nozzle smaller than 0.4mm!
G92 E0 ;zero the extruded length again
G1 E-1 F500 ; Retract a little
G1 X80 F4000 ; Quickly wipe away from the filament line
M117 ; Printing…
G5
G92 E0
G92 E0
G1 F1500 E-6.5
;LAYER_COUNT:25
;LAYER:0
M107
G0 F3600 X75.323 Y95.412 Z0.3
;TYPE:SKIRT
G1 F1500 E0
G1 F1800 X78.447 Y93.44 E0.18431
G1 X80.373 Y92.833 E0.28506
G1 X83.754 Y92.467 E0.45472
G1 X87.278 Y93.107 E0.63341
G1 X90.358 Y94.019 E0.79367
G1 X93.789 Y95.1 E0.97314
G1 X98.098 Y96.633 E1.20131
G1 X100.402 Y97.571 E1.32542
G1 X103.124 Y98.838 E1.47521
G1 X105.443 Y100.095 E1.60681
G1 X108.473 Y102.051 E1.78674
G1 X110.757 Y103.815 E1.93072
G1 X116.662 Y109.005 E2.32294
G1 X133.334 Y108.996 E3.15471
G1 X136.943 Y105.788 E3.39561
G1 X139.329 Y103.741 E3.55245
G1 X141.486 Y102.075 E3.68843
G1 X144.582 Y100.084 E3.87207
G1 X146.94 Y98.811 E4.00576
G1 X149.819 Y97.484 E4.16392
G1 X152.221 Y96.517 E4.2931
G1 X156.487 Y95.003 E4.51894
G1 X159.754 Y93.979 E4.68975
G1 X162.694 Y93.113 E4.84266
G1 X166.248 Y92.467 E5.02287
G1 X169.627 Y92.833 E5.19244
G1 X171.553 Y93.44 E5.29318
G1 X174.677 Y95.412 E5.47749
G1 X176.04 Y96.906 E5.57839
G1 X177.94 Y100.036 E5.76106
G1 X179.343 Y103.896 E5.96597
G1 X180.06 Y106.588 E6.10495
G1 X180.273 Y107.586 E6.15586
G1 X180.895 Y110.304 E6.29497
G1 X181.063 Y110.996 E6.3305
G1 X181.845 Y113.931 E6.48203
G1 X182.183 Y115.653 E6.56959
G1 X182.517 Y118.627 E6.71889
G1 X182.746 Y122.629 E6.91888
G1 X182.799 Y125.318 E7.05306
G1 X182.775 Y128.277 E7.20069
G1 X182.643 Y131.365 E7.35489
G1 X182.24 Y136.992 E7.63634
G1 X181.705 Y142.692 E7.92197
G1 X181.365 Y145.264 E8.0514
G1 X180.819 Y147.868 E8.18414
G1 X179.94 Y151.168 E8.35452
G1 X179.154 Y153.418 E8.47342
G1 X177.482 Y156.904 E8.66631
G1 X175.11 Y159.685 E8.84867
G1 X173.371 Y160.943 E8.95575
G1 X170.57 Y162.071 E9.1064
G1 X168.903 Y162.414 E9.19131
G1 X165.651 Y162.412 E9.35355
G1 X162.624 Y161.746 E9.50818
G1 X157.693 Y160.192 E9.76611
G1 X154.354 Y159.076 E9.94176
G1 X151.988 Y158.226 E10.06718
G1 X149.707 Y157.333 E10.18939
G1 X147.245 Y156.23 E10.32399
G1 X144.562 Y154.826 E10.47506
G1 X141.558 Y152.934 E10.65218
G1 X139.356 Y151.261 E10.79015
G1 X134.97 Y147.457 E11.0798
G1 X133.327 Y146.003 E11.18926
G1 X133.041 Y146.049 E11.20371
G1 X126.49 Y146.05 E11.53054
G1 X125.023 Y145.798 E11.6048
G1 X124.868 Y145.839 E11.6128
G1 X123.779 Y145.998 E11.66771
G1 X116.863 Y146.05 E12.01276
G1 X116.644 Y146.02 E12.02379
G1 X110.647 Y151.258 E12.42104
G1 X108.441 Y152.934 E12.55925
G1 X105.176 Y154.976 E12.75138
G1 X102.568 Y156.325 E12.89787
G1 X100.28 Y157.335 E13.02264
G1 X94.676 Y159.42 E13.32095
G1 X91.71 Y160.4 E13.4768
G1 X87.288 Y161.773 E13.7078
G1 X84.37 Y162.412 E13.85683
G1 X81.251 Y162.414 E14.01244
G1 X79.541 Y162.117 E14.09903
G1 X76.629 Y160.944 E14.25565
G1 X74.89 Y159.686 E14.36273
G1 X72.511 Y156.897 E14.54562
G1 X70.887 Y153.514 E14.73284
G1 X69.989 Y150.933 E14.86917
G1 X69.513 Y149.194 E14.95912
G1 X69.202 Y147.97 E15.02213
G1 X68.726 Y145.823 E15.13185
G1 X68.108 Y140.802 E15.38424
G1 X67.719 Y136.563 E15.59661
G1 X67.708 Y136.295 E15.60999
G1 X67.385 Y131.645 E15.84254
G1 X67.338 Y131.114 E15.86913
G1 X67.225 Y128.026 E16.0233
G1 X67.2 Y125.03 E16.17277
G1 X67.311 Y121.419 E16.35301
G1 X67.692 Y116.545 E16.59692
G1 X67.875 Y115.33 E16.65822
G1 X68.028 Y114.61 E16.69494
G1 X68.12 Y114.09 E16.72129
G1 X68.44 Y112.841 E16.78561
G1 X68.786 Y111.611 E16.84936
G1 X69.751 Y107.504 E17.05984
G1 X69.951 Y106.581 E17.10696
G1 X70.78 Y103.511 E17.26561
G1 X72.048 Y100.055 E17.44927
G1 X73.96 Y96.906 E17.63306
G1 X75.323 Y95.412 E17.73396
G0 F3600 X75.582 Y95.722
G1 F1800 X78.619 Y93.805 E17.91313
G1 X80.451 Y93.227 E18.00897
G1 X83.739 Y92.871 E18.17397
G1 X87.206 Y93.501 E18.34977
G1 X90.238 Y94.4 E18.50755
G1 X93.655 Y95.477 E18.68629
G1 X97.947 Y97.004 E18.91357
G1 X100.233 Y97.934 E19.03669
G1 X102.933 Y99.19 E19.18526
G1 X105.252 Y100.447 E19.31686
G1 X108.228 Y102.368 E19.49358
G1 X110.512 Y104.132 E19.63755
G1 X116.543 Y109.433 E20.03815
G1 X116.773 Y109.405 E20.04971
G1 X133.206 Y109.396 E20.86955
G1 X133.451 Y109.428 E20.88188
G1 X137.204 Y106.092 E21.1324
G1 X139.574 Y104.058 E21.28821
G1 X141.731 Y102.392 E21.42419
G1 X144.798 Y100.421 E21.60607
G1 X147.13 Y99.163 E21.73826
G1 X149.968 Y97.855 E21.89417
G1 X152.355 Y96.894 E22.02254
G1 X156.607 Y95.385 E22.24764
G1 X159.867 Y94.363 E22.41809
G1 X162.766 Y93.507 E22.56889
G1 X166.263 Y92.871 E22.74622
G1 X169.549 Y93.227 E22.91112
G1 X171.381 Y93.805 E23.00696
G1 X174.418 Y95.722 E23.18613
G1 X175.717 Y97.145 E23.28226
G1 X177.578 Y100.21 E23.46115
G1 X178.956 Y103.999 E23.6623
G1 X179.673 Y106.691 E23.80129
G1 X179.883 Y107.675 E23.85148
G1 X180.506 Y110.398 E23.99085
G1 X180.676 Y111.099 E24.02683
G1 X181.458 Y114.034 E24.17837
G1 X181.785 Y115.698 E24.26297
G1 X182.119 Y118.672 E24.41228
G1 X182.346 Y122.637 E24.61042
G1 X182.399 Y125.315 E24.74405
G1 X182.375 Y128.26 E24.89098
G1 X182.244 Y131.336 E25.04458
G1 X181.842 Y136.955 E25.32563
G1 X181.308 Y142.64 E25.61051
G1 X180.973 Y145.182 E25.73843
G1 X180.432 Y147.765 E25.87009
G1 X179.562 Y151.036 E26.03895
G1 X178.776 Y153.286 E26.15786
G1 X177.143 Y156.685 E26.34599
G1 X174.837 Y159.388 E26.52325
G1 X173.175 Y160.591 E26.62561
G1 X170.457 Y161.686 E26.7718
G1 X168.861 Y162.014 E26.85309
G1 X165.696 Y162.012 E27.01099
G1 X162.71 Y161.355 E27.16353
G1 X157.82 Y159.813 E27.41933
G1 X154.489 Y158.7 E27.59455
G1 X152.134 Y157.854 E27.71939
G1 X149.871 Y156.968 E27.84064
G1 X147.409 Y155.865 E27.97523
G1 X144.748 Y154.472 E28.12508
G1 X141.8 Y152.615 E28.2989
G1 X139.598 Y150.942 E28.43687
G1 X135.235 Y147.158 E28.725
G1 X133.446 Y145.574 E28.84422
G1 X133.041 Y145.649 E28.86477
G1 X126.523 Y145.65 E29.18995
G1 X125.001 Y145.388 E29.267
G1 X124.81 Y145.443 E29.27692
G1 X123.721 Y145.602 E29.33182
G1 X116.86 Y145.65 E29.67413
G1 X116.522 Y145.596 E29.6912
G1 X110.405 Y150.939 E30.09641
G1 X108.199 Y152.615 E30.23463
G1 X104.992 Y154.621 E30.42335
G1 X102.406 Y155.959 E30.56861
G1 X100.118 Y156.969 E30.69338
G1 X94.551 Y159.04 E30.98972
G1 X91.591 Y160.018 E31.14525
G1 X87.202 Y161.382 E31.37454
G1 X84.325 Y162.012 E31.52148
G1 X81.284 Y162.014 E31.6732
G1 X79.653 Y161.731 E31.75578
G1 X76.824 Y160.591 E31.90795
G1 X75.163 Y159.389 E32.01024
G1 X72.85 Y156.678 E32.18803
G1 X71.248 Y153.341 E32.3727
G1 X70.375 Y150.827 E32.50548
G1 X69.901 Y149.095 E32.59506
G1 X69.593 Y147.883 E32.65745
G1 X69.117 Y145.736 E32.76717
G1 X68.506 Y140.765 E33.01704
G1 X68.119 Y136.547 E33.22836
G1 X68.108 Y136.279 E33.24174
G1 X67.784 Y131.617 E33.47489
G1 X67.738 Y131.099 E33.50083
G1 X67.625 Y128.023 E33.6544
G1 X67.6 Y125.042 E33.80313
G1 X67.71 Y121.45 E33.98242
G1 X68.088 Y116.605 E34.22487
G1 X68.271 Y115.39 E34.28617
G1 X68.422 Y114.679 E34.32243
G1 X68.508 Y114.189 E34.34725
G1 X68.825 Y112.949 E34.41111
G1 X69.171 Y111.719 E34.47485
G1 X70.14 Y107.596 E34.68616
G1 X70.337 Y106.685 E34.73266
G1 X71.156 Y103.649 E34.88954
G1 X72.411 Y100.228 E35.07133
G1 X74.283 Y97.145 E35.25128
G1 X75.582 Y95.722 E35.34741
G0 F3600 X75.842 Y96.03
G1 F1800 X78.789 Y94.17 E35.52127
G1 X80.529 Y93.621 E35.61229
G1 X83.724 Y93.275 E35.77263
G1 X87.092 Y93.885 E35.94339
G1 X90.118 Y94.781 E36.10084
G1 X93.521 Y95.854 E36.27885
G1 X97.796 Y97.375 E36.50523
G1 X100.064 Y98.297 E36.62737
G1 X102.742 Y99.542 E36.77471
G1 X105.061 Y100.799 E36.90631
G1 X107.983 Y102.685 E37.07982
G1 X110.267 Y104.449 E37.2238
G1 X116.416 Y109.853 E37.63221
G1 X116.773 Y109.805 E37.65018
G1 X133.155 Y109.793 E38.46748
G1 X133.58 Y109.848 E38.48886
G1 X137.464 Y106.396 E38.7481
G1 X139.819 Y104.375 E38.90293
G1 X141.976 Y102.709 E39.0389
G1 X144.988 Y100.773 E39.21754
G1 X147.298 Y99.526 E39.3485
G1 X150.117 Y98.226 E39.50338
G1 X152.489 Y97.271 E39.63095
G1 X156.727 Y95.767 E39.8553
G1 X159.981 Y94.747 E40.02543
G1 X162.838 Y93.901 E40.17409
G1 X166.278 Y93.275 E40.34853
G1 X169.471 Y93.621 E40.50876
G1 X171.211 Y94.17 E40.59979
G1 X174.158 Y96.03 E40.77365
G1 X175.394 Y97.384 E40.86511
G1 X177.216 Y100.384 E41.04023
G1 X178.569 Y104.102 E41.23762
G1 X179.286 Y106.794 E41.3766
G1 X179.493 Y107.764 E41.42609
G1 X180.117 Y110.492 E41.5657
G1 X180.289 Y111.202 E41.60215
G1 X181.071 Y114.137 E41.75369
G1 X181.387 Y115.743 E41.83535
G1 X181.721 Y118.717 E41.98465
G1 X181.946 Y122.645 E42.18094
G1 X181.999 Y125.312 E42.31403
G1 X181.975 Y128.243 E42.46026
G1 X181.845 Y131.307 E42.61326
G1 X181.444 Y136.918 E42.89391
G1 X180.911 Y142.588 E43.17803
G1 X180.576 Y145.13 E43.30595
G1 X180.045 Y147.662 E43.43502
G1 X179.184 Y150.904 E43.60237
G1 X178.398 Y153.154 E43.72128
G1 X176.806 Y156.463 E43.90447
G1 X174.563 Y159.093 E44.07692
G1 X172.982 Y160.237 E44.17428
G1 X170.342 Y161.301 E44.31629
G1 X168.819 Y161.614 E44.39386
G1 X165.741 Y161.612 E44.54742
G1 X162.83 Y160.973 E44.69611
G1 X157.947 Y159.434 E44.95154
G1 X154.624 Y158.324 E45.12633
G1 X152.28 Y157.482 E45.25059
G1 X150.035 Y156.603 E45.37087
G1 X147.573 Y155.5 E45.50546
G1 X144.934 Y154.118 E45.65408
G1 X142.042 Y152.296 E45.82461
G1 X139.84 Y150.623 E45.96258
G1 X135.5 Y146.859 E46.24919
G1 X133.56 Y145.141 E46.37848
G1 X133.041 Y145.249 E46.40492
G1 X126.556 Y145.25 E46.72846
G1 X124.973 Y144.978 E46.8086
G1 X124.752 Y145.047 E46.82015
G1 X123.663 Y145.206 E46.87505
G1 X116.857 Y145.25 E47.21461
G1 X116.405 Y145.168 E47.23753
G1 X110.163 Y150.62 E47.65101
G1 X107.957 Y152.296 E47.78923
G1 X104.808 Y154.266 E47.97454
G1 X102.244 Y155.593 E48.11858
G1 X99.978 Y156.594 E48.24217
G1 X94.426 Y158.66 E48.53771
G1 X91.472 Y159.636 E48.69292
G1 X87.116 Y160.991 E48.92052
G1 X84.28 Y161.612 E49.06536
G1 X81.317 Y161.614 E49.21318
G1 X79.763 Y161.344 E49.29187
G1 X77.018 Y160.238 E49.43952
G1 X75.437 Y159.094 E49.53688
G1 X73.189 Y156.459 E49.70968
G1 X71.609 Y153.168 E49.89181
G1 X70.761 Y150.721 E50.02102
G1 X70.289 Y148.996 E50.11024
G1 X69.984 Y147.796 E50.17201
G1 X69.508 Y145.649 E50.28173
G1 X68.904 Y140.728 E50.52908
G1 X68.519 Y136.531 E50.73935
G1 X68.508 Y136.263 E50.75273
G1 X68.183 Y131.589 E50.98648
G1 X68.138 Y131.084 E51.01177
G1 X68.025 Y128.02 E51.16474
G1 X68 Y125.054 E51.31272
G1 X68.109 Y121.481 E51.49106
G1 X68.484 Y116.665 E51.73206
G1 X68.667 Y115.45 E51.79336
G1 X68.816 Y114.748 E51.82916
G1 X68.902 Y114.258 E51.85398
G1 X69.21 Y113.057 E51.91584
G1 X69.556 Y111.827 E51.97959
G1 X70.529 Y107.688 E52.19171
G1 X70.723 Y106.789 E52.2376
G1 X71.532 Y103.787 E52.39271
G1 X72.774 Y100.401 E52.57264
G1 X74.606 Y97.384 E52.74874
G1 X75.842 Y96.03 E52.8402
G0 F3600 X76.102 Y96.338
G1 F1800 X78.959 Y94.535 E53.00875
G1 X80.607 Y94.015 E53.09496
G1 X83.709 Y93.679 E53.25063
G1 X86.978 Y94.269 E53.41636
G1 X89.998 Y95.163 E53.57349
G1 X93.387 Y96.231 E53.75076
G1 X97.645 Y97.746 E53.97624
G1 X99.895 Y98.66 E54.0974
G1 X102.551 Y99.894 E54.24351
G1 X104.87 Y101.151 E54.37511
G1 X107.738 Y103.002 E54.54541
G1 X110.022 Y104.766 E54.68939
G1 X116.292 Y110.276 E55.10582
G1 X116.773 Y110.205 E55.13008
G1 X133.103 Y110.19 E55.94479
G1 X133.709 Y110.269 E55.97528
G1 X137.724 Y106.7 E56.24328
G1 X140.064 Y104.692 E56.39712
G1 X142.221 Y103.026 E56.53309
G1 X145.178 Y101.125 E56.70847
G1 X147.488 Y99.878 E56.83944
G1 X150.266 Y98.597 E56.99206
G1 X152.623 Y97.648 E57.11883
G1 X156.847 Y96.149 E57.34244
G1 X160.095 Y95.131 E57.51225
G1 X162.952 Y94.285 E57.66091
G1 X166.293 Y93.679 E57.83031
G1 X169.393 Y94.015 E57.98588
G1 X171.041 Y94.535 E58.07209
G1 X173.898 Y96.338 E58.24064
G1 X175.071 Y97.623 E58.32744
G1 X176.854 Y100.558 E58.49877
G1 X178.182 Y104.205 E58.69241
G1 X178.899 Y106.897 E58.83139
G1 X179.103 Y107.853 E58.88016
G1 X179.728 Y110.586 E59.02003
G1 X179.902 Y111.305 E59.05694
G1 X180.684 Y114.24 E59.20848
G1 X180.989 Y115.788 E59.28719
G1 X181.323 Y118.762 E59.4365
G1 X181.546 Y122.653 E59.63094
G1 X181.599 Y125.309 E59.76347
G1 X181.575 Y128.226 E59.90901
G1 X181.446 Y131.279 E60.06146
G1 X181.046 Y136.881 E60.34165
G1 X180.514 Y142.536 E60.62503
G1 X180.179 Y145.078 E60.75295
G1 X179.658 Y147.559 E60.87942
G1 X178.806 Y150.772 E61.04526
G1 X178.02 Y153.022 E61.16417
G1 X176.468 Y156.242 E61.3425
G1 X174.29 Y158.796 E61.50996
G1 X172.787 Y159.884 E61.60253
G1 X170.227 Y160.916 E61.74024
G1 X168.777 Y161.214 E61.81409
G1 X165.786 Y161.212 E61.96331
G1 X162.95 Y160.591 E62.10815
G1 X158.074 Y159.055 E62.3632
G1 X154.759 Y157.948 E62.53756
G1 X152.426 Y157.11 E62.66124
G1 X150.199 Y156.238 E62.78056
G1 X147.737 Y155.135 E62.91515
G1 X145.12 Y153.764 E63.06255
G1 X142.284 Y151.977 E63.22978
G1 X140.082 Y150.304 E63.36775
G1 X135.765 Y146.56 E63.65284
G1 X133.671 Y144.706 E63.79237
G1 X133.041 Y144.849 E63.8246
G1 X126.589 Y144.85 E64.1465
G1 X125.169 Y144.606 E64.21838
G1 X124.993 Y144.549 E64.22761
G1 X124.694 Y144.651 E64.24337
G1 X123.605 Y144.81 E64.29828
G1 X116.855 Y144.85 E64.63504
G1 X116.291 Y144.737 E64.66374
G1 X109.921 Y150.301 E65.0857
G1 X107.715 Y151.977 E65.22392
G1 X104.624 Y153.911 E65.40583
G1 X102.082 Y155.227 E65.54864
G1 X99.816 Y156.228 E65.67223
G1 X94.301 Y158.28 E65.9658
G1 X91.353 Y159.254 E66.12069
G1 X87.03 Y160.6 E66.34658
G1 X84.235 Y161.212 E66.48933
G1 X81.35 Y161.214 E66.63326
G1 X79.875 Y160.958 E66.70795
G1 X77.213 Y159.885 E66.85114
G1 X75.71 Y158.797 E66.94371
G1 X73.528 Y156.24 E67.11141
G1 X71.97 Y152.995 E67.291
G1 X71.147 Y150.616 E67.41659
G1 X70.677 Y148.897 E67.5055
G1 X70.375 Y147.709 E67.56666
G1 X69.899 Y145.562 E67.67637
G1 X69.302 Y140.691 E67.9212
G1 X68.919 Y136.515 E68.13042
G1 X68.908 Y136.247 E68.1438
G1 X68.582 Y131.561 E68.37815
G1 X68.538 Y131.069 E68.4028
G1 X68.425 Y128.017 E68.55517
G1 X68.4 Y125.066 E68.7024
G1 X68.508 Y121.512 E68.87979
G1 X68.88 Y116.725 E69.11933
G1 X69.063 Y115.51 E69.18063
G1 X69.21 Y114.817 E69.21598
G1 X69.29 Y114.357 E69.23927
G1 X69.595 Y113.165 E69.30066
G1 X69.941 Y111.935 E69.3644
G1 X70.918 Y107.78 E69.57735
G1 X71.109 Y106.893 E69.62262
G1 X71.908 Y103.925 E69.77596
G1 X73.137 Y100.574 E69.95403
G1 X74.929 Y97.623 E70.12628
G1 X76.102 Y96.338 E70.21308
G0 F3600 X76.362 Y96.646
G1 F1800 X79.129 Y94.9 E70.37631
G1 X80.685 Y94.409 E70.45772
G1 X83.695 Y94.083 E70.60876
G1 X86.865 Y94.653 E70.76945
G1 X89.878 Y95.544 E70.92621
G1 X93.253 Y96.608 E71.10275
G1 X97.494 Y98.117 E71.32733
G1 X99.744 Y99.031 E71.44849
G1 X102.36 Y100.246 E71.5924
G1 X104.679 Y101.503 E71.724
G1 X107.493 Y103.319 E71.89108
G1 X109.777 Y105.083 E72.03506
G1 X116.168 Y110.699 E72.45952
G1 X116.831 Y110.601 E72.49296
G1 X133.051 Y110.587 E73.30218
G1 X133.838 Y110.69 E73.34178
G1 X137.984 Y107.004 E73.61855
G1 X140.309 Y105.009 E73.77139
G1 X142.466 Y103.343 E73.90736
G1 X145.368 Y101.477 E74.07949
G1 X147.678 Y100.23 E74.21046
G1 X150.415 Y98.968 E74.36083
G1 X152.757 Y98.025 E74.48678
G1 X156.967 Y96.531 E74.70966
G1 X160.209 Y95.515 E74.87916
G1 X163.066 Y94.669 E75.02781
G1 X166.308 Y94.083 E75.19218
G1 X169.315 Y94.409 E75.34307
G1 X170.871 Y94.9 E75.42448
G1 X173.638 Y96.646 E75.58771
G1 X174.748 Y97.862 E75.66985
G1 X176.492 Y100.733 E75.83744
G1 X177.795 Y104.308 E76.02728
G1 X178.512 Y107 E76.16626
G1 X178.713 Y107.942 E76.21432
G1 X179.339 Y110.68 E76.35444
G1 X179.515 Y111.408 E76.39181
G1 X180.297 Y114.343 E76.54334
G1 X180.591 Y115.833 E76.61911
G1 X180.925 Y118.807 E76.76842
G1 X181.146 Y122.661 E76.96101
G1 X181.199 Y125.306 E77.093
G1 X181.175 Y128.209 E77.23783
G1 X181.047 Y131.251 E77.38973
G1 X180.648 Y136.844 E77.66948
G1 X180.117 Y142.484 E77.9521
G1 X179.782 Y145.026 E78.08002
G1 X179.271 Y147.457 E78.20396
G1 X178.428 Y150.64 E78.36823
G1 X177.642 Y152.89 E78.48714
G1 X176.131 Y156.021 E78.66058
G1 X174.016 Y158.501 E78.82319
G1 X172.594 Y159.53 E78.91076
G1 X170.111 Y160.531 E79.04433
G1 X168.735 Y160.814 E79.11441
G1 X165.831 Y160.812 E79.25929
G1 X163.036 Y160.2 E79.40204
G1 X158.201 Y158.676 E79.65496
G1 X154.894 Y157.572 E79.8289
G1 X152.572 Y156.738 E79.95199
G1 X150.363 Y155.873 E80.07034
G1 X147.901 Y154.77 E80.20494
G1 X145.333 Y153.426 E80.34954
G1 X142.526 Y151.658 E80.51505
G1 X140.324 Y149.985 E80.65301
G1 X136.03 Y146.26 E80.93662
G1 X133.783 Y144.271 E81.08633
G1 X132.997 Y144.449 E81.12654
G1 X126.622 Y144.45 E81.44459
G1 X125.237 Y144.212 E81.5147
G1 X124.989 Y144.123 E81.52784
G1 X124.636 Y144.255 E81.54665
G1 X123.547 Y144.414 E81.60155
G1 X116.893 Y144.45 E81.93353
G1 X116.177 Y144.306 E81.96996
G1 X109.679 Y149.982 E82.40041
G1 X107.473 Y151.658 E82.53863
G1 X104.44 Y153.556 E82.71713
G1 X101.92 Y154.861 E82.85871
G1 X99.654 Y155.862 E82.98231
G1 X94.176 Y157.9 E83.2739
G1 X91.234 Y158.872 E83.42848
G1 X86.944 Y160.209 E83.65267
G1 X84.19 Y160.812 E83.79332
G1 X81.384 Y160.814 E83.93331
G1 X79.986 Y160.571 E84.0041
G1 X77.406 Y159.531 E84.14288
G1 X75.984 Y158.502 E84.23045
G1 X73.865 Y156.018 E84.39335
G1 X72.348 Y152.864 E84.56796
G1 X71.533 Y150.511 E84.69219
G1 X71.065 Y148.799 E84.78074
G1 X70.766 Y147.622 E84.84132
G1 X70.29 Y145.475 E84.95104
G1 X69.7 Y140.654 E85.19335
G1 X69.319 Y136.499 E85.40152
G1 X69.308 Y136.231 E85.4149
G1 X68.981 Y131.533 E85.64985
G1 X68.938 Y131.054 E85.67384
G1 X68.825 Y128.014 E85.82561
G1 X68.8 Y125.078 E85.9721
G1 X68.907 Y121.543 E86.14854
G1 X69.276 Y116.785 E86.38663
G1 X69.459 Y115.57 E86.44793
G1 X69.601 Y114.9 E86.4821
G1 X69.677 Y114.456 E86.50457
G1 X69.98 Y113.273 E86.5655
G1 X70.326 Y112.043 E86.62924
G1 X71.307 Y107.872 E86.84301
G1 X71.495 Y106.997 E86.88766
G1 X72.284 Y104.063 E87.03924
G1 X73.5 Y100.747 E87.21545
G1 X75.252 Y97.862 E87.38385
G1 X76.362 Y96.646 E87.46599
G0 F3600 X76.622 Y96.954
G1 F1800 X79.299 Y95.265 E87.6239
G1 X80.763 Y94.803 E87.70049
G1 X83.681 Y94.487 E87.84692
G1 X86.794 Y95.047 E88.00473
G1 X89.758 Y95.926 E88.15897
G1 X93.119 Y96.985 E88.33477
G1 X97.343 Y98.488 E88.55845
G1 X99.593 Y99.402 E88.67961
G1 X102.169 Y100.598 E88.82131
G1 X104.488 Y101.855 E88.95291
G1 X107.248 Y103.636 E89.11678
G1 X109.532 Y105.4 E89.26076
G1 X115.567 Y110.703 E89.66157
G1 X116.077 Y111.116 E89.69431
G1 X116.889 Y110.997 E89.73526
G1 X132.999 Y110.984 E90.53899
G1 X133.967 Y111.111 E90.5877
G1 X138.244 Y107.308 E90.87323
G1 X140.554 Y105.326 E91.02508
G1 X142.711 Y103.66 E91.16106
G1 X145.558 Y101.829 E91.32993
G1 X147.868 Y100.582 E91.4609
G1 X150.564 Y99.339 E91.60901
G1 X152.891 Y98.402 E91.73416
G1 X157.087 Y96.913 E91.95629
G1 X160.323 Y95.899 E92.12548
G1 X163.18 Y95.053 E92.27413
G1 X166.322 Y94.487 E92.43341
G1 X169.237 Y94.803 E92.57969
G1 X170.701 Y95.265 E92.65628
G1 X173.378 Y96.954 E92.8142
G1 X174.425 Y98.101 E92.89168
G1 X176.13 Y100.908 E93.05553
G1 X177.408 Y104.411 E93.24156
G1 X178.125 Y107.103 E93.38055
G1 X178.323 Y108.031 E93.42789
G1 X178.95 Y110.774 E93.56827
G1 X179.128 Y111.511 E93.60609
G1 X179.91 Y114.446 E93.75763
G1 X180.193 Y115.878 E93.83046
G1 X180.527 Y118.852 E93.97976
G1 X180.746 Y122.669 E94.17051
G1 X180.799 Y125.303 E94.30194
G1 X180.775 Y128.192 E94.44608
G1 X180.648 Y131.223 E94.59743
G1 X180.25 Y136.806 E94.87667
G1 X179.72 Y142.432 E95.1586
G1 X179.385 Y144.974 E95.28652
G1 X178.884 Y147.355 E95.40791
G1 X178.05 Y150.508 E95.57062
G1 X177.264 Y152.758 E95.68953
G1 X175.794 Y155.8 E95.85808
G1 X173.742 Y158.206 E96.01585
G1 X172.401 Y159.176 E96.09842
G1 X169.994 Y160.147 E96.22791
G1 X168.694 Y160.414 E96.29412
G1 X165.875 Y160.412 E96.43476
G1 X163.156 Y159.818 E96.57361
G1 X158.328 Y158.297 E96.82615
G1 X155.029 Y157.196 E96.99966
G1 X152.718 Y156.366 E97.12217
G1 X150.527 Y155.508 E97.23956
G1 X148.065 Y154.405 E97.37415
G1 X145.519 Y153.072 E97.51753
G1 X142.768 Y151.339 E97.67974
G1 X140.566 Y149.666 E97.81771
G1 X136.295 Y145.96 E98.09982
G1 X134.344 Y144.233 E98.22982
G1 X133.867 Y143.841 E98.26062
G1 X132.952 Y144.049 E98.30743
G1 X126.655 Y144.05 E98.62159
G1 X125.305 Y143.818 E98.68993
G1 X124.986 Y143.692 E98.70704
G1 X124.578 Y143.859 E98.72904
G1 X123.489 Y144.018 E98.78394
G1 X116.931 Y144.05 E99.11113
G1 X116.083 Y143.88 E99.15427
G1 X115.658 Y144.229 E99.18171
G1 X109.437 Y149.663 E99.59381
G1 X107.231 Y151.339 E99.73203
G1 X104.256 Y153.201 E99.90712
G1 X101.758 Y154.495 E100.04748
G1 X99.514 Y155.487 E100.16988
G1 X94.051 Y157.52 E100.46069
G1 X91.115 Y158.49 E100.61496
G1 X86.858 Y159.818 E100.83744
G1 X84.145 Y160.412 E100.97599
G1 X81.417 Y160.414 E101.11209
G1 X80.098 Y160.185 E101.17888
G1 X77.599 Y159.177 E101.31332
G1 X76.258 Y158.207 E101.39589
G1 X74.203 Y155.797 E101.5539
G1 X72.726 Y152.733 E101.7236
G1 X71.919 Y150.405 E101.84653
G1 X71.453 Y148.701 E101.93466
G1 X71.157 Y147.535 E101.99468
G1 X70.681 Y145.388 E102.10439
G1 X70.098 Y140.617 E102.34419
G1 X69.719 Y136.483 E102.5513
G1 X69.708 Y136.215 E102.56468
G1 X69.38 Y131.505 E102.80023
G1 X69.338 Y131.039 E102.82358
G1 X69.225 Y128.011 E102.97475
G1 X69.2 Y125.09 E103.12048
G1 X69.306 Y121.574 E103.29598
G1 X69.672 Y116.845 E103.53261
G1 X69.855 Y115.63 E103.59391
G1 X69.992 Y114.983 E103.62691
G1 X70.065 Y114.555 E103.64857
G1 X70.365 Y113.381 E103.70902
G1 X70.711 Y112.151 E103.77277
G1 X71.696 Y107.964 E103.98736
G1 X71.881 Y107.101 E104.0314
G1 X72.66 Y104.201 E104.18121
G1 X73.863 Y100.92 E104.35555
G1 X75.575 Y98.101 E104.5201
G1 X76.622 Y96.954 E104.59758
G0 F3600 X76.882 Y97.262
G1 F1800 X79.469 Y95.63 E104.75018
G1 X80.841 Y95.197 E104.82196
G1 X83.667 Y94.891 E104.96377
G1 X86.68 Y95.431 E105.11648
G1 X89.638 Y96.307 E105.2704
G1 X92.985 Y97.362 E105.44548
G1 X97.192 Y98.859 E105.66826
G1 X99.442 Y99.773 E105.78942
G1 X101.978 Y100.95 E105.9289
G1 X104.297 Y102.207 E106.0605
G1 X107.003 Y103.953 E106.22117
G1 X109.287 Y105.717 E106.36514
G1 X115.315 Y111.014 E106.7655
G1 X115.961 Y111.537 E106.80696
G1 X116.947 Y111.393 E106.85668
G1 X132.948 Y111.381 E107.65497
G1 X133.847 Y111.496 E107.70019
G1 X134.032 Y111.55 E107.7098
G1 X134.518 Y111.157 E107.74098
G1 X138.504 Y107.612 E108.00712
G1 X140.799 Y105.643 E108.15798
G1 X142.956 Y103.977 E108.29395
G1 X145.774 Y102.166 E108.46107
G1 X148.058 Y100.934 E108.59054
G1 X150.713 Y99.71 E108.7364
G1 X153.025 Y98.779 E108.86075
G1 X157.207 Y97.295 E109.08213
G1 X160.437 Y96.283 E109.251
G1 X163.294 Y95.437 E109.39966
G1 X166.336 Y94.891 E109.55385
G1 X169.159 Y95.197 E109.69551
G1 X170.531 Y95.63 E109.76729
G1 X173.118 Y97.262 E109.91989
G1 X174.102 Y98.34 E109.99271
G1 X175.768 Y101.083 E110.15282
G1 X177.021 Y104.514 E110.33505
G1 X177.738 Y107.206 E110.47404
G1 X177.933 Y108.12 E110.52067
G1 X178.561 Y110.868 E110.6613
G1 X178.741 Y111.614 E110.69959
G1 X179.523 Y114.549 E110.85112
G1 X179.795 Y115.923 E110.921
G1 X180.129 Y118.897 E111.07031
G1 X180.346 Y122.677 E111.2592
G1 X180.399 Y125.3 E111.39009
G1 X180.375 Y128.175 E111.53353
G1 X180.249 Y131.195 E111.68433
G1 X179.852 Y136.768 E111.96307
G1 X179.323 Y142.38 E112.2443
G1 X178.988 Y144.922 E112.37222
G1 X178.497 Y147.253 E112.49106
G1 X177.672 Y150.376 E112.65221
G1 X176.886 Y152.626 E112.77112
G1 X175.457 Y155.579 E112.93479
G1 X173.469 Y157.909 E113.08759
G1 X172.206 Y158.823 E113.16537
G1 X169.878 Y159.762 E113.29061
G1 X168.652 Y160.014 E113.35305
G1 X165.919 Y160.012 E113.4894
G1 X163.241 Y159.427 E113.62616
G1 X158.455 Y157.918 E113.87652
G1 X155.164 Y156.82 E114.04961
G1 X152.864 Y155.994 E114.17153
G1 X150.691 Y155.143 E114.28796
G1 X148.229 Y154.04 E114.42255
G1 X145.705 Y152.718 E114.5647
G1 X143.01 Y151.02 E114.72362
G1 X140.808 Y149.347 E114.86159
G1 X136.56 Y145.66 E115.14222
G1 X134.609 Y143.933 E115.27221
G1 X133.969 Y143.408 E115.31351
G1 X132.907 Y143.649 E115.36784
G1 X126.688 Y143.65 E115.6781
G1 X125.373 Y143.424 E115.74467
G1 X124.983 Y143.254 E115.7659
G1 X124.52 Y143.463 E115.79124
G1 X123.431 Y143.622 E115.84615
G1 X116.969 Y143.65 E116.16854
G1 X115.976 Y143.451 E116.21907
G1 X115.404 Y143.92 E116.25597
G1 X109.195 Y149.344 E116.66729
G1 X106.989 Y151.02 E116.80551
G1 X104.072 Y152.846 E116.9772
G1 X101.596 Y154.129 E117.11633
G1 X99.352 Y155.121 E117.23873
G1 X93.926 Y157.14 E117.52757
G1 X90.996 Y158.108 E117.68152
G1 X86.772 Y159.427 E117.90229
G1 X84.1 Y160.012 E118.03875
G1 X81.451 Y160.014 E118.17091
G1 X80.209 Y159.798 E118.23381
G1 X77.794 Y158.824 E118.36372
G1 X76.531 Y157.91 E118.4415
G1 X74.54 Y155.576 E118.59456
G1 X73.104 Y152.602 E118.75932
G1 X72.305 Y150.3 E118.88089
G1 X71.841 Y148.603 E118.96866
G1 X71.548 Y147.448 E119.02811
G1 X71.072 Y145.301 E119.13782
G1 X70.496 Y140.58 E119.3751
G1 X70.119 Y136.467 E119.58116
G1 X70.108 Y136.199 E119.59454
G1 X69.779 Y131.477 E119.83069
G1 X69.738 Y131.024 E119.85339
G1 X69.625 Y128.008 E120.00396
G1 X69.6 Y125.102 E120.14895
G1 X69.705 Y121.605 E120.32349
G1 X70.068 Y116.905 E120.55867
G1 X70.251 Y115.69 E120.61998
G1 X70.383 Y115.066 E120.6518
G1 X70.459 Y114.623 E120.67422
G1 X70.75 Y113.489 E120.73263
G1 X71.096 Y112.259 E120.79638
G1 X72.085 Y108.056 E121.01179
G1 X72.267 Y107.205 E121.05521
G1 X73.036 Y104.339 E121.20325
G1 X74.226 Y101.093 E121.37573
G1 X75.898 Y98.34 E121.53643
G1 X76.882 Y97.262 E121.60925
G0 F3600 X77.142 Y97.57
G1 F1800 X79.639 Y95.995 E121.75653
G1 X80.919 Y95.591 E121.8235
G1 X83.653 Y95.295 E121.96069
G1 X86.567 Y95.815 E122.10837
G1 X89.518 Y96.688 E122.2619
G1 X92.851 Y97.739 E122.43626
G1 X97.041 Y99.23 E122.65814
G1 X99.291 Y100.144 E122.7793
G1 X101.787 Y101.302 E122.91658
G1 X104.106 Y102.559 E123.04818
G1 X106.758 Y104.27 E123.20563
G1 X109.042 Y106.034 E123.34961
G1 X115.063 Y111.325 E123.7495
G1 X115.895 Y111.999 E123.80292
G1 X116.158 Y111.913 E123.81672
G1 X117.005 Y111.789 E123.85943
G1 X132.897 Y111.778 E124.65229
G1 X133.796 Y111.893 E124.6975
G1 X134.113 Y111.998 E124.71416
G1 X134.784 Y111.456 E124.7572
G1 X138.764 Y107.916 E125.02294
G1 X141.044 Y105.96 E125.17281
G1 X143.201 Y104.294 E125.30879
G1 X145.964 Y102.518 E125.47265
G1 X148.248 Y101.286 E125.60212
G1 X150.862 Y100.081 E125.74573
G1 X153.159 Y99.156 E125.86927
G1 X157.327 Y97.677 E126.08991
G1 X160.551 Y96.667 E126.25847
G1 X163.408 Y95.821 E126.40712
G1 X166.35 Y95.295 E126.55623
G1 X169.081 Y95.591 E126.69327
G1 X170.361 Y95.995 E126.76024
G1 X172.858 Y97.57 E126.90753
G1 X173.779 Y98.579 E126.97568
G1 X175.406 Y101.258 E127.13206
G1 X176.634 Y104.617 E127.31049
G1 X177.351 Y107.309 E127.44947
G1 X177.543 Y108.209 E127.49538
G1 X178.172 Y110.962 E127.63627
G1 X178.354 Y111.717 E127.67502
G1 X179.136 Y114.652 E127.82655
G1 X179.397 Y115.968 E127.89349
G1 X179.731 Y118.942 E128.04279
G1 X179.946 Y122.685 E128.22984
G1 X179.999 Y125.297 E128.36018
G1 X179.975 Y128.158 E128.50292
G1 X179.85 Y131.167 E128.65317
G1 X179.454 Y136.73 E128.93141
G1 X178.926 Y142.328 E129.21194
G1 X178.591 Y144.87 E129.33985
G1 X178.11 Y147.151 E129.45616
G1 X177.294 Y150.244 E129.61575
G1 X176.508 Y152.494 E129.73465
G1 X175.12 Y155.358 E129.89343
G1 X173.195 Y157.614 E130.04139
G1 X172.013 Y158.469 E130.11417
G1 X169.762 Y159.377 E130.23527
G1 X168.61 Y159.614 E130.29394
G1 X165.963 Y159.612 E130.426
G1 X163.361 Y159.045 E130.55886
G1 X158.582 Y157.539 E130.80885
G1 X155.299 Y156.443 E130.98152
G1 X153.01 Y155.622 E131.10284
G1 X150.855 Y154.778 E131.21831
G1 X148.393 Y153.675 E131.3529
G1 X145.918 Y152.38 E131.49226
G1 X143.252 Y150.701 E131.64945
G1 X141.05 Y149.028 E131.78742
G1 X136.825 Y145.36 E132.06656
G1 X134.874 Y143.633 E132.19655
G1 X134.072 Y142.975 E132.2483
G1 X132.863 Y143.249 E132.31015
G1 X126.721 Y143.25 E132.61658
G1 X125.441 Y143.03 E132.68137
G1 X124.98 Y142.809 E132.70688
G1 X124.462 Y143.067 E132.73575
G1 X123.373 Y143.226 E132.79066
G1 X117.007 Y143.25 E133.10826
G1 X115.87 Y143.022 E133.16611
G1 X115.141 Y143.619 E133.21312
G1 X108.953 Y149.025 E133.62306
G1 X106.747 Y150.701 E133.76128
G1 X103.888 Y152.491 E133.92957
G1 X101.434 Y153.763 E134.06747
G1 X99.212 Y154.746 E134.18869
G1 X93.8 Y156.76 E134.47678
G1 X90.877 Y157.726 E134.63037
G1 X86.686 Y159.036 E134.84943
G1 X84.055 Y159.612 E134.9838
G1 X81.485 Y159.614 E135.11202
G1 X80.32 Y159.411 E135.17102
G1 X77.987 Y158.47 E135.29653
G1 X76.805 Y157.615 E135.36931
G1 X74.877 Y155.355 E135.51751
G1 X73.482 Y152.471 E135.67734
G1 X72.691 Y150.195 E135.79756
G1 X72.229 Y148.505 E135.88496
G1 X71.939 Y147.361 E135.94384
G1 X71.463 Y145.214 E136.05356
G1 X70.894 Y140.543 E136.28832
G1 X70.519 Y136.451 E136.49333
G1 X70.508 Y136.183 E136.50671
G1 X70.178 Y131.449 E136.74346
G1 X70.138 Y131.009 E136.7655
G1 X70.025 Y128.005 E136.91548
G1 X70 Y125.114 E137.05972
G1 X70.104 Y121.636 E137.23331
G1 X70.34 Y118.645 E137.383
G1 X70.464 Y116.965 E137.46704
G1 X70.647 Y115.75 E137.52834
G1 X70.774 Y115.149 E137.55899
G1 X70.847 Y114.722 E137.5806
G1 X71.135 Y113.597 E137.63854
G1 X71.481 Y112.367 E137.70228
G1 X72.474 Y108.148 E137.91852
G1 X72.653 Y107.309 E137.96132
G1 X73.412 Y104.477 E138.1076
G1 X74.589 Y101.266 E138.27822
G1 X76.221 Y98.579 E138.43506
G1 X77.142 Y97.57 E138.50322
G0 F3600 X77.402 Y97.878
G1 F1800 X79.809 Y96.36 E138.64519
G1 X80.997 Y95.985 E138.70734
G1 X83.64 Y95.699 E138.83997
G1 X86.454 Y96.199 E138.98256
G1 X89.398 Y97.07 E139.13573
G1 X92.717 Y98.116 E139.30935
G1 X96.89 Y99.601 E139.53033
G1 X99.14 Y100.515 E139.65149
G1 X101.596 Y101.654 E139.78655
G1 X103.915 Y102.911 E139.91815
G1 X106.513 Y104.587 E140.0724
G1 X108.797 Y106.351 E140.21638
G1 X114.811 Y111.636 E140.61581
G1 X115.817 Y112.451 E140.6804
G1 X116.216 Y112.309 E140.70153
G1 X117.063 Y112.185 E140.74424
G1 X132.846 Y112.175 E141.53165
G1 X133.745 Y112.29 E141.57687
G1 X134.189 Y112.45 E141.60042
G1 X135.05 Y111.755 E141.65562
G1 X139.025 Y108.22 E141.92101
G1 X141.289 Y106.277 E142.06985
G1 X143.446 Y104.611 E142.20583
G1 X146.154 Y102.87 E142.36644
G1 X148.438 Y101.638 E142.49591
G1 X151.011 Y100.452 E142.63726
G1 X153.293 Y99.533 E142.76
G1 X157.447 Y98.059 E142.9799
G1 X160.665 Y97.051 E143.14814
G1 X163.522 Y96.205 E143.29679
G1 X166.363 Y95.699 E143.44076
G1 X169.003 Y95.985 E143.57324
G1 X170.191 Y96.36 E143.6354
G1 X172.598 Y97.878 E143.77737
G1 X173.456 Y98.818 E143.84086
G1 X175.044 Y101.433 E143.9935
G1 X176.247 Y104.72 E144.16812
G1 X176.964 Y107.412 E144.30711
G1 X177.153 Y108.298 E144.35231
G1 X177.783 Y111.056 E144.49345
G1 X177.967 Y111.82 E144.53266
G1 X178.749 Y114.755 E144.68419
G1 X178.999 Y116.013 E144.74818
G1 X179.333 Y118.987 E144.89749
G1 X179.546 Y122.693 E145.08269
G1 X179.599 Y125.294 E145.21248
G1 X179.575 Y128.141 E145.35452
G1 X179.451 Y131.139 E145.50422
G1 X179.056 Y136.692 E145.78196
G1 X178.529 Y142.276 E146.06178
G1 X178.194 Y144.818 E146.1897
G1 X177.723 Y147.049 E146.30346
G1 X176.916 Y150.112 E146.46149
G1 X176.13 Y152.362 E146.58039
G1 X174.782 Y155.138 E146.73435
G1 X172.922 Y157.317 E146.87728
G1 X171.818 Y158.116 E146.94527
G1 X169.645 Y158.993 E147.06218
G1 X168.569 Y159.214 E147.11698
G1 X166.007 Y159.212 E147.2448
G1 X163.481 Y158.663 E147.37377
G1 X158.709 Y157.16 E147.62337
G1 X155.434 Y156.067 E147.79562
G1 X153.156 Y155.249 E147.91638
G1 X151.019 Y154.413 E148.03086
G1 X148.557 Y153.31 E148.16545
G1 X146.104 Y152.026 E148.30359
G1 X143.494 Y150.382 E148.45748
G1 X141.292 Y148.709 E148.59545
G1 X137.09 Y145.06 E148.8731
G1 X135.139 Y143.333 E149.00309
G1 X134.147 Y142.519 E149.06711
G1 X133.942 Y142.598 E149.07807
G1 X132.82 Y142.849 E149.13543
G1 X126.754 Y142.85 E149.43807
G1 X125.509 Y142.636 E149.50109
G1 X124.985 Y142.36 E149.53064
G1 X124.342 Y142.68 E149.56647
G1 X123.315 Y142.83 E149.61825
G1 X117.045 Y142.85 E149.93106
G1 X115.763 Y142.593 E149.99629
G1 X114.888 Y143.309 E150.0527
G1 X108.711 Y148.706 E150.46193
G1 X106.505 Y150.382 E150.60015
G1 X103.704 Y152.136 E150.76503
G1 X101.272 Y153.397 E150.9017
G1 X99.072 Y154.371 E151.02174
G1 X93.674 Y156.38 E151.30909
G1 X90.758 Y157.344 E151.46232
G1 X86.6 Y158.645 E151.67968
G1 X84.01 Y159.212 E151.81195
G1 X81.519 Y159.214 E151.93623
G1 X80.431 Y159.024 E151.99133
G1 X78.182 Y158.117 E152.11231
G1 X77.078 Y157.318 E152.1803
G1 X75.214 Y155.134 E152.32355
G1 X73.86 Y152.34 E152.47845
G1 X73.077 Y150.089 E152.59736
G1 X72.617 Y148.407 E152.68435
G1 X72.33 Y147.274 E152.74266
G1 X71.854 Y145.127 E152.85238
G1 X71.292 Y140.507 E153.08457
G1 X70.919 Y136.435 E153.28857
G1 X70.908 Y136.167 E153.30196
G1 X70.577 Y131.421 E153.53931
G1 X70.538 Y130.994 E153.5607
G1 X70.425 Y128.002 E153.71008
G1 X70.4 Y125.126 E153.85357
G1 X70.503 Y121.667 E154.02622
G1 X70.739 Y118.676 E154.1759
G1 X70.86 Y117.025 E154.25849
G1 X71.043 Y115.81 E154.31979
G1 X71.165 Y115.232 E154.34926
G1 X71.235 Y114.821 E154.37006
G1 X71.52 Y113.705 E154.42753
G1 X71.866 Y112.475 E154.49127
G1 X72.863 Y108.24 E154.70834
G1 X73.039 Y107.413 E154.75052
G1 X73.798 Y104.581 E154.89679
G1 X74.95 Y101.444 E155.06352
G1 X76.544 Y98.818 E155.21678
G1 X77.402 Y97.878 E155.28027
G0 F3600 X77.662 Y98.186
G1 F1800 X79.975 Y96.727 E155.41671
G1 X81.08 Y96.379 E155.47451
G1 X83.627 Y96.103 E155.60232
G1 X86.341 Y96.583 E155.73982
G1 X89.278 Y97.451 E155.89262
G1 X92.583 Y98.493 E156.0655
G1 X96.74 Y99.972 E156.28563
G1 X98.972 Y100.878 E156.40581
G1 X101.405 Y102.006 E156.53961
G1 X103.724 Y103.263 E156.67121
G1 X106.268 Y104.904 E156.82224
G1 X108.552 Y106.668 E156.96622
G1 X114.559 Y111.947 E157.36519
G1 X115.744 Y112.907 E157.44127
G1 X116.274 Y112.705 E157.46957
G1 X117.121 Y112.581 E157.51228
G1 X132.795 Y112.572 E158.29426
G1 X133.694 Y112.687 E158.33948
G1 X134.26 Y112.907 E158.36977
G1 X135.316 Y112.054 E158.4375
G1 X139.285 Y108.524 E158.7025
G1 X141.534 Y106.594 E158.85035
G1 X143.691 Y104.928 E158.98633
G1 X146.344 Y103.222 E159.14369
G1 X148.628 Y101.99 E159.27316
G1 X151.16 Y100.823 E159.41225
G1 X153.427 Y99.91 E159.53418
G1 X157.567 Y98.441 E159.75334
G1 X160.779 Y97.435 E159.92127
G1 X163.636 Y96.589 E160.06992
G1 X166.376 Y96.103 E160.20875
G1 X168.92 Y96.379 E160.33642
G1 X170.025 Y96.727 E160.39422
G1 X172.338 Y98.186 E160.53065
G1 X173.133 Y99.057 E160.58949
G1 X174.681 Y101.606 E160.73827
G1 X175.86 Y104.823 E160.90921
G1 X176.577 Y107.515 E161.04819
G1 X176.763 Y108.387 E161.09267
G1 X177.394 Y111.149 E161.23402
G1 X177.58 Y111.923 E161.27374
G1 X178.362 Y114.858 E161.42527
G1 X178.601 Y116.058 E161.48632
G1 X178.935 Y119.032 E161.63562
G1 X179.146 Y122.701 E161.81897
G1 X179.199 Y125.291 E161.94821
G1 X179.175 Y128.125 E162.08961
G1 X179.052 Y131.111 E162.23871
G1 X178.658 Y136.654 E162.51595
G1 X178.132 Y142.224 E162.79507
G1 X177.797 Y144.766 E162.92299
G1 X177.336 Y146.947 E163.0342
G1 X176.538 Y149.98 E163.19067
G1 X175.752 Y152.23 E163.30958
G1 X174.444 Y154.918 E163.45871
G1 X172.648 Y157.022 E163.59673
G1 X171.625 Y157.762 E163.65972
G1 X169.529 Y158.608 E163.77248
G1 X168.527 Y158.814 E163.82352
G1 X166.051 Y158.812 E163.94705
G1 X163.566 Y158.272 E164.07392
G1 X158.836 Y156.781 E164.32134
G1 X155.569 Y155.691 E164.49317
G1 X153.302 Y154.876 E164.61336
G1 X151.165 Y154.04 E164.72784
G1 X148.743 Y152.956 E164.86022
G1 X146.29 Y151.672 E164.99836
G1 X143.736 Y150.063 E165.14895
G1 X141.534 Y148.39 E165.28692
G1 X137.355 Y144.76 E165.56309
G1 X135.404 Y143.033 E165.69308
G1 X134.214 Y142.057 E165.76986
G1 X133.855 Y142.208 E165.78929
G1 X132.778 Y142.449 E165.84435
G1 X126.787 Y142.45 E166.14324
G1 X125.641 Y142.253 E166.20126
G1 X124.991 Y141.91 E166.23792
G1 X124.222 Y142.293 E166.28078
G1 X123.257 Y142.434 E166.32944
G1 X117.084 Y142.45 E166.63741
G1 X115.983 Y142.229 E166.69344
G1 X115.72 Y142.11 E166.70784
G1 X114.634 Y143 E166.77789
G1 X108.469 Y148.387 E167.18634
G1 X106.263 Y150.063 E167.32456
G1 X103.52 Y151.781 E167.48603
G1 X101.11 Y153.031 E167.62148
G1 X98.932 Y153.996 E167.74033
G1 X93.548 Y156 E168.02694
G1 X90.638 Y156.962 E168.17985
G1 X86.514 Y158.254 E168.39546
G1 X83.965 Y158.812 E168.52564
G1 X81.554 Y158.814 E168.64592
G1 X80.542 Y158.637 E168.69718
G1 X78.375 Y157.763 E168.81375
G1 X77.352 Y157.023 E168.87675
G1 X75.552 Y154.914 E169.01508
G1 X74.238 Y152.208 E169.16515
G1 X73.463 Y149.983 E169.2827
G1 X73.005 Y148.309 E169.36929
G1 X72.721 Y147.187 E169.42703
G1 X72.245 Y145.04 E169.53674
G1 X71.69 Y140.471 E169.76637
G1 X71.319 Y136.419 E169.96937
G1 X71.308 Y136.151 E169.98275
G1 X70.976 Y131.393 E170.2207
G1 X70.938 Y130.979 E170.24145
G1 X70.825 Y127.999 E170.39023
G1 X70.8 Y125.138 E170.53297
G1 X70.902 Y121.698 E170.70466
G1 X71.138 Y118.707 E170.85435
G1 X71.256 Y117.085 E170.93549
G1 X71.439 Y115.87 E170.99679
G1 X71.556 Y115.315 E171.02508
G1 X71.629 Y114.889 E171.04665
G1 X71.905 Y113.813 E171.10207
G1 X72.251 Y112.583 E171.16581
G1 X73.252 Y108.332 E171.3837
G1 X73.425 Y107.516 E171.42531
G1 X74.173 Y104.719 E171.56976
G1 X75.31 Y101.622 E171.73435
G1 X76.867 Y99.057 E171.88405
G1 X77.662 Y98.186 E171.94289
G0 F3600 X77.922 Y98.494
G1 F1800 X80.141 Y97.094 E172.07378
G1 X81.163 Y96.773 E172.12723
G1 X83.614 Y96.507 E172.25023
G1 X86.271 Y96.977 E172.38484
G1 X89.158 Y97.833 E172.53507
G1 X92.449 Y98.87 E172.70722
G1 X96.59 Y100.343 E172.9265
G1 X98.804 Y101.241 E173.04569
G1 X101.214 Y102.358 E173.17822
G1 X103.533 Y103.615 E173.30981
G1 X106.023 Y105.221 E173.45764
G1 X108.307 Y106.985 E173.60162
G1 X114.307 Y112.258 E174.00013
G1 X115.671 Y113.363 E174.08771
G1 X116.375 Y113.095 E174.12529
G1 X117.179 Y112.977 E174.16583
G1 X132.744 Y112.969 E174.94237
G1 X133.595 Y113.078 E174.98517
G1 X134.33 Y113.364 E175.02452
G1 X135.582 Y112.353 E175.10481
G1 X139.545 Y108.828 E175.36942
G1 X141.779 Y106.911 E175.51628
G1 X143.936 Y105.245 E175.65226
G1 X146.534 Y103.574 E175.80637
G1 X148.818 Y102.342 E175.93584
G1 X151.309 Y101.194 E176.07268
G1 X153.561 Y100.287 E176.1938
G1 X157.687 Y98.823 E176.41222
G1 X160.893 Y97.819 E176.57983
G1 X163.75 Y96.973 E176.72848
G1 X166.389 Y96.507 E176.86218
G1 X168.837 Y96.773 E176.98503
G1 X169.859 Y97.094 E177.03847
G1 X172.078 Y98.494 E177.16937
G1 X172.81 Y99.296 E177.22354
G1 X174.318 Y101.779 E177.36848
G1 X175.473 Y104.926 E177.53572
G1 X176.19 Y107.618 E177.67471
G1 X176.373 Y108.476 E177.71848
G1 X177.005 Y111.242 E177.86003
G1 X177.191 Y112.016 E177.89974
G1 X177.97 Y114.936 E178.05052
G1 X178.203 Y116.103 E178.10989
G1 X178.537 Y119.077 E178.25919
G1 X178.746 Y122.709 E178.4407
G1 X178.799 Y125.288 E178.56939
G1 X178.775 Y128.109 E178.71014
G1 X178.653 Y131.083 E178.85863
G1 X178.26 Y136.616 E179.13537
G1 X177.735 Y142.172 E179.4138
G1 X177.4 Y144.714 E179.54171
G1 X176.949 Y146.845 E179.65038
G1 X176.16 Y149.848 E179.80529
G1 X175.374 Y152.098 E179.92419
G1 X174.106 Y154.698 E180.06851
G1 X172.375 Y156.725 E180.2015
G1 X171.43 Y157.409 E180.2597
G1 X169.413 Y158.223 E180.36821
G1 X168.485 Y158.414 E180.41548
G1 X166.095 Y158.412 E180.53472
G1 X163.686 Y157.89 E180.65769
G1 X158.963 Y156.402 E180.90474
G1 X155.704 Y155.315 E181.07614
G1 X153.448 Y154.503 E181.19576
G1 X151.311 Y153.667 E181.31024
G1 X148.929 Y152.602 E181.44042
G1 X146.476 Y151.318 E181.57855
G1 X143.978 Y149.744 E181.72585
G1 X141.776 Y148.071 E181.86382
G1 X137.62 Y144.46 E182.1385
G1 X135.669 Y142.733 E182.26849
G1 X134.276 Y141.592 E182.35833
G1 X133.768 Y141.818 E182.38606
G1 X132.736 Y142.049 E182.43883
G1 X126.82 Y142.05 E182.73398
G1 X125.773 Y141.87 E182.78698
G1 X124.997 Y141.46 E182.83076
G1 X124.102 Y141.906 E182.88065
G1 X123.199 Y142.038 E182.92618
G1 X117.123 Y142.05 E183.22932
G1 X116.062 Y141.837 E183.2833
G1 X115.671 Y141.633 E183.30531
G1 X114.38 Y142.691 E183.38858
G1 X108.227 Y148.068 E183.79625
G1 X106.021 Y149.744 E183.93447
G1 X103.336 Y151.426 E184.09254
G1 X100.948 Y152.665 E184.22676
G1 X98.77 Y153.63 E184.34561
G1 X93.422 Y155.62 E184.63029
G1 X90.518 Y156.58 E184.78289
G1 X86.428 Y157.863 E184.99674
G1 X83.92 Y158.412 E185.12483
G1 X81.589 Y158.414 E185.24112
G1 X80.653 Y158.25 E185.28853
G1 X78.57 Y157.41 E185.40058
G1 X77.625 Y156.726 E185.45879
G1 X75.89 Y154.694 E185.59209
G1 X74.616 Y152.076 E185.73735
G1 X73.841 Y149.851 E185.85489
G1 X73.393 Y148.211 E185.93971
G1 X73.112 Y147.1 E185.99688
G1 X72.636 Y144.953 E186.1066
G1 X72.088 Y140.435 E186.33365
G1 X71.719 Y136.403 E186.53565
G1 X71.708 Y136.135 E186.54903
G1 X71.375 Y131.365 E186.78759
G1 X71.338 Y130.964 E186.80768
G1 X71.225 Y127.995 E186.95591
G1 X71.2 Y125.15 E187.09786
G1 X71.301 Y121.729 E187.2686
G1 X71.537 Y118.738 E187.41829
G1 X71.655 Y117.114 E187.49952
G1 X71.831 Y115.952 E187.55816
G1 X71.947 Y115.397 E187.58645
G1 X72.017 Y114.988 E187.60715
G1 X72.29 Y113.921 E187.6621
G1 X72.636 Y112.691 E187.72584
G1 X73.641 Y108.424 E187.94455
G1 X73.811 Y107.619 E187.9856
G1 X74.549 Y104.857 E188.12823
G1 X75.673 Y101.795 E188.29096
G1 X77.19 Y99.296 E188.43681
G1 X77.922 Y98.494 E188.49098
G0 F3600 X78.182 Y98.802
G1 F1800 X80.307 Y97.461 E188.61634
G1 X81.246 Y97.167 E188.66543
G1 X83.602 Y96.911 E188.78366
G1 X86.157 Y97.361 E188.91309
G1 X89.038 Y98.214 E189.063
G1 X92.315 Y99.247 E189.23442
G1 X96.44 Y100.714 E189.45284
G1 X98.636 Y101.604 E189.57106
G1 X101.024 Y102.71 E189.70235
G1 X103.316 Y103.951 E189.83238
G1 X105.778 Y105.538 E189.97852
G1 X108.062 Y107.302 E190.1225
G1 X114.055 Y112.569 E190.52055
G1 X115.598 Y113.819 E190.61962
G1 X116.476 Y113.485 E190.66649
G1 X117.237 Y113.373 E190.70486
G1 X132.693 Y113.366 E191.47597
G1 X133.496 Y113.469 E191.51636
G1 X134.4 Y113.821 E191.56476
G1 X135.848 Y112.652 E191.6576
G1 X139.805 Y109.132 E191.92182
G1 X142.024 Y107.228 E192.0677
G1 X144.181 Y105.562 E192.20367
G1 X146.75 Y103.911 E192.35602
G1 X149.008 Y102.694 E192.484
G1 X151.458 Y101.565 E192.61858
G1 X153.695 Y100.664 E192.7389
G1 X157.806 Y99.205 E192.95653
G1 X161.007 Y98.203 E193.12387
G1 X163.864 Y97.357 E193.27252
G1 X166.401 Y96.911 E193.40104
G1 X168.754 Y97.167 E193.51912
G1 X169.693 Y97.461 E193.56821
G1 X171.818 Y98.802 E193.69357
G1 X172.487 Y99.535 E193.74308
G1 X173.958 Y101.957 E193.88446
G1 X175.086 Y105.029 E194.04773
G1 X175.803 Y107.721 E194.18671
G1 X175.983 Y108.565 E194.22977
G1 X176.616 Y111.335 E194.37152
G1 X176.802 Y112.109 E194.41124
G1 X177.578 Y115.015 E194.5613
G1 X177.805 Y116.148 E194.61895
G1 X178.139 Y119.122 E194.76826
G1 X178.346 Y122.717 E194.94791
G1 X178.399 Y125.285 E195.07605
G1 X178.375 Y128.093 E195.21615
G1 X178.254 Y131.055 E195.36405
G1 X177.862 Y136.578 E195.64028
G1 X177.338 Y142.12 E195.91801
G1 X177.003 Y144.662 E196.04593
G1 X176.562 Y146.743 E196.15205
G1 X175.782 Y149.716 E196.3054
G1 X174.996 Y151.966 E196.4243
G1 X173.769 Y154.476 E196.56369
G1 X172.101 Y156.43 E196.69186
G1 X171.237 Y157.055 E196.74506
G1 X169.297 Y157.838 E196.84944
G1 X168.443 Y158.014 E196.89294
G1 X166.138 Y158.012 E197.00793
G1 X163.806 Y157.508 E197.12696
G1 X159.09 Y156.023 E197.37364
G1 X155.84 Y154.939 E197.54456
G1 X153.594 Y154.13 E197.66366
G1 X151.457 Y153.294 E197.77814
G1 X149.115 Y152.248 E197.90611
G1 X146.662 Y150.964 E198.04424
G1 X144.22 Y149.425 E198.18825
G1 X142.018 Y147.752 E198.32622
G1 X137.885 Y144.161 E198.59938
G1 X135.923 Y142.424 E198.73011
G1 X134.339 Y141.126 E198.83228
G1 X133.641 Y141.437 E198.8704
G1 X132.694 Y141.649 E198.91882
G1 X126.853 Y141.65 E199.21023
G1 X125.905 Y141.487 E199.25822
G1 X124.974 Y140.995 E199.31075
G1 X124.839 Y141.092 E199.31904
G1 X123.982 Y141.519 E199.36681
G1 X123.141 Y141.642 E199.40922
G1 X117.162 Y141.65 E199.70751
G1 X116.141 Y141.445 E199.75947
G1 X115.632 Y141.148 E199.78887
G1 X114.126 Y142.382 E199.886
G1 X107.985 Y147.749 E200.2929
G1 X105.779 Y149.425 E200.43111
G1 X103.152 Y151.071 E200.58578
G1 X100.786 Y152.299 E200.71877
G1 X98.63 Y153.255 E200.83643
G1 X93.296 Y155.24 E201.12038
G1 X90.398 Y156.198 E201.27265
G1 X86.342 Y157.472 E201.48476
G1 X83.875 Y158.012 E201.61075
G1 X81.624 Y158.014 E201.72305
G1 X80.764 Y157.863 E201.76661
G1 X78.763 Y157.056 E201.87426
G1 X77.899 Y156.431 E201.92746
G1 X76.228 Y154.474 E202.05584
G1 X74.994 Y151.944 E202.19628
G1 X74.219 Y149.719 E202.31383
G1 X73.781 Y148.113 E202.39688
G1 X73.503 Y147.013 E202.45348
G1 X73.027 Y144.866 E202.5632
G1 X72.486 Y140.399 E202.78768
G1 X72.119 Y136.387 E202.98868
G1 X72.108 Y136.119 E203.00206
G1 X71.774 Y131.337 E203.24122
G1 X71.738 Y130.949 E203.26066
G1 X71.625 Y127.991 E203.40834
G1 X71.6 Y125.162 E203.54948
G1 X71.7 Y121.76 E203.71928
G1 X71.936 Y118.769 E203.86897
G1 X72.054 Y117.143 E203.9503
G1 X72.222 Y116.034 E204.00626
G1 X72.342 Y115.463 E204.03537
G1 X72.405 Y115.087 E204.05439
G1 X72.675 Y114.029 E204.10887
G1 X73.021 Y112.799 E204.17262
G1 X74.03 Y108.516 E204.39215
G1 X74.197 Y107.722 E204.43262
G1 X74.925 Y104.995 E204.57344
G1 X76.036 Y101.968 E204.73431
G1 X77.513 Y99.535 E204.87631
G1 X78.182 Y98.802 E204.92582
G0 F3600 X78.444 Y99.109
G1 F1800 X80.473 Y97.829 E205.0455
G1 X81.329 Y97.561 E205.09026
G1 X83.59 Y97.315 E205.20372
G1 X86.044 Y97.745 E205.32802
G1 X88.918 Y98.595 E205.47754
G1 X92.181 Y99.624 E205.64824
G1 X96.29 Y101.085 E205.86581
G1 X98.468 Y101.967 E205.98304
G1 X100.834 Y103.062 E206.11311
G1 X103.099 Y104.287 E206.24158
G1 X105.533 Y105.855 E206.38603
G1 X107.817 Y107.619 E206.53001
G1 X113.803 Y112.88 E206.9276
G1 X115.565 Y114.308 E207.04075
G1 X115.774 Y114.176 E207.05308
G1 X116.578 Y113.875 E207.09591
G1 X117.295 Y113.769 E207.13207
G1 X132.642 Y113.763 E207.89774
G1 X133.396 Y113.86 E207.93566
G1 X134.216 Y114.174 E207.97947
G1 X134.431 Y114.31 E207.99216
G1 X136.114 Y112.951 E208.10008
G1 X140.065 Y109.436 E208.36392
G1 X142.269 Y107.545 E208.5088
G1 X144.426 Y105.879 E208.64477
G1 X146.94 Y104.263 E208.79388
G1 X149.176 Y103.057 E208.92062
G1 X151.607 Y101.936 E209.05418
G1 X153.829 Y101.041 E209.17369
G1 X157.925 Y99.587 E209.39053
G1 X161.121 Y98.587 E209.55761
G1 X163.978 Y97.741 E209.70626
G1 X166.413 Y97.315 E209.82959
G1 X168.671 Y97.561 E209.94291
G1 X169.527 Y97.829 E209.98766
G1 X171.556 Y99.109 E210.10734
G1 X172.166 Y99.778 E210.15251
G1 X173.598 Y102.135 E210.2901
G1 X174.699 Y105.132 E210.4494
G1 X175.416 Y107.824 E210.58838
G1 X175.593 Y108.654 E210.63072
G1 X176.227 Y111.428 E210.77269
G1 X176.413 Y112.202 E210.8124
G1 X177.186 Y115.094 E210.96175
G1 X177.407 Y116.193 E211.01767
G1 X177.741 Y119.167 E211.16698
G1 X177.946 Y122.725 E211.34478
G1 X177.999 Y125.282 E211.47238
G1 X177.975 Y128.077 E211.61183
G1 X177.855 Y131.027 E211.75913
G1 X177.464 Y136.54 E212.03486
G1 X176.941 Y142.068 E212.31189
G1 X176.606 Y144.61 E212.4398
G1 X176.175 Y146.642 E212.54344
G1 X175.404 Y149.584 E212.69517
G1 X174.618 Y151.834 E212.81408
G1 X173.432 Y154.254 E212.94853
G1 X171.828 Y156.133 E213.07178
G1 X171.042 Y156.702 E213.12019
G1 X169.181 Y157.453 E213.22032
G1 X168.401 Y157.614 E213.26005
G1 X166.181 Y157.612 E213.37081
G1 X163.89 Y157.117 E213.48774
G1 X159.217 Y155.644 E213.73219
G1 X155.976 Y154.563 E213.90264
G1 X153.74 Y153.757 E214.02122
G1 X151.603 Y152.921 E214.1357
G1 X149.301 Y151.894 E214.26146
G1 X146.848 Y150.61 E214.39959
G1 X144.462 Y149.106 E214.54031
G1 X142.26 Y147.433 E214.67828
G1 X138.15 Y143.862 E214.94991
G1 X136.177 Y142.115 E215.08138
G1 X134.402 Y140.66 E215.19589
G1 X133.514 Y141.056 E215.2444
G1 X132.652 Y141.249 E215.28847
G1 X126.886 Y141.25 E215.57613
G1 X126.037 Y141.104 E215.61911
G1 X125.215 Y140.669 E215.66551
G1 X124.996 Y140.463 E215.68051
G1 X124.661 Y140.734 E215.70201
G1 X123.862 Y141.132 E215.74654
G1 X123.083 Y141.246 E215.78582
G1 X117.201 Y141.25 E216.07928
G1 X116.285 Y141.066 E216.12589
G1 X115.594 Y140.662 E216.16582
G1 X113.872 Y142.073 E216.27689
G1 X107.743 Y147.43 E216.683
G1 X105.537 Y149.106 E216.82122
G1 X102.968 Y150.716 E216.97248
G1 X100.624 Y151.933 E217.10424
G1 X98.468 Y152.889 E217.22191
G1 X93.17 Y154.86 E217.50393
G1 X90.278 Y155.816 E217.65589
G1 X86.256 Y157.081 E217.86624
G1 X83.83 Y157.612 E217.99013
G1 X81.659 Y157.614 E218.09845
G1 X80.876 Y157.476 E218.13811
G1 X78.958 Y156.703 E218.24128
G1 X78.172 Y156.134 E218.28969
G1 X76.565 Y154.252 E218.41316
G1 X75.372 Y151.812 E218.54866
G1 X74.597 Y149.587 E218.66621
G1 X74.169 Y148.015 E218.74749
G1 X73.894 Y146.926 E218.80353
G1 X73.418 Y144.779 E218.91324
G1 X72.884 Y140.363 E219.13516
G1 X72.519 Y136.371 E219.33515
G1 X72.508 Y136.103 E219.34853
G1 X72.173 Y131.309 E219.58829
G1 X72.138 Y130.934 E219.60708
G1 X72.025 Y127.987 E219.75422
G1 X72 Y125.174 E219.89456
G1 X72.099 Y121.791 E220.06341
G1 X72.335 Y118.8 E220.2131
G1 X72.453 Y117.172 E220.29453
G1 X72.613 Y116.116 E220.34782
G1 X72.733 Y115.545 E220.37693
G1 X72.799 Y115.154 E220.39671
G1 X73.06 Y114.137 E220.44909
G1 X73.406 Y112.907 E220.51284
G1 X74.419 Y108.608 E220.73319
G1 X74.584 Y107.825 E220.77311
G1 X75.301 Y105.133 E220.9121
G1 X76.399 Y102.141 E221.07111
G1 X77.834 Y99.778 E221.20903
G1 X78.444 Y99.109 E221.2542
G0 F3600 X78.703 Y99.419
G1 F1800 X80.642 Y98.195 E221.3686
G1 X81.41 Y97.955 E221.40874
G1 X83.578 Y97.719 E221.51754
G1 X85.931 Y98.129 E221.6367
G1 X88.798 Y98.977 E221.78587
G1 X92.047 Y100.001 E221.95582
G1 X96.14 Y101.456 E222.17254
G1 X98.3 Y102.33 E222.28879
G1 X100.644 Y103.414 E222.41763
G1 X102.882 Y104.623 E222.54454
G1 X105.288 Y106.172 E222.6873
G1 X107.572 Y107.936 E222.83127
G1 X113.551 Y113.191 E223.22841
G1 X115.548 Y114.809 E223.35663
G1 X115.914 Y114.551 E223.37897
G1 X116.678 Y114.265 E223.41967
G1 X117.354 Y114.165 E223.45377
G1 X132.591 Y114.16 E224.21394
G1 X133.301 Y114.251 E224.24966
G1 X134.073 Y114.547 E224.2909
G1 X134.446 Y114.812 E224.31373
G1 X136.38 Y113.25 E224.43776
G1 X140.325 Y109.74 E224.7012
G1 X142.514 Y107.862 E224.84509
G1 X144.671 Y106.196 E224.98107
G1 X147.13 Y104.615 E225.12692
G1 X149.366 Y103.409 E225.25366
G1 X151.756 Y102.307 E225.38497
G1 X153.963 Y101.418 E225.50367
G1 X158.045 Y99.969 E225.71977
G1 X161.235 Y98.97 E225.88654
G1 X164.047 Y98.135 E226.03289
G1 X166.425 Y97.719 E226.15333
G1 X168.59 Y97.955 E226.26198
G1 X169.358 Y98.195 E226.30213
G1 X171.297 Y99.419 E226.41652
G1 X171.843 Y100.017 E226.45692
G1 X173.238 Y102.313 E226.59096
G1 X174.312 Y105.235 E226.74627
G1 X175.029 Y107.927 E226.88526
G1 X175.203 Y108.743 E226.92688
G1 X175.838 Y111.521 E227.06905
G1 X176.024 Y112.295 E227.10877
G1 X176.794 Y115.173 E227.2574
G1 X177.009 Y116.238 E227.31161
G1 X177.343 Y119.212 E227.46091
G1 X177.546 Y122.733 E227.63687
G1 X177.599 Y125.279 E227.76392
G1 X177.575 Y128.061 E227.90272
G1 X177.456 Y130.999 E228.04941
G1 X177.066 Y136.502 E228.32465
G1 X176.544 Y142.016 E228.60097
G1 X176.209 Y144.558 E228.72889
G1 X175.788 Y146.541 E228.83003
G1 X175.026 Y149.452 E228.98015
G1 X174.24 Y151.702 E229.09906
G1 X173.096 Y154.032 E229.22856
G1 X171.554 Y155.838 E229.34703
G1 X170.849 Y156.348 E229.39044
G1 X169.065 Y157.068 E229.48642
G1 X168.359 Y157.214 E229.52239
G1 X166.224 Y157.212 E229.62891
G1 X164.01 Y156.735 E229.7419
G1 X159.344 Y155.265 E229.98596
G1 X156.112 Y154.187 E230.15594
G1 X153.886 Y153.384 E230.274
G1 X151.749 Y152.548 E230.38849
G1 X149.487 Y151.54 E230.51204
G1 X147.034 Y150.256 E230.65017
G1 X144.704 Y148.787 E230.78759
G1 X142.502 Y147.114 E230.92556
G1 X138.415 Y143.563 E231.19567
G1 X136.431 Y141.806 E231.32789
G1 X134.465 Y140.194 E231.45473
G1 X133.387 Y140.675 E231.51362
G1 X132.61 Y140.849 E231.55334
G1 X126.919 Y140.85 E231.83727
G1 X126.169 Y140.721 E231.87524
G1 X125.402 Y140.315 E231.91853
G1 X125.038 Y139.915 E231.94551
G1 X124.442 Y140.397 E231.98376
G1 X123.742 Y140.745 E232.02276
G1 X123.025 Y140.85 E232.05891
G1 X117.24 Y140.85 E232.34752
G1 X116.429 Y140.687 E232.38879
G1 X115.556 Y140.176 E232.43926
G1 X113.618 Y141.764 E232.56426
G1 X107.501 Y147.111 E232.9696
G1 X105.295 Y148.787 E233.10781
G1 X102.784 Y150.361 E233.25567
G1 X100.462 Y151.567 E233.3862
G1 X98.306 Y152.523 E233.50387
G1 X93.044 Y154.48 E233.78396
G1 X90.158 Y155.434 E233.9356
G1 X86.17 Y156.69 E234.1442
G1 X83.785 Y157.212 E234.26601
G1 X81.695 Y157.214 E234.37028
G1 X80.987 Y157.089 E234.40614
G1 X79.151 Y156.349 E234.5049
G1 X78.446 Y155.839 E234.54831
G1 X76.902 Y154.03 E234.66697
G1 X75.75 Y151.68 E234.79754
G1 X74.975 Y149.455 E234.91509
G1 X74.557 Y147.917 E234.9946
G1 X74.285 Y146.839 E235.05007
G1 X73.809 Y144.692 E235.15978
G1 X73.282 Y140.327 E235.37914
G1 X72.919 Y136.355 E235.57813
G1 X72.908 Y136.087 E235.59151
G1 X72.572 Y131.281 E235.83187
G1 X72.538 Y130.919 E235.85
G1 X72.425 Y127.983 E235.99659
G1 X72.4 Y125.186 E236.13614
G1 X72.498 Y121.822 E236.30404
G1 X72.734 Y118.831 E236.45373
G1 X72.849 Y117.232 E236.53371
G1 X73.005 Y116.198 E236.58588
G1 X73.124 Y115.627 E236.61498
G1 X73.187 Y115.253 E236.6339
G1 X73.445 Y114.245 E236.68581
G1 X73.791 Y113.015 E236.74956
G1 X74.808 Y108.7 E236.97073
G1 X74.971 Y107.928 E237.01009
G1 X75.688 Y105.236 E237.14908
G1 X76.759 Y102.319 E237.30411
G1 X78.157 Y100.017 E237.43848
G1 X78.703 Y99.419 E237.47888
G0 F3600 X78.963 Y99.727
G1 F1800 X80.809 Y98.562 E237.58778
G1 X81.491 Y98.349 E237.62343
G1 X83.566 Y98.123 E237.72756
G1 X85.862 Y98.523 E237.84383
G1 X88.678 Y99.359 E237.99039
G1 X91.913 Y100.378 E238.1596
G1 X95.99 Y101.827 E238.37546
G1 X98.132 Y102.693 E238.49073
G1 X100.454 Y103.766 E238.61835
G1 X102.665 Y104.959 E238.74369
G1 X105.071 Y106.508 E238.88645
G1 X107.327 Y108.252 E239.02871
G1 X113.299 Y113.502 E239.42542
G1 X114.989 Y114.871 E239.53392
G1 X115.569 Y115.3 E239.56992
G1 X116.054 Y114.926 E239.60047
G1 X116.778 Y114.655 E239.63904
G1 X117.413 Y114.561 E239.67106
G1 X132.54 Y114.557 E240.42575
G1 X133.202 Y114.642 E240.45905
G1 X133.93 Y114.921 E240.49795
G1 X134.427 Y115.305 E240.52928
G1 X135.011 Y114.87 E240.56561
G1 X136.646 Y113.549 E240.67048
G1 X140.585 Y110.044 E240.93353
G1 X142.759 Y108.179 E241.07644
G1 X144.916 Y106.513 E241.21241
G1 X147.32 Y104.967 E241.35501
G1 X149.556 Y103.761 E241.48175
G1 X151.905 Y102.678 E241.6108
G1 X154.097 Y101.795 E241.7287
G1 X158.165 Y100.351 E241.94406
G1 X161.349 Y99.353 E242.11053
G1 X164.116 Y98.529 E242.25457
G1 X166.437 Y98.123 E242.37212
G1 X168.509 Y98.349 E242.47611
G1 X169.191 Y98.562 E242.51175
G1 X171.037 Y99.727 E242.62066
G1 X171.52 Y100.256 E242.65639
G1 X172.878 Y102.491 E242.78687
G1 X173.925 Y105.338 E242.93821
G1 X174.642 Y108.03 E243.07719
G1 X174.813 Y108.832 E243.1181
G1 X175.449 Y111.615 E243.26053
G1 X175.636 Y112.389 E243.30025
G1 X176.402 Y115.253 E243.44816
G1 X176.611 Y116.283 E243.5006
G1 X176.945 Y119.257 E243.6499
G1 X177.146 Y122.741 E243.82401
G1 X177.199 Y125.276 E243.95051
G1 X177.175 Y128.045 E244.08866
G1 X177.057 Y130.971 E244.23476
G1 X176.668 Y136.464 E244.50949
G1 X176.147 Y141.964 E244.78511
G1 X175.812 Y144.506 E244.91303
G1 X175.401 Y146.44 E245.01167
G1 X174.648 Y149.32 E245.16019
G1 X173.862 Y151.57 E245.27909
G1 X172.758 Y153.811 E245.40373
G1 X171.28 Y155.543 E245.51732
G1 X170.656 Y155.994 E245.55573
G1 X168.949 Y156.683 E245.64757
G1 X168.317 Y156.814 E245.67977
G1 X166.266 Y156.812 E245.7821
G1 X164.13 Y156.353 E245.8911
G1 X159.471 Y154.886 E246.13479
G1 X156.248 Y153.811 E246.30429
G1 X154.032 Y153.011 E246.42183
G1 X151.895 Y152.175 E246.53631
G1 X149.65 Y151.175 E246.65893
G1 X147.247 Y149.918 E246.79422
G1 X144.946 Y148.468 E246.92991
G1 X142.744 Y146.795 E247.06788
G1 X138.68 Y143.264 E247.33648
G1 X136.685 Y141.497 E247.46943
G1 X134.855 Y139.997 E247.58748
G1 X134.462 Y139.711 E247.61173
G1 X134.279 Y139.841 E247.62293
G1 X133.258 Y140.294 E247.67866
G1 X132.567 Y140.449 E247.71399
G1 X126.952 Y140.45 E247.99412
G1 X126.301 Y140.338 E248.02708
G1 X125.589 Y139.961 E248.06727
G1 X125.177 Y139.451 E248.09998
G1 X125.014 Y139.122 E248.1183
G1 X124.736 Y139.646 E248.14789
G1 X124.226 Y140.058 E248.1806
G1 X123.62 Y140.359 E248.21436
G1 X123.025 Y140.45 E248.24439
G1 X117.279 Y140.45 E248.53106
G1 X116.573 Y140.308 E248.56699
G1 X115.727 Y139.813 E248.61589
G1 X115.566 Y139.685 E248.62615
G1 X115.042 Y140.08 E248.65889
G1 X113.364 Y141.455 E248.76712
G1 X107.259 Y146.792 E249.17168
G1 X105.053 Y148.468 E249.30989
G1 X102.6 Y150.006 E249.45434
G1 X100.3 Y151.201 E249.58365
G1 X98.144 Y152.157 E249.70131
G1 X92.918 Y154.1 E249.97948
G1 X90.038 Y155.052 E250.13081
G1 X86.05 Y156.308 E250.33941
G1 X83.741 Y156.812 E250.45731
G1 X81.731 Y156.814 E250.55759
G1 X81.098 Y156.702 E250.58966
G1 X79.344 Y155.995 E250.68401
G1 X78.72 Y155.544 E250.72242
G1 X77.24 Y153.809 E250.8362
G1 X76.128 Y151.548 E250.9619
G1 X75.353 Y149.323 E251.07945
G1 X74.945 Y147.819 E251.1572
G1 X74.676 Y146.752 E251.2121
G1 X74.2 Y144.605 E251.32181
G1 X73.68 Y140.291 E251.5386
G1 X73.319 Y136.339 E251.73658
G1 X73.308 Y136.071 E251.74996
G1 X72.971 Y131.253 E251.99092
G1 X72.938 Y130.904 E252.00841
G1 X72.825 Y127.979 E252.15445
G1 X72.8 Y125.198 E252.2932
G1 X72.897 Y121.853 E252.46015
G1 X73.133 Y118.862 E252.60984
G1 X73.248 Y117.261 E252.68992
G1 X73.397 Y116.28 E252.73942
G1 X73.516 Y115.709 E252.76852
G1 X73.575 Y115.352 E252.78657
G1 X73.83 Y114.353 E252.83801
G1 X74.176 Y113.123 E252.90176
G1 X75.197 Y108.792 E253.12376
G1 X75.358 Y108.031 E253.16256
G1 X76.075 Y105.339 E253.30155
G1 X77.119 Y102.497 E253.4526
G1 X78.48 Y100.256 E253.58341
G1 X78.963 Y99.727 E253.61915
G0 F3600 X79.223 Y100.035
G1 F1800 X80.976 Y98.929 E253.72256
G1 X81.572 Y98.743 E253.75371
G1 X83.554 Y98.527 E253.85317
G1 X85.793 Y98.917 E253.96656
G1 X88.558 Y99.741 E254.1105
G1 X91.779 Y100.755 E254.27897
G1 X95.84 Y102.198 E254.49399
G1 X97.964 Y103.056 E254.60827
G1 X100.264 Y104.118 E254.73466
G1 X102.448 Y105.295 E254.85844
G1 X104.854 Y106.844 E255.0012
G1 X107.082 Y108.568 E255.14175
G1 X113.047 Y113.813 E255.53802
G1 X114.751 Y115.193 E255.64742
G1 X115.574 Y115.802 E255.6985
G1 X116.25 Y115.28 E255.74111
G1 X116.878 Y115.045 E255.77456
G1 X117.472 Y114.957 E255.80452
G1 X132.489 Y114.954 E256.55372
G1 X133.103 Y115.033 E256.58461
G1 X133.787 Y115.295 E256.62115
G1 X134.283 Y115.705 E256.65325
G1 X134.392 Y115.83 E256.66153
G1 X135.25 Y115.191 E256.7149
G1 X136.912 Y113.848 E256.82151
G1 X140.845 Y110.348 E257.08417
G1 X143.004 Y108.496 E257.22608
G1 X145.161 Y106.83 E257.36206
G1 X147.536 Y105.304 E257.5029
G1 X149.746 Y104.113 E257.62815
G1 X152.054 Y103.049 E257.75494
G1 X154.231 Y102.172 E257.87203
G1 X158.285 Y100.733 E258.08665
G1 X161.464 Y99.736 E258.25287
G1 X164.185 Y98.923 E258.39455
G1 X166.449 Y98.527 E258.50922
G1 X168.428 Y98.743 E258.60853
G1 X169.024 Y98.929 E258.63968
G1 X170.777 Y100.035 E258.74309
G1 X171.197 Y100.496 E258.77421
G1 X172.518 Y102.669 E258.90108
G1 X173.538 Y105.441 E259.04844
G1 X174.255 Y108.133 E259.18743
G1 X174.423 Y108.921 E259.22762
G1 X175.06 Y111.709 E259.3703
G1 X175.249 Y112.491 E259.41044
G1 X175.588 Y113.777 E259.47679
G1 X176.01 Y115.333 E259.55722
G1 X176.213 Y116.328 E259.60789
G1 X176.547 Y119.302 E259.75719
G1 X176.746 Y122.749 E259.92945
G1 X176.799 Y125.273 E260.0554
G1 X176.775 Y128.029 E260.1929
G1 X176.658 Y130.943 E260.3384
G1 X176.27 Y136.426 E260.61263
G1 X175.75 Y141.912 E260.88756
G1 X175.415 Y144.454 E261.01547
G1 X175.014 Y146.339 E261.11162
G1 X174.27 Y149.188 E261.25853
G1 X173.484 Y151.438 E261.37743
G1 X172.421 Y153.59 E261.49718
G1 X171.006 Y155.248 E261.60592
G1 X170.463 Y155.64 E261.63934
G1 X168.833 Y156.298 E261.72703
G1 X168.275 Y156.414 E261.75547
G1 X166.308 Y156.412 E261.8536
G1 X164.214 Y155.962 E261.96046
G1 X159.598 Y154.507 E262.20192
G1 X156.384 Y153.435 E262.37095
G1 X154.178 Y152.638 E262.48797
G1 X152.041 Y151.802 E262.60245
G1 X149.813 Y150.81 E262.72413
G1 X147.46 Y149.58 E262.85659
G1 X145.188 Y148.149 E262.99055
G1 X142.986 Y146.476 E263.12852
G1 X138.945 Y142.965 E263.39559
G1 X136.939 Y141.188 E263.52929
G1 X135.109 Y139.688 E263.64734
G1 X134.451 Y139.209 E263.68795
G1 X134.117 Y139.475 E263.70925
G1 X133.13 Y139.913 E263.76312
G1 X132.524 Y140.049 E263.79411
G1 X126.985 Y140.05 E264.07045
G1 X126.433 Y139.955 E264.0984
G1 X125.847 Y139.645 E264.13147
G1 X125.535 Y139.273 E264.15569
G1 X125.262 Y138.724 E264.18628
G1 X125.185 Y138.25 E264.21024
G1 X125.185 Y126.026 E264.8201
G1 X124.825 Y126.026 E264.83806
G1 X124.825 Y138.25 E265.44792
G1 X124.73 Y138.802 E265.47586
G1 X124.42 Y139.388 E265.50893
G1 X124.048 Y139.7 E265.53316
G1 X123.499 Y139.973 E265.56375
G1 X123.025 Y140.05 E265.5877
G1 X117.318 Y140.05 E265.87243
G1 X116.717 Y139.929 E265.90301
G1 X115.929 Y139.468 E265.94856
G1 X115.579 Y139.174 E265.97136
G1 X114.788 Y139.771 E266.02081
G1 X113.11 Y141.146 E266.12904
G1 X107.017 Y146.473 E266.53281
G1 X104.811 Y148.149 E266.67103
G1 X102.415 Y149.651 E266.81212
G1 X100.138 Y150.835 E266.94016
G1 X97.982 Y151.791 E267.05782
G1 X92.792 Y153.72 E267.33406
G1 X89.918 Y154.67 E267.48507
G1 X85.93 Y155.926 E267.69367
G1 X83.697 Y156.412 E267.80768
G1 X81.767 Y156.414 E267.90397
G1 X81.209 Y156.315 E267.93224
G1 X79.537 Y155.641 E268.02218
G1 X78.994 Y155.249 E268.05559
G1 X77.577 Y153.588 E268.16452
G1 X76.506 Y151.416 E268.28534
G1 X75.731 Y149.191 E268.40288
G1 X75.333 Y147.721 E268.47886
G1 X75.067 Y146.665 E268.53319
G1 X74.591 Y144.518 E268.64291
G1 X74.078 Y140.255 E268.85712
G1 X73.719 Y136.323 E269.05411
G1 X73.708 Y136.055 E269.06749
G1 X73.37 Y131.225 E269.30905
G1 X73.338 Y130.888 E269.32594
G1 X73.225 Y127.975 E269.47138
G1 X73.2 Y125.21 E269.60933
G1 X73.296 Y121.884 E269.77533
G1 X73.532 Y118.893 E269.92502
G1 X73.644 Y117.321 E270.00364
G1 X73.789 Y116.362 E270.05203
G1 X73.908 Y115.791 E270.08113
G1 X73.97 Y115.417 E270.10005
G1 X74.215 Y114.461 E270.14928
G1 X74.561 Y113.231 E270.21303
G1 X75.586 Y108.884 E270.43585
G1 X75.745 Y108.134 E270.4741
G1 X76.462 Y105.442 E270.61309
G1 X77.479 Y102.675 E270.76016
G1 X78.803 Y100.496 E270.88737
G1 X79.223 Y100.035 E270.91848
G0 F3600 X79.485 Y100.342
G1 F1800 X81.144 Y99.295 E271.01635
G1 X81.615 Y99.141 E271.04107
G1 X83.542 Y98.931 E271.13778
G1 X85.724 Y99.311 E271.24828
G1 X88.438 Y100.123 E271.38961
G1 X91.645 Y101.132 E271.55734
G1 X95.69 Y102.569 E271.77151
G1 X97.796 Y103.419 E271.88481
G1 X100.074 Y104.47 E272.00997
G1 X102.258 Y105.647 E272.13375
G1 X104.609 Y107.16 E272.27323
G1 X106.818 Y108.869 E272.41257
G1 X112.569 Y113.919 E272.7944
G1 X112.79 Y114.12 E272.80931
G1 X114.513 Y115.515 E272.91991
G1 X115.68 Y116.378 E272.99232
G1 X115.919 Y116.041 E273.01294
G1 X116.446 Y115.634 E273.04616
G1 X116.978 Y115.435 E273.07449
G1 X117.531 Y115.353 E273.10238
G1 X132.438 Y115.351 E273.8461
G1 X133.004 Y115.424 E273.87457
G1 X133.584 Y115.646 E273.90555
G1 X134.028 Y116.013 E273.93429
G1 X134.311 Y116.389 E273.95777
G1 X135.489 Y115.512 E274.03104
G1 X137.178 Y114.147 E274.13938
G1 X141.105 Y110.652 E274.40166
G1 X143.249 Y108.813 E274.54258
G1 X145.406 Y107.147 E274.67855
G1 X147.726 Y105.656 E274.81614
G1 X149.936 Y104.465 E274.94139
G1 X152.203 Y103.42 E275.06593
G1 X154.365 Y102.549 E275.18222
G1 X158.405 Y101.115 E275.39609
G1 X161.579 Y100.119 E275.56206
G1 X164.254 Y99.317 E275.70138
G1 X166.461 Y98.931 E275.81316
G1 X168.385 Y99.141 E275.90972
G1 X168.856 Y99.295 E275.93444
G1 X170.515 Y100.342 E276.03232
G1 X170.855 Y100.704 E276.05709
G1 X172.158 Y102.847 E276.18222
G1 X173.151 Y105.544 E276.3256
G1 X173.868 Y108.236 E276.46459
G1 X174.033 Y109.01 E276.50407
G1 X174.671 Y111.803 E276.647
G1 X174.862 Y112.593 E276.68755
G1 X175.202 Y113.882 E276.75406
G1 X175.618 Y115.413 E276.83321
G1 X175.815 Y116.373 E276.88211
G1 X176.149 Y119.347 E277.03141
G1 X176.346 Y122.757 E277.20182
G1 X176.399 Y125.27 E277.32722
G1 X176.375 Y128.013 E277.46408
G1 X176.259 Y130.915 E277.60897
G1 X175.872 Y136.388 E277.8827
G1 X175.353 Y141.86 E278.15693
G1 X175.018 Y144.402 E278.28485
G1 X174.627 Y146.238 E278.3785
G1 X173.892 Y149.057 E278.52384
G1 X173.125 Y151.261 E278.64027
G1 X172.084 Y153.369 E278.75756
G1 X170.732 Y154.953 E278.86146
G1 X170.27 Y155.286 E278.88987
G1 X168.683 Y155.927 E278.97526
G1 X168.233 Y156.014 E278.99813
G1 X166.35 Y156.012 E279.09207
G1 X164.298 Y155.571 E279.19678
G1 X159.725 Y154.128 E279.43602
G1 X156.52 Y153.059 E279.60458
G1 X154.324 Y152.265 E279.72108
G1 X152.187 Y151.429 E279.83556
G1 X149.976 Y150.445 E279.9563
G1 X147.673 Y149.241 E280.08595
G1 X145.43 Y147.83 E280.21816
G1 X143.228 Y146.157 E280.35612
G1 X139.21 Y142.666 E280.62168
G1 X137.193 Y140.879 E280.75612
G1 X135.363 Y139.379 E280.87417
G1 X134.364 Y138.652 E280.93581
G1 X134.175 Y138.926 E280.95242
G1 X133.908 Y139.13 E280.96918
G1 X132.968 Y139.547 E281.02048
G1 X132.482 Y139.649 E281.04526
G1 X126.985 Y139.65 E281.3195
G1 X126.566 Y139.572 E281.34077
G1 X126.102 Y139.327 E281.36695
G1 X125.893 Y139.095 E281.38252
G1 X125.647 Y138.601 E281.41006
G1 X125.585 Y138.25 E281.42784
G1 X125.585 Y125.626 E282.05765
G1 X124.425 Y125.626 E282.11553
G1 X124.425 Y138.25 E282.74534
G1 X124.347 Y138.669 E282.7666
G1 X124.102 Y139.133 E282.79278
G1 X123.87 Y139.342 E282.80836
G1 X123.376 Y139.588 E282.83589
G1 X123.025 Y139.65 E282.85367
G1 X117.357 Y139.65 E283.13645
G1 X116.861 Y139.55 E283.1617
G1 X116.131 Y139.123 E283.20389
G1 X115.874 Y138.91 E283.22054
G1 X115.668 Y138.605 E283.2389
G1 X114.547 Y139.452 E283.309
G1 X112.843 Y140.848 E283.4189
G1 X112.567 Y141.096 E283.43741
G1 X106.775 Y146.154 E283.82105
G1 X104.569 Y147.83 E283.95927
G1 X102.23 Y149.296 E284.09699
G1 X99.976 Y150.469 E284.22376
G1 X97.82 Y151.425 E284.34142
G1 X92.667 Y153.34 E284.61568
G1 X89.798 Y154.288 E284.76643
G1 X85.81 Y155.544 E284.97502
G1 X83.653 Y156.012 E285.08514
G1 X81.767 Y156.014 E285.17923
G1 X81.359 Y155.944 E285.19989
G1 X79.73 Y155.287 E285.28752
G1 X79.268 Y154.954 E285.31593
G1 X77.914 Y153.367 E285.42001
G1 X76.884 Y151.284 E285.53594
G1 X76.109 Y149.059 E285.65349
G1 X75.721 Y147.623 E285.7277
G1 X75.458 Y146.578 E285.78146
G1 X74.982 Y144.431 E285.89118
G1 X74.476 Y140.219 E286.10282
G1 X74.119 Y136.307 E286.29881
G1 X74.108 Y136.039 E286.31219
G1 X73.769 Y131.197 E286.55435
G1 X73.738 Y130.872 E286.57063
G1 X73.625 Y127.971 E286.71548
G1 X73.6 Y125.221 E286.85268
G1 X73.695 Y121.915 E287.01768
G1 X73.931 Y118.924 E287.16737
G1 X74.04 Y117.381 E287.24454
G1 X74.181 Y116.444 E287.29182
G1 X74.3 Y115.873 E287.32092
G1 X74.358 Y115.516 E287.33896
G1 X74.6 Y114.569 E287.38772
G1 X74.946 Y113.339 E287.45147
G1 X75.975 Y108.976 E287.67511
G1 X76.132 Y108.237 E287.71281
G1 X76.849 Y105.545 E287.85179
G1 X77.839 Y102.853 E287.99489
G1 X79.145 Y100.704 E288.12035
G1 X79.485 Y100.342 E288.14513
G0 F3600 X79.698 Y100.68
G1 F1800 X81.316 Y99.659 E288.24058
G1 X81.658 Y99.539 E288.25866
G1 X83.53 Y99.335 E288.35261
G1 X85.655 Y99.705 E288.46022
G1 X88.318 Y100.505 E288.59894
G1 X91.511 Y101.509 E288.76593
G1 X95.54 Y102.94 E288.97924
G1 X97.646 Y103.79 E289.09254
G1 X99.884 Y104.822 E289.2155
G1 X102.068 Y105.999 E289.33927
G1 X104.364 Y107.476 E289.47548
G1 X106.554 Y109.17 E289.61361
G1 X112.3 Y114.215 E289.99509
G1 X112.533 Y114.427 E290.01081
G1 X114.27 Y115.833 E290.1223
G1 X115.873 Y117.019 E290.22178
G1 X116.031 Y116.559 E290.24605
G1 X116.21 Y116.321 E290.26091
G1 X116.642 Y115.988 E290.28812
G1 X117.118 Y115.81 E290.31347
G1 X117.582 Y115.75 E290.33681
G1 X132.438 Y115.751 E291.07798
G1 X132.902 Y115.814 E291.10134
G1 X133.441 Y116.02 E291.13013
G1 X133.708 Y116.253 E291.14781
G1 X134.005 Y116.648 E291.17247
G1 X134.137 Y117.017 E291.19202
G1 X135.728 Y115.833 E291.29096
G1 X137.444 Y114.446 E291.40104
G1 X141.365 Y110.956 E291.66293
G1 X143.494 Y109.13 E291.80286
G1 X145.651 Y107.464 E291.93883
G1 X147.916 Y106.008 E292.07317
G1 X150.126 Y104.817 E292.19842
G1 X152.353 Y103.791 E292.32075
G1 X154.499 Y102.926 E292.43618
G1 X158.525 Y101.497 E292.64932
G1 X161.694 Y100.502 E292.81503
G1 X164.323 Y99.711 E292.952
G1 X166.473 Y99.335 E293.06089
G1 X168.342 Y99.539 E293.15469
G1 X168.684 Y99.659 E293.17277
G1 X170.302 Y100.68 E293.26822
G1 X170.513 Y100.912 E293.28387
G1 X171.798 Y103.025 E293.40725
G1 X172.764 Y105.647 E293.54666
G1 X173.481 Y108.339 E293.68564
G1 X173.643 Y109.099 E293.72441
G1 X174.282 Y111.897 E293.8676
G1 X174.475 Y112.695 E293.90856
G1 X174.816 Y113.987 E293.97522
G1 X175.226 Y115.494 E294.05314
G1 X175.417 Y116.418 E294.10021
G1 X175.751 Y119.392 E294.24952
G1 X175.946 Y122.765 E294.41808
G1 X175.999 Y125.266 E294.54288
G1 X175.975 Y127.997 E294.67914
G1 X175.86 Y130.887 E294.82344
G1 X175.474 Y136.35 E295.09667
G1 X174.956 Y141.808 E295.37019
G1 X174.621 Y144.35 E295.49811
G1 X174.24 Y146.137 E295.58927
G1 X173.514 Y148.926 E295.73305
G1 X172.766 Y151.084 E295.84699
G1 X171.747 Y153.148 E295.96183
G1 X170.428 Y154.693 E296.06318
G1 X170.12 Y154.915 E296.08212
G1 X168.533 Y155.556 E296.16751
G1 X168.233 Y155.614 E296.18276
G1 X166.392 Y155.612 E296.27461
G1 X164.382 Y155.18 E296.37717
G1 X159.852 Y153.749 E296.61419
G1 X156.656 Y152.683 E296.78227
G1 X154.47 Y151.892 E296.89825
G1 X152.333 Y151.056 E297.01273
G1 X150.139 Y150.08 E297.13253
G1 X147.886 Y148.902 E297.25937
G1 X145.672 Y147.511 E297.38982
G1 X143.47 Y145.838 E297.52779
G1 X139.475 Y142.367 E297.79182
G1 X137.447 Y140.57 E297.92701
G1 X135.617 Y139.07 E298.04506
G1 X134.178 Y138.022 E298.13387
G1 X134.088 Y138.333 E298.15002
G1 X133.917 Y138.62 E298.16669
G1 X133.746 Y138.764 E298.17784
G1 X132.806 Y139.181 E298.22915
G1 X132.482 Y139.249 E298.24566
G1 X126.985 Y139.25 E298.51991
G1 X126.647 Y139.18 E298.53713
G1 X126.384 Y139.043 E298.55193
G1 X126.245 Y138.905 E298.5617
G1 X126.039 Y138.523 E298.58335
G1 X125.985 Y138.25 E298.59723
G1 X125.985 Y125.226 E299.247
G1 X124.025 Y125.226 E299.34479
G1 X124.025 Y138.25 E299.99456
G1 X123.955 Y138.588 E300.01178
G1 X123.818 Y138.851 E300.02657
G1 X123.68 Y138.99 E300.03635
G1 X123.298 Y139.196 E300.058
G1 X123.025 Y139.25 E300.07188
G1 X117.357 Y139.25 E300.35466
G1 X117.006 Y139.171 E300.37261
G1 X116.333 Y138.778 E300.41149
G1 X116.135 Y138.607 E300.42454
G1 X115.893 Y138.202 E300.44808
G1 X115.834 Y137.978 E300.45964
G1 X114.306 Y139.133 E300.5552
G1 X112.575 Y140.551 E300.66684
G1 X112.304 Y140.795 E300.68503
G1 X106.533 Y145.835 E301.06729
G1 X104.327 Y147.511 E301.2055
G1 X102.045 Y148.941 E301.33986
G1 X99.814 Y150.103 E301.46536
G1 X97.658 Y151.059 E301.58302
G1 X92.542 Y152.96 E301.85531
G1 X89.678 Y153.906 E302.00579
G1 X85.69 Y155.162 E302.21439
G1 X83.609 Y155.612 E302.32061
G1 X81.767 Y155.614 E302.4125
G1 X81.509 Y155.573 E302.42554
G1 X79.88 Y154.916 E302.51317
G1 X79.572 Y154.694 E302.53211
G1 X78.251 Y153.146 E302.63364
G1 X77.243 Y151.107 E302.74712
G1 X76.487 Y148.928 E302.86219
G1 X76.109 Y147.525 E302.93468
G1 X75.848 Y146.491 E302.98788
G1 X75.379 Y144.383 E303.09562
G1 X74.874 Y140.183 E303.30667
G1 X74.519 Y136.291 E303.50165
G1 X74.508 Y136.023 E303.51503
G1 X74.168 Y131.169 E303.75779
G1 X74.138 Y130.856 E303.77348
G1 X74.025 Y127.967 E303.91772
G1 X74 Y125.232 E304.05418
G1 X74.094 Y121.946 E304.21818
G1 X74.33 Y118.955 E304.36787
G1 X74.439 Y117.409 E304.44519
G1 X74.573 Y116.526 E304.48975
G1 X74.692 Y115.955 E304.51885
G1 X74.746 Y115.615 E304.53602
G1 X74.985 Y114.677 E304.58431
G1 X75.331 Y113.447 E304.64806
G1 X76.364 Y109.068 E304.87253
G1 X76.519 Y108.34 E304.90966
G1 X77.236 Y105.648 E305.04865
G1 X78.199 Y103.031 E305.18777
G1 X79.487 Y100.912 E305.31148
G1 X79.698 Y100.68 E305.32713
G0 F3600 X79.957 Y100.99
G1 F1800 X81.53 Y99.997 E305.41994
G1 X81.701 Y99.937 E305.42898
G1 X83.519 Y99.739 E305.52021
G1 X85.54 Y100.088 E305.62253
G1 X88.198 Y100.887 E305.761
G1 X91.377 Y101.886 E305.92725
G1 X95.39 Y103.311 E306.13971
G1 X97.496 Y104.161 E306.25301
G1 X99.694 Y105.174 E306.37376
G1 X101.878 Y106.351 E306.49753
G1 X104.119 Y107.792 E306.63046
G1 X106.29 Y109.471 E306.76738
G1 X112.031 Y114.511 E307.14851
G1 X112.276 Y114.734 E307.16504
G1 X114.027 Y116.151 E307.27742
G1 X115.78 Y117.453 E307.38636
G1 X116.094 Y117.377 E307.40248
G1 X116.202 Y117.313 E307.40874
G1 X116.362 Y116.783 E307.43636
G1 X116.466 Y116.629 E307.44563
G1 X116.791 Y116.359 E307.46671
G1 X117.172 Y116.206 E307.4872
G1 X117.582 Y116.15 E307.50784
G1 X132.438 Y116.151 E308.24901
G1 X132.845 Y116.21 E308.26953
G1 X133.232 Y116.368 E308.29038
G1 X133.388 Y116.493 E308.30035
G1 X133.685 Y116.888 E308.32501
G1 X133.805 Y117.314 E308.34709
G1 X133.99 Y117.402 E308.35731
G1 X134.225 Y117.45 E308.36928
G1 X135.967 Y116.154 E308.4776
G1 X137.71 Y114.745 E308.58942
G1 X141.625 Y111.26 E308.85091
G1 X143.739 Y109.447 E308.98986
G1 X145.896 Y107.781 E309.12583
G1 X148.106 Y106.36 E309.25691
G1 X150.316 Y105.169 E309.38216
G1 X152.503 Y104.162 E309.50228
G1 X154.633 Y103.303 E309.61686
G1 X158.645 Y101.879 E309.82926
G1 X161.809 Y100.885 E309.99472
G1 X164.438 Y100.094 E310.13169
G1 X166.484 Y99.739 E310.23529
G1 X168.299 Y99.937 E310.32637
G1 X168.47 Y99.997 E310.33542
G1 X170.043 Y100.99 E310.42822
G1 X170.171 Y101.12 E310.43732
G1 X171.438 Y103.203 E310.55896
G1 X172.377 Y105.75 E310.69439
G1 X173.094 Y108.442 E310.83338
G1 X173.253 Y109.188 E310.87143
G1 X173.893 Y111.991 E311.01487
G1 X174.088 Y112.797 E311.05624
G1 X174.43 Y114.092 E311.12307
G1 X174.834 Y115.576 E311.1998
G1 X175.019 Y116.463 E311.245
G1 X175.353 Y119.437 E311.39431
G1 X175.546 Y122.774 E311.56107
G1 X175.599 Y125.262 E311.68523
G1 X175.575 Y127.981 E311.82088
G1 X175.461 Y130.859 E311.96458
G1 X175.076 Y136.312 E312.23731
G1 X174.559 Y141.756 E312.51013
G1 X174.224 Y144.298 E312.63805
G1 X173.853 Y146.036 E312.72671
G1 X173.136 Y148.795 E312.86893
G1 X172.407 Y150.907 E312.9804
G1 X171.41 Y152.927 E313.09279
G1 X170.124 Y154.433 E313.19159
G1 X169.97 Y154.544 E313.20106
G1 X168.383 Y155.185 E313.28645
G1 X168.233 Y155.214 E313.29407
G1 X166.434 Y155.212 E313.38382
G1 X164.466 Y154.789 E313.48425
G1 X159.979 Y153.37 E313.71903
G1 X156.792 Y152.307 E313.88664
G1 X154.616 Y151.52 E314.00209
G1 X152.495 Y150.69 E314.11572
G1 X150.324 Y149.725 E314.23425
G1 X148.099 Y148.563 E314.35948
G1 X145.914 Y147.192 E314.48817
G1 X143.712 Y145.519 E314.62614
G1 X139.74 Y142.068 E314.88865
G1 X137.701 Y140.261 E315.02458
G1 X135.861 Y138.753 E315.14327
G1 X134.204 Y137.546 E315.24554
G1 X133.802 Y137.673 E315.26657
G1 X133.789 Y137.945 E315.28016
G1 X133.706 Y138.215 E315.29425
G1 X133.584 Y138.398 E315.30522
G1 X132.644 Y138.815 E315.35653
G1 X132.482 Y138.849 E315.36479
G1 X126.985 Y138.85 E315.63903
G1 X126.741 Y138.791 E315.65156
G1 X126.589 Y138.7 E315.6604
G1 X126.428 Y138.43 E315.67608
G1 X126.385 Y138.25 E315.68531
G1 X126.385 Y124.826 E316.35504
G1 X123.625 Y124.826 E316.49273
G1 X123.625 Y138.25 E317.16246
G1 X123.566 Y138.494 E317.17498
G1 X123.475 Y138.646 E317.18382
G1 X123.205 Y138.807 E317.19951
G1 X123.025 Y138.85 E317.20874
G1 X117.357 Y138.85 E317.49152
G1 X117.155 Y138.795 E317.50196
G1 X116.535 Y138.433 E317.53778
G1 X116.407 Y138.314 E317.5465
G1 X116.246 Y138.013 E317.56353
G1 X116.188 Y137.661 E317.58133
G1 X115.76 Y137.533 E317.60362
G1 X114.065 Y138.814 E317.70961
G1 X112.307 Y140.254 E317.82299
G1 X112.041 Y140.494 E317.84086
G1 X106.291 Y145.516 E318.22174
G1 X104.085 Y147.192 E318.35996
G1 X101.86 Y148.586 E318.49095
G1 X99.652 Y149.737 E318.61518
G1 X97.496 Y150.693 E318.73284
G1 X92.417 Y152.58 E319.00316
G1 X89.558 Y153.524 E319.15337
G1 X85.57 Y154.78 E319.36196
G1 X83.566 Y155.212 E319.46424
G1 X81.767 Y155.214 E319.55399
G1 X81.617 Y155.185 E319.56161
G1 X80.03 Y154.545 E319.64699
G1 X79.876 Y154.434 E319.65646
G1 X78.588 Y152.925 E319.75544
G1 X77.602 Y150.93 E319.86646
G1 X76.865 Y148.797 E319.97905
G1 X76.497 Y147.427 E320.04982
G1 X76.238 Y146.404 E320.10247
G1 X75.776 Y144.335 E320.20823
G1 X75.272 Y140.147 E320.41868
G1 X74.919 Y136.275 E320.61266
G1 X74.908 Y136.007 E320.62604
G1 X74.567 Y131.141 E320.8694
G1 X74.538 Y130.84 E320.88449
G1 X74.425 Y127.963 E321.02813
G1 X74.4 Y125.243 E321.16384
G1 X74.493 Y121.977 E321.32685
G1 X74.729 Y118.986 E321.47653
G1 X74.835 Y117.469 E321.5524
G1 X74.965 Y116.608 E321.59584
G1 X75.084 Y116.037 E321.62494
G1 X75.141 Y115.678 E321.64308
G1 X75.37 Y114.785 E321.68907
G1 X75.716 Y113.555 E321.75282
G1 X76.753 Y109.16 E321.9781
G1 X76.906 Y108.443 E322.01468
G1 X77.623 Y105.751 E322.15367
G1 X78.559 Y103.209 E322.28881
G1 X79.829 Y101.12 E322.41078
G1 X79.957 Y100.99 E322.41988
G0 F3600 X80.171 Y101.328
G1 F1800 X81.744 Y100.335 E322.51269
G1 X83.509 Y100.143 E322.60127
G1 X85.425 Y100.471 E322.69825
G1 X88.078 Y101.269 E322.83646
G1 X91.243 Y102.263 E323.00197
G1 X95.24 Y103.682 E323.21357
G1 X97.346 Y104.532 E323.32688
G1 X99.504 Y105.526 E323.44541
G1 X101.688 Y106.703 E323.56919
G1 X103.874 Y108.108 E323.69883
G1 X106.026 Y109.772 E323.83455
G1 X111.762 Y114.807 E324.21533
G1 X112.024 Y115.045 E324.23299
G1 X113.785 Y116.47 E324.34601
G1 X115.367 Y117.645 E324.44432
G1 X115.827 Y117.956 E324.47202
G1 X115.853 Y117.875 E324.47627
G1 X115.986 Y117.796 E324.48399
G1 X116.227 Y117.762 E324.49613
G1 X116.581 Y117.555 E324.51659
G1 X116.609 Y117.261 E324.53132
G1 X116.736 Y116.924 E324.54929
G1 X116.953 Y116.725 E324.56398
G1 X117.23 Y116.602 E324.5791
G1 X117.582 Y116.55 E324.59685
G1 X132.438 Y116.551 E325.33802
G1 X132.783 Y116.605 E325.35544
G1 X133.068 Y116.733 E325.37103
G1 X133.365 Y117.128 E325.39568
G1 X133.449 Y117.587 E325.41896
G1 X133.874 Y117.789 E325.44244
G1 X134.097 Y117.819 E325.45367
G1 X134.179 Y117.951 E325.46142
G1 X134.633 Y117.646 E325.4887
G1 X136.206 Y116.475 E325.58654
G1 X137.976 Y115.044 E325.7001
G1 X141.885 Y111.564 E325.9612
G1 X143.984 Y109.764 E326.09915
G1 X146.141 Y108.098 E326.23513
G1 X148.322 Y106.697 E326.36445
G1 X150.506 Y105.521 E326.48821
G1 X152.653 Y104.533 E326.60612
G1 X154.767 Y103.68 E326.71985
G1 X158.765 Y102.261 E326.9315
G1 X161.924 Y101.268 E327.09671
G1 X164.553 Y100.477 E327.23367
G1 X166.495 Y100.143 E327.33198
G1 X168.256 Y100.335 E327.42036
G1 X169.829 Y101.328 E327.51317
G1 X171.078 Y103.381 E327.63306
G1 X171.99 Y105.853 E327.76451
G1 X172.707 Y108.545 E327.9035
G1 X172.863 Y109.277 E327.94084
G1 X173.504 Y112.085 E328.08453
G1 X173.701 Y112.899 E328.12632
G1 X174.044 Y114.197 E328.1933
G1 X174.442 Y115.658 E328.26884
G1 X174.627 Y116.545 E328.31405
G1 X174.955 Y119.481 E328.46144
G1 X175.146 Y122.783 E328.62645
G1 X175.199 Y125.258 E328.74996
G1 X175.175 Y127.965 E328.88501
G1 X175.062 Y130.831 E329.02811
G1 X174.678 Y136.274 E329.30034
G1 X174.162 Y141.704 E329.57246
G1 X173.827 Y144.246 E329.70038
G1 X173.466 Y145.936 E329.7866
G1 X172.758 Y148.664 E329.92721
G1 X172.029 Y150.776 E330.03867
G1 X171.075 Y152.703 E330.14595
G1 X169.82 Y154.173 E330.24238
G1 X168.233 Y154.814 E330.32777
G1 X166.476 Y154.812 E330.41543
G1 X164.55 Y154.398 E330.51371
G1 X160.106 Y152.991 E330.74627
G1 X156.929 Y151.931 E330.91336
G1 X155.051 Y151.247 E331.01307
G1 X154.762 Y151.148 E331.02831
G1 X152.657 Y150.324 E331.14109
G1 X150.509 Y149.37 E331.25835
G1 X148.312 Y148.224 E331.38198
G1 X146.127 Y146.853 E331.51067
G1 X143.974 Y145.217 E331.64557
G1 X140.005 Y141.769 E331.90787
G1 X137.955 Y139.952 E332.04454
G1 X136.105 Y138.436 E332.16387
G1 X134.177 Y137.031 E332.28289
G1 X134.146 Y137.127 E332.28792
G1 X133.986 Y137.208 E332.29687
G1 X133.871 Y137.209 E332.3026
G1 X133.564 Y137.337 E332.3192
G1 X133.409 Y137.515 E332.33097
G1 X133.389 Y137.926 E332.3515
G1 X133.333 Y138.071 E332.35926
G1 X132.482 Y138.449 E332.40571
G1 X126.985 Y138.45 E332.67996
G1 X126.866 Y138.411 E332.68621
G1 X126.785 Y138.25 E332.6952
G1 X126.785 Y124.426 E333.38488
G1 X123.225 Y124.426 E333.56249
G1 X123.225 Y138.25 E334.25217
G1 X123.186 Y138.369 E334.25842
G1 X123.025 Y138.45 E334.26741
G1 X117.357 Y138.45 E334.55019
G1 X116.737 Y138.088 E334.58601
G1 X116.641 Y137.948 E334.59448
G1 X116.547 Y137.379 E334.62325
G1 X116.153 Y137.211 E334.64462
G1 X115.891 Y137.165 E334.65789
G1 X115.818 Y137.015 E334.66621
G1 X115.487 Y137.235 E334.68604
G1 X113.823 Y138.496 E334.7902
G1 X112.039 Y139.957 E334.90525
G1 X111.778 Y140.193 E334.9228
G1 X106.028 Y145.215 E335.30368
G1 X103.873 Y146.853 E335.43872
G1 X101.675 Y148.231 E335.56815
G1 X99.49 Y149.371 E335.69111
G1 X97.334 Y150.327 E335.80877
G1 X92.292 Y152.2 E336.07711
G1 X89.438 Y153.142 E336.22705
G1 X85.45 Y154.398 E336.43565
G1 X83.524 Y154.812 E336.53393
G1 X81.767 Y154.814 E336.62159
G1 X80.18 Y154.174 E336.70696
G1 X78.925 Y152.704 E336.80339
G1 X77.961 Y150.753 E336.91196
G1 X77.243 Y148.667 E337.02203
G1 X76.885 Y147.329 E337.09113
G1 X76.628 Y146.316 E337.14327
G1 X76.173 Y144.287 E337.24701
G1 X75.67 Y140.111 E337.45686
G1 X75.319 Y136.259 E337.64983
G1 X75.308 Y135.991 E337.66321
G1 X74.966 Y131.113 E337.90717
G1 X74.938 Y130.824 E337.92166
G1 X74.825 Y127.959 E338.0647
G1 X74.8 Y125.254 E338.19966
G1 X74.892 Y122.008 E338.36167
G1 X75.128 Y119.017 E338.51136
G1 X75.231 Y117.528 E338.58582
G1 X75.357 Y116.69 E338.6281
G1 X75.476 Y116.119 E338.6572
G1 X75.536 Y115.741 E338.67629
G1 X75.755 Y114.893 E338.71999
G1 X76.101 Y113.663 E338.78374
G1 X77.142 Y109.252 E339.00985
G1 X77.293 Y108.546 E339.04587
G1 X78.01 Y105.854 E339.18485
G1 X78.919 Y103.387 E339.31602
G1 X80.171 Y101.328 E339.43624
G1 F1500 E332.93624
;MESH:fliege.stl
G0 F3600 X117.439 Y136.723
G0 X117.23 Y136.964
;TYPE:WALL-INNER
G1 F1500 E339.43624
G1 F1800 X117.329 Y137.21 E339.44947
G1 X117.383 Y137.536 E339.46596
G1 X117.577 Y137.65 E339.47719
G1 X122.425 Y137.65 E339.71905
G1 X122.43 Y124.142 E340.39297
G1 X122.564 Y123.84 E340.40945
G1 X122.759 Y123.687 E340.42182
G1 X122.927 Y123.626 E340.43074
G1 X127.08 Y123.626 E340.63793
G1 X127.251 Y123.688 E340.647
G1 X127.446 Y123.841 E340.65937
G1 X127.58 Y124.142 E340.67581
G1 X127.585 Y137.649 E341.34968
G1 X132.312 Y137.648 E341.58551
G1 X132.607 Y137.517 E341.60161
G1 X132.623 Y137.321 E341.61142
G1 X132.767 Y137.002 E341.62888
G1 X133.091 Y136.683 E341.65157
G1 X133.434 Y136.524 E341.67043
G1 X133.471 Y136.393 E341.67722
G1 X133.554 Y136.284 E341.68405
G1 X133.761 Y136.143 E341.69655
G1 X134.077 Y136.079 E341.71264
G1 X134.303 Y136.131 E341.72421
G1 X136.595 Y137.801 E341.86569
G1 X138.485 Y139.352 E341.98767
G1 X140.599 Y141.223 E342.12851
G1 X144.488 Y144.602 E342.38554
G1 X146.587 Y146.199 E342.51712
G1 X148.715 Y147.532 E342.6424
G1 X150.855 Y148.648 E342.76281
G1 X152.967 Y149.586 E342.8781
G1 X155.041 Y150.398 E342.98922
G1 X155.354 Y150.505 E343.00572
G1 X157.254 Y151.196 E343.10659
G1 X160.424 Y152.252 E343.27328
G1 X164.769 Y153.628 E343.50067
G1 X166.539 Y154.012 E343.59103
G1 X168.076 Y154.013 E343.66771
G1 X169.338 Y153.504 E343.7356
G1 X170.402 Y152.258 E343.81734
G1 X171.293 Y150.459 E343.9175
G1 X171.989 Y148.438 E344.02414
G1 X172.687 Y145.746 E344.16289
G1 X173.038 Y144.106 E344.24656
G1 X173.366 Y141.609 E344.3722
G1 X173.88 Y136.204 E344.64308
G1 X174.262 Y130.783 E344.9142
G1 X174.375 Y127.94 E345.05615
G1 X174.398 Y125.259 E345.18991
G1 X174.346 Y122.809 E345.31217
G1 X174.156 Y119.543 E345.47539
G1 X173.833 Y116.659 E345.62017
G1 X173.663 Y115.838 E345.662
G1 X173.269 Y114.403 E345.73624
G1 X172.923 Y113.091 E345.80394
G1 X172.709 Y112.209 E345.84922
G1 X172.081 Y109.446 E345.99058
G1 X171.927 Y108.724 E346.02741
G1 X171.229 Y106.1 E346.16287
G1 X170.345 Y103.708 E346.2901
G1 X169.244 Y101.905 E346.3955
G1 X167.986 Y101.112 E346.46969
G1 X166.498 Y100.95 E346.54436
G1 X166.249 Y100.999 E346.55702
G1 X164.752 Y101.252 E346.63277
G1 X162.119 Y102.046 E346.76997
G1 X159.013 Y103.023 E346.93242
G1 X155.021 Y104.438 E347.14372
G1 X152.974 Y105.267 E347.2539
G1 X150.856 Y106.242 E347.37023
G1 X148.719 Y107.392 E347.4913
G1 X146.599 Y108.755 E347.61704
G1 X144.485 Y110.39 E347.75037
G1 X142.411 Y112.168 E347.88666
G1 X138.481 Y115.665 E348.14912
G1 X136.69 Y117.115 E348.26408
G1 X135.083 Y118.308 E348.36393
G1 X134.318 Y118.821 E348.40989
G1 X134.136 Y118.884 E348.41949
G1 X133.849 Y118.864 E348.43385
G1 X133.639 Y118.758 E348.44558
G1 X133.519 Y118.647 E348.45374
G1 X133.459 Y118.478 E348.46269
G1 X132.997 Y118.254 E348.4883
G1 X132.783 Y118.033 E348.50365
G1 X132.663 Y117.75 E348.51899
G1 X132.622 Y117.455 E348.53384
G1 X132.573 Y117.382 E348.53823
G1 X132.396 Y117.351 E348.5472
G1 X117.624 Y117.351 E349.28417
G1 X117.4 Y117.403 E349.29565
G1 X117.374 Y117.687 E349.30987
G1 X117.254 Y117.995 E349.32637
G1 X117.06 Y118.22 E349.34119
G1 X116.57 Y118.488 E349.36905
G1 X116.458 Y118.671 E349.37976
G1 X116.151 Y118.863 E349.39782
G1 X115.864 Y118.883 E349.41217
G1 X115.683 Y118.821 E349.42172
G1 X114.895 Y118.292 E349.46907
G1 X113.29 Y117.1 E349.56881
G1 X111.5 Y115.649 E349.68377
G1 X105.513 Y110.389 E350.08137
G1 X103.4 Y108.754 E350.21466
G1 X101.28 Y107.391 E350.3404
G1 X99.139 Y106.239 E350.46169
G1 X97.021 Y105.264 E350.57802
G1 X94.979 Y104.437 E350.68793
G1 X90.988 Y103.022 E350.89919
G1 X87.841 Y102.034 E351.06375
G1 X85.248 Y101.252 E351.19887
G1 X83.49 Y100.95 E351.28786
G1 X82.014 Y101.112 E351.36194
G1 X80.756 Y101.905 E351.43613
G1 X79.652 Y103.714 E351.54186
G1 X78.769 Y106.109 E351.66921
G1 X78.078 Y108.705 E351.80324
G1 X77.917 Y109.459 E351.8417
G1 X76.873 Y113.878 E352.06824
G1 X76.528 Y115.106 E352.13187
G1 X76.323 Y115.881 E352.17187
G1 X76.266 Y116.25 E352.1905
G1 X76.133 Y116.888 E352.22301
G1 X76.028 Y117.625 E352.26015
G1 X75.927 Y119.08 E352.33292
G1 X75.691 Y122.059 E352.482
G1 X75.601 Y125.266 E352.64207
G1 X75.625 Y127.944 E352.77568
G1 X75.737 Y130.774 E352.91698
G1 X75.764 Y131.054 E352.93101
G1 X76.108 Y135.958 E353.17627
G1 X76.118 Y136.209 E353.18881
G1 X76.466 Y140.028 E353.38013
G1 X76.964 Y144.154 E353.58747
G1 X77.407 Y146.133 E353.68864
G1 X77.671 Y147.176 E353.74232
G1 X78.018 Y148.47 E353.80916
G1 X78.707 Y150.459 E353.91418
G1 X79.598 Y152.259 E354.01438
G1 X80.661 Y153.504 E354.09605
G1 X81.924 Y154.014 E354.16401
G1 X83.461 Y154.012 E354.24069
G1 X85.231 Y153.628 E354.33105
G1 X89.254 Y152.36 E354.54149
G1 X92.032 Y151.442 E354.68745
G1 X97.038 Y149.583 E354.95387
G1 X99.145 Y148.648 E355.06887
G1 X101.286 Y147.531 E355.18935
G1 X103.413 Y146.198 E355.31459
G1 X105.518 Y144.597 E355.44653
G1 X111.245 Y139.597 E355.82582
G1 X111.531 Y139.338 E355.84507
G1 X113.334 Y137.862 E355.96132
G1 X115.036 Y136.573 E356.06784
G1 X115.683 Y136.145 E356.10654
G1 X115.864 Y136.083 E356.11608
G1 X116.155 Y136.105 E356.13064
G1 X116.366 Y136.213 E356.14247
G1 X116.515 Y136.369 E356.15323
G1 X116.559 Y136.513 E356.16074
G1 X116.88 Y136.653 E356.17822
G1 X117.23 Y136.964 E356.20157
G0 F3600 X117.439 Y136.723
G0 X116.513 Y119.077
G0 X116.158 Y118.406
;TYPE:WALL-OUTER
G1 F1800 X116.001 Y118.489 E356.21043
G1 X115.881 Y118.473 E356.21647
G1 X115.133 Y117.971 E356.26142
G1 X113.542 Y116.789 E356.3603
G1 X111.764 Y115.349 E356.47445
G1 X105.767 Y110.08 E356.87272
G1 X103.631 Y108.427 E357.00746
G1 X101.483 Y107.046 E357.13487
G1 X99.317 Y105.881 E357.25757
G1 X97.18 Y104.897 E357.37494
G1 X95.121 Y104.063 E357.48577
G1 X91.115 Y102.642 E357.69783
G1 X87.918 Y101.64 E357.86498
G1 X85.34 Y100.862 E357.99933
G1 X83.502 Y100.546 E358.09237
G1 X81.879 Y100.724 E358.17383
G1 X80.464 Y101.617 E358.25731
G1 X79.29 Y103.539 E358.36967
G1 X78.387 Y105.988 E358.49989
G1 X77.689 Y108.611 E358.63531
G1 X77.527 Y109.367 E358.67388
G1 X76.488 Y113.77 E358.89958
G1 X76.142 Y115 E358.96333
G1 X75.931 Y115.799 E359.00456
G1 X75.868 Y116.2 E359.02481
G1 X75.739 Y116.818 E359.05631
G1 X75.63 Y117.583 E359.09486
G1 X75.528 Y119.048 E359.16812
G1 X75.291 Y122.037 E359.31771
G1 X75.201 Y125.262 E359.47867
G1 X75.225 Y127.954 E359.61298
G1 X75.338 Y130.801 E359.75513
G1 X75.365 Y131.082 E359.76921
G1 X75.708 Y135.974 E360.01388
G1 X75.719 Y136.235 E360.02691
G1 X76.068 Y140.07 E360.21903
G1 X76.569 Y144.222 E360.42768
G1 X77.018 Y146.226 E360.53013
G1 X77.285 Y147.279 E360.58433
G1 X77.635 Y148.587 E360.65188
G1 X78.337 Y150.614 E360.7589
G1 X79.262 Y152.481 E360.86285
G1 X80.421 Y153.838 E360.95189
G1 X81.846 Y154.414 E361.02857
G1 X83.504 Y154.412 E361.11129
G1 X85.334 Y154.015 E361.20471
G1 X89.38 Y152.74 E361.41635
G1 X92.164 Y151.82 E361.56263
G1 X97.189 Y149.953 E361.83008
G1 X99.319 Y149.008 E361.94633
G1 X101.485 Y147.879 E362.06819
G1 X103.641 Y146.528 E362.19513
G1 X105.771 Y144.907 E362.32867
G1 X111.511 Y139.896 E362.70881
G1 X111.779 Y139.652 E362.72689
G1 X113.576 Y138.181 E362.84275
G1 X115.258 Y136.906 E362.94805
G1 X115.871 Y136.498 E362.98479
G1 X116.001 Y136.478 E362.99135
G1 X116.181 Y136.589 E363.0019
G1 X116.214 Y136.814 E363.01324
G1 X116.687 Y137.003 E363.03866
G1 X116.922 Y137.21 E363.05428
G1 X117.038 Y137.798 E363.08418
G1 X117.469 Y138.05 E363.10909
G1 X122.825 Y138.05 E363.3763
G1 X122.826 Y124.198 E364.06738
G1 X122.871 Y124.097 E364.0729
G1 X122.99 Y124.028 E364.07976
G1 X127.032 Y124.031 E364.28142
G1 X127.139 Y124.097 E364.28769
G1 X127.184 Y124.198 E364.29321
G1 X127.185 Y138.049 E364.98423
G1 X132.396 Y138.048 E365.24421
G1 X132.973 Y137.793 E365.27568
G1 X133.016 Y137.397 E365.29556
G1 X133.117 Y137.196 E365.30678
G1 X133.333 Y137.002 E365.32127
G1 X133.785 Y136.817 E365.34563
G1 X133.813 Y136.599 E365.3566
G1 X133.972 Y136.487 E365.3663
G1 X134.129 Y136.501 E365.37416
G1 X136.35 Y138.118 E365.51123
G1 X138.22 Y139.652 E365.63189
G1 X140.271 Y141.468 E365.76856
G1 X144.236 Y144.912 E366.03058
G1 X146.359 Y146.528 E366.16369
G1 X148.516 Y147.88 E366.2907
G1 X150.681 Y149.008 E366.41249
G1 X152.813 Y149.955 E366.52888
G1 X154.903 Y150.774 E366.64087
G1 X155.217 Y150.881 E366.65742
G1 X157.122 Y151.574 E366.75855
G1 X160.303 Y152.633 E366.92582
G1 X164.666 Y154.015 E367.15415
G1 X166.496 Y154.412 E367.24757
G1 X168.154 Y154.413 E367.33029
G1 X169.579 Y153.838 E367.40695
G1 X170.738 Y152.48 E367.49602
G1 X171.663 Y150.613 E367.59997
G1 X172.372 Y148.554 E367.70862
G1 X173.077 Y145.838 E367.84861
G1 X173.432 Y144.174 E367.93349
G1 X173.764 Y141.654 E368.0603
G1 X174.279 Y136.237 E368.33178
G1 X174.662 Y130.805 E368.60345
G1 X174.775 Y127.95 E368.746
G1 X174.798 Y125.257 E368.88036
G1 X174.746 Y122.793 E369.00332
G1 X174.555 Y119.509 E369.16743
G1 X174.229 Y116.596 E369.31367
G1 X174.052 Y115.744 E369.35709
G1 X173.656 Y114.301 E369.43174
G1 X173.312 Y112.997 E369.49902
G1 X173.099 Y112.12 E369.54405
G1 X172.472 Y109.362 E369.68516
G1 X172.316 Y108.631 E369.72245
G1 X171.611 Y105.979 E369.85935
G1 X170.707 Y103.533 E369.98945
G1 X169.536 Y101.617 E370.10148
G1 X168.121 Y100.724 E370.18496
G1 X166.48 Y100.546 E370.26731
G1 X166.183 Y100.605 E370.28241
G1 X164.66 Y100.862 E370.35947
G1 X161.999 Y101.664 E370.49813
G1 X158.886 Y102.643 E370.66093
G1 X154.879 Y104.064 E370.87304
G1 X152.815 Y104.9 E370.98414
G1 X150.678 Y105.884 E371.10152
G1 X148.516 Y107.047 E371.22399
G1 X146.368 Y108.428 E371.3514
G1 X144.232 Y110.08 E371.48611
G1 X142.148 Y111.867 E371.62308
G1 X138.229 Y115.354 E371.88479
G1 X136.452 Y116.794 E371.9989
G1 X134.859 Y117.976 E372.09786
G1 X134.104 Y118.485 E372.14329
G1 X133.998 Y118.49 E372.14858
G1 X133.829 Y118.394 E372.15828
G1 X133.785 Y118.19 E372.16869
G1 X133.214 Y117.918 E372.20024
G1 X133.059 Y117.694 E372.21383
G1 X133.005 Y117.309 E372.23323
G1 X132.845 Y117.07 E372.24758
G1 X132.689 Y116.993 E372.25626
G1 X132.428 Y116.951 E372.26945
G1 X117.599 Y116.951 E373.00927
G1 X117.365 Y116.979 E373.02103
G1 X117.152 Y117.076 E373.0327
G1 X117.055 Y117.174 E373.03958
G1 X116.936 Y117.753 E373.06907
G1 X116.786 Y117.925 E373.08046
G1 X116.38 Y118.135 E373.10326
G1 X116.214 Y118.169 E373.11172
G1 X116.202 Y118.337 E373.12012
G1 X116.158 Y118.406 E373.1242
G0 F3600 X116.001 Y118.489
G0 X115.979 Y118.486
G0 X115.561 Y119.103
G0 X117.515 Y136.717
;TYPE:SKIN
G1 F1800 X117.143 Y136.367 E373.14968
G1 X116.862 Y136.232 E373.16524
G1 X116.591 Y135.905 E373.18643
G1 X116.264 Y135.742 E373.20465
G1 X115.798 Y135.707 E373.22797
G1 X115.461 Y135.832 E373.2459
G1 X114.823 Y136.258 E373.28417
G1 X113.105 Y137.559 E373.39169
G1 X111.271 Y139.06 E373.50993
G1 X110.992 Y139.314 E373.52875
G1 X105.281 Y144.299 E373.90695
G1 X103.199 Y145.883 E374.03746
G1 X101.1 Y147.199 E374.16106
G1 X98.977 Y148.305 E374.28049
G1 X96.897 Y149.229 E374.39404
G1 X91.908 Y151.082 E374.65956
G1 X89.195 Y151.979 E374.80212
G1 X85.13 Y153.26 E375.01475
G1 X83.419 Y153.632 E375.10211
G1 X82 Y153.634 E375.1729
G1 X80.889 Y153.185 E375.23268
G1 X79.918 Y152.048 E375.30728
G1 X79.062 Y150.317 E375.40362
G1 X78.389 Y148.388 E375.50555
G1 X78.024 Y147.024 E375.57599
G1 X77.778 Y146.046 E375.62631
G1 X77.338 Y144.085 E375.72657
G1 X76.844 Y139.986 E375.93255
G1 X76.498 Y136.182 E376.12312
G1 X76.488 Y135.941 E376.13515
G1 X76.144 Y131.025 E376.38101
G1 X76.117 Y130.745 E376.39505
G1 X76.005 Y127.937 E376.53525
G1 X75.982 Y125.271 E376.66826
G1 X76.071 Y122.082 E376.82742
G1 X76.306 Y119.111 E376.97611
G1 X76.408 Y117.667 E377.04833
G1 X76.509 Y116.95 E377.08446
G1 X76.632 Y116.358 E377.11462
G1 X76.694 Y115.965 E377.13447
G1 X76.894 Y115.206 E377.17363
G1 X77.241 Y113.98 E377.2372
G1 X78.287 Y109.545 E377.46453
G1 X78.449 Y108.792 E377.50296
G1 X79.13 Y106.229 E377.63526
G1 X79.999 Y103.874 E377.7605
G1 X81.033 Y102.181 E377.85947
G1 X82.143 Y101.482 E377.92492
G1 X83.484 Y101.333 E377.99223
G1 X85.157 Y101.621 E378.07692
G1 X87.658 Y102.377 E378.20727
G1 X90.869 Y103.383 E378.37515
G1 X94.871 Y104.801 E378.58697
G1 X96.868 Y105.612 E378.69451
G1 X98.966 Y106.579 E378.80976
G1 X101.09 Y107.721 E378.93007
G1 X103.176 Y109.064 E379.05385
G1 X105.271 Y110.686 E379.18603
G1 X111.248 Y115.934 E379.58286
G1 X113.051 Y117.397 E379.6987
G1 X114.666 Y118.597 E379.79908
G1 X115.46 Y119.133 E379.84687
G1 X115.892 Y119.27 E379.86948
G1 X116.263 Y119.226 E379.88812
G1 X116.573 Y119.073 E379.90537
G1 X116.728 Y118.94 E379.91556
G1 X116.835 Y118.778 E379.92524
G1 X117.298 Y118.518 E379.95174
G1 X117.581 Y118.18 E379.97373
G1 X117.747 Y117.736 E379.99738
G1 X132.275 Y117.732 E380.72218
G1 X132.494 Y118.28 E380.75162
G1 X132.729 Y118.527 E380.76863
G1 X133.167 Y118.758 E380.79334
G1 X133.238 Y118.902 E380.80135
G1 X133.423 Y119.071 E380.81385
G1 X133.733 Y119.224 E380.8311
G1 X133.987 Y119.272 E380.84399
G1 X134.45 Y119.196 E380.8674
G1 X135.299 Y118.622 E380.91853
G1 X136.915 Y117.423 E381.01892
G1 X138.721 Y115.958 E381.13494
G1 X142.663 Y112.454 E381.39807
G1 X144.724 Y110.687 E381.53351
G1 X146.822 Y109.065 E381.66581
G1 X148.909 Y107.722 E381.78963
G1 X151.025 Y106.584 E381.9095
G1 X153.123 Y105.618 E382.02473
G1 X155.128 Y104.801 E382.13274
G1 X159.13 Y103.384 E382.34455
G1 X162.193 Y102.421 E382.50474
G1 X164.843 Y101.622 E382.64283
G1 X166.511 Y101.335 E382.72727
G1 X167.857 Y101.482 E382.79482
G1 X168.967 Y102.181 E382.86026
G1 X169.998 Y103.868 E382.9589
G1 X170.866 Y106.213 E383.08365
G1 X171.556 Y108.81 E383.21771
G1 X171.708 Y109.522 E383.25403
G1 X172.323 Y112.238 E383.39296
G1 X172.552 Y113.18 E383.44133
G1 X172.9 Y114.5 E383.50944
G1 X173.292 Y115.924 E383.58312
G1 X173.457 Y116.716 E383.62348
G1 X173.777 Y119.573 E383.76691
G1 X173.966 Y122.822 E383.92928
G1 X174.017 Y125.262 E384.05104
G1 X173.995 Y127.928 E384.18405
G1 X173.883 Y130.761 E384.3255
G1 X173.501 Y136.17 E384.59603
G1 X172.987 Y141.563 E384.8663
G1 X172.661 Y144.044 E384.99114
G1 X172.318 Y145.656 E385.07337
G1 X171.624 Y148.323 E385.21086
G1 X170.938 Y150.316 E385.31601
G1 X170.082 Y152.047 E385.41236
G1 X169.111 Y153.185 E385.48699
G1 X168 Y153.632 E385.54673
G1 X166.581 Y153.632 E385.61753
G1 X164.87 Y153.26 E385.70489
G1 X160.541 Y151.89 E385.93142
G1 X157.439 Y150.857 E386.09453
G1 X155.514 Y150.157 E386.19672
G1 X155.171 Y150.041 E386.21479
G1 X153.112 Y149.234 E386.32512
G1 X151.024 Y148.305 E386.43914
G1 X148.901 Y147.2 E386.55854
G1 X146.801 Y145.883 E386.68221
G1 X144.732 Y144.308 E386.81194
G1 X140.908 Y140.987 E387.06462
G1 X138.759 Y139.087 E387.20773
G1 X136.833 Y137.502 E387.33217
G1 X134.583 Y135.864 E387.47102
G1 X134.353 Y135.75 E387.48383
G1 X133.988 Y135.698 E387.50222
G1 X133.7 Y135.758 E387.5169
G1 X133.406 Y135.911 E387.53343
G1 X133.122 Y136.246 E387.55534
G1 X132.888 Y136.363 E387.5684
G1 X132.65 Y136.554 E387.58362
G1 X132.419 Y136.846 E387.6022
G1 X132.263 Y137.267 E387.6246
G1 X127.966 Y137.268 E387.83897
G1 X127.966 Y124.147 E388.49358
G1 X127.869 Y123.804 E388.51137
G1 X127.737 Y123.596 E388.52366
G1 X127.454 Y123.368 E388.54179
G1 X127.147 Y123.246 E388.55827
G1 X122.868 Y123.248 E388.77175
G1 X122.556 Y123.368 E388.78843
G1 X122.273 Y123.596 E388.80656
G1 X122.137 Y123.809 E388.81917
G1 X122.046 Y124.121 E388.83538
G1 X122.045 Y137.27 E389.49139
G1 X117.725 Y137.27 E389.70691
G1 X117.515 Y136.717 E389.73642
G0 F3600 X116.848 Y136.144
G0 X115.968 Y135.672
G0 X81.288 Y153.13
G1 F1800 X80.077 Y151.919 E389.82187
G1 X80.007 Y151.849
G0 F3600 X79.526 Y150.802
G1 F1800 X82.155 Y153.432 E390.00739
G0 F3600 X82.72 Y153.431
G1 F1800 X79.096 Y149.807 E390.26309
G1 X79.026 Y149.737
G0 F3600 X78.792 Y148.937
G1 F1800 X83.286 Y153.431 E390.58016
G0 F3600 X83.77 Y153.349
G1 F1800 X78.517 Y148.097 E390.95075
G1 X78.447 Y148.027
G0 F3600 X78.31 Y147.324
G1 F1800 X84.234 Y153.248 E391.36872
G0 F3600 X84.699 Y153.147
G1 F1800 X78.114 Y146.562 E391.83333
G0 F3600 X77.933 Y145.815
G1 F1800 X85.157 Y153.039 E392.34302
G0 F3600 X85.587 Y152.904
G1 F1800 X77.768 Y145.084 E392.89473
G0 F3600 X77.603 Y144.354
G1 F1800 X86.018 Y152.769 E393.48845
G0 F3600 X86.448 Y152.633
G1 F1800 X77.489 Y143.674 E394.12056
G0 F3600 X77.411 Y143.031
G1 F1800 X86.877 Y152.497 E394.78844
G0 F3600 X87.308 Y152.362
G1 F1800 X77.334 Y142.388 E395.49216
G0 F3600 X77.257 Y141.745
G1 F1800 X87.738 Y152.226 E396.23165
G0 F3600 X88.168 Y152.09
G1 F1800 X77.179 Y141.101 E397.00698
G0 F3600 X77.102 Y140.458
G1 F1800 X88.599 Y151.955 E397.81816
G0 F3600 X89.028 Y151.82
G1 F1800 X77.029 Y139.82 E398.66479
G0 F3600 X76.972 Y139.198
G1 F1800 X89.455 Y151.68 E399.5455
G0 F3600 X89.88 Y151.54
G1 F1800 X76.916 Y138.575 E400.46021
G0 F3600 X76.859 Y137.953
G1 F1800 X90.305 Y151.399 E401.4089
G0 F3600 X90.73 Y151.259
G1 F1800 X76.803 Y137.331 E402.39156
G0 F3600 X76.746 Y136.709
G1 F1800 X91.155 Y151.118 E403.40819
G0 F3600 X91.58 Y150.977
G1 F1800 X76.694 Y136.091 E404.45848
G0 F3600 X76.656 Y135.488
G1 F1800 X92.001 Y150.832 E405.54112
G0 F3600 X92.413 Y150.679
G1 F1800 X76.614 Y134.879 E406.65586
G0 F3600 X76.571 Y134.271
G1 F1800 X92.826 Y150.526 E407.80273
G0 F3600 X93.239 Y150.373
G1 F1800 X76.528 Y133.662 E408.98179
G0 F3600 X76.486 Y133.054
G1 F1800 X93.651 Y150.219 E410.19287
G0 F3600 X94.064 Y150.067
G1 F1800 X76.443 Y132.446 E411.43613
G0 F3600 X76.401 Y131.838
G1 F1800 X94.476 Y149.913 E412.71142
G0 F3600 X94.888 Y149.76
G1 F1800 X76.359 Y131.23 E414.01877
G0 F3600 X76.312 Y130.618
G1 F1800 X95.301 Y149.607 E415.35855
G0 F3600 X95.713 Y149.454
G1 F1800 X76.289 Y130.029 E416.72905
G0 F3600 X76.265 Y129.439
G1 F1800 X96.126 Y149.3 E418.13035
G0 F3600 X96.539 Y149.147
G1 F1800 X76.241 Y128.85 E419.56245
G0 F3600 X76.217 Y128.26
G1 F1800 X96.945 Y148.988 E421.02492
G0 F3600 X97.336 Y148.814
G1 F1800 X76.202 Y127.679 E422.51608
G0 F3600 X76.197 Y127.109
G1 F1800 X97.728 Y148.64 E424.0352
G0 F3600 X98.119 Y148.465
G1 F1800 X76.192 Y126.538 E425.58227
G0 F3600 X76.187 Y125.968
G1 F1800 X98.511 Y148.291 E427.15732
G0 F3600 X98.902 Y148.116
G1 F1800 X76.182 Y125.397 E428.7603
G0 F3600 X76.193 Y124.842
G1 F1800 X99.274 Y147.923 E430.38879
G0 F3600 X99.646 Y147.729
G1 F1800 X76.209 Y124.292 E432.0424
G0 F3600 X76.224 Y123.742
G1 F1800 X100.018 Y147.535 E433.72116
G0 F3600 X100.39 Y147.341
G1 F1800 X76.239 Y123.191 E435.4251
G0 F3600 X76.255 Y122.641
G1 F1800 X100.762 Y147.148 E437.1542
G0 F3600 X101.124 Y146.945
G1 F1800 X76.27 Y122.091 E438.90779
G0 F3600 X76.311 Y121.566
G1 F1800 X101.472 Y146.727 E440.68303
G0 F3600 X101.82 Y146.509
G1 F1800 X76.353 Y121.042 E442.47987
G0 F3600 X76.394 Y120.517
G1 F1800 X102.168 Y146.291 E444.29836
G0 F3600 X102.515 Y146.073
G1 F1800 X76.436 Y119.993 E446.13841
G0 F3600 X76.477 Y119.469
G1 F1800 X102.863 Y145.855 E448.00009
G0 F3600 X103.201 Y145.627
G1 F1800 X76.517 Y118.943 E449.88279
G0 F3600 X76.554 Y118.415
G1 F1800 X103.523 Y145.383 E451.78556
G0 F3600 X103.844 Y145.139
G1 F1800 X76.592 Y117.887 E453.70834
G0 F3600 X76.65 Y117.379
G1 F1800 X104.166 Y144.895 E455.64974
G0 F3600 X104.487 Y144.65
G1 F1800 X76.725 Y116.888 E457.6085
G0 F3600 X76.823 Y116.421
G1 F1800 X104.808 Y144.406 E459.58299
G0 F3600 X105.129 Y144.162
G1 F1800 X76.907 Y115.939 E461.57424
G0 F3600 X77.025 Y115.491
G1 F1800 X105.433 Y143.9 E463.57861
G0 F3600 X105.735 Y143.636
G1 F1800 X77.146 Y115.047 E465.59572
G0 F3600 X77.271 Y114.606
G1 F1800 X106.037 Y143.372 E467.62532
G0 F3600 X106.339 Y143.109
G1 F1800 X77.395 Y114.165 E469.66747
G0 F3600 X77.508 Y113.711
G1 F1800 X106.641 Y142.845 E471.723
G0 F3600 X106.943 Y142.581
G1 F1800 X77.616 Y113.254 E473.79218
G0 F3600 X77.724 Y112.796
G1 F1800 X107.245 Y142.317 E475.87504
G0 F3600 X107.547 Y142.054
G1 F1800 X77.832 Y112.339 E477.9716
G0 F3600 X77.94 Y111.881
G1 F1800 X107.849 Y141.79 E480.08184
G0 F3600 X108.151 Y141.527
G1 F1800 X78.048 Y111.423 E482.2058
G0 F3600 X78.156 Y110.966
G1 F1800 X108.453 Y141.263 E484.34342
G0 F3600 X108.755 Y140.999
