;FLAVOR:Marlin
;TIME:2390
;Filament used: 4.68318m
;Layer height: 0.4
;MINX:83.185
;MINY:84.29
;MINZ:0.3
;MAXX:166.874
;MAXY:177.065
;MAXZ:34.3
;Generated with Cura_SteamEngine 5.3.0
M140 S60
M105
M190 S60
M104 S200
M105
M109 S200
M82 ;absolute extrusion mode
G21 ;metric values
G90 ;absolute positioning
M82 ;set extruder to absolute mode
M107 ;start with the fan off
G28 X0 Y0 ;move X/Y to min endstops
M300 S1318 P266
G28 Z0 ;move Z to min endstops
G0 Z0.2
G92 E0 ;zero the extruded length
G1 X40 E25 F400 ; Extrude 25mm of filament in a 4cm line. Reduce speed (F) if you have a nozzle smaller than 0.4mm!
G92 E0 ;zero the extruded length again
G1 E-1 F500 ; Retract a little
G1 X80 F4000 ; Quickly wipe away from the filament line
M117 ; Printing…
G5
G92 E0
G92 E0
G1 F1500 E-6.5
;LAYER_COUNT:86
;LAYER:0
M107
G0 F3600 X93.31 Y91.368 Z0.3
;TYPE:SKIRT
G1 F1500 E0
G1 F1800 X95.01 Y90.038 E0.10769
G1 X96.303 Y89.353 E0.18069
G1 X98.368 Y88.822 E0.28706
G1 X100.351 Y88.824 E0.38599
G1 X101.875 Y89.252 E0.46497
G1 X103.611 Y89.984 E0.55896
G1 X105.387 Y91.631 E0.6798
G1 X106.745 Y93.675 E0.80223
G1 X107.363 Y95.715 E0.90858
G1 X107.571 Y97.529 E0.99967
G1 X107.279 Y99.683 E1.10812
G1 X106.343 Y101.712 E1.2196
G1 X104.912 Y103.381 E1.32928
G1 X102.989 Y104.64 E1.44395
G1 X101.367 Y105.12 E1.52834
G1 X99.862 Y105.367 E1.60443
G1 X98.041 Y105.276 E1.69539
G1 X95.898 Y104.466 E1.80969
G1 X94.646 Y103.57 E1.8865
G1 X93.439 Y102.445 E1.96882
G1 X92.148 Y100.453 E2.08725
G1 X91.522 Y98.335 E2.19743
G1 X91.332 Y96.535 E2.28774
G1 X91.595 Y94.717 E2.37938
G1 X92.107 Y93.303 E2.45441
G1 X93.31 Y91.368 E2.56808
G0 F3600 X93.613 Y91.638
G1 F1800 X95.225 Y90.377 E2.67019
G1 X96.451 Y89.728 E2.73939
G1 X98.417 Y89.222 E2.84067
G1 X100.297 Y89.224 E2.93447
G1 X101.72 Y89.621 E3.00817
G1 X103.392 Y90.326 E3.0987
G1 X105.081 Y91.892 E3.21361
G1 X106.379 Y93.846 E3.33065
G1 X106.97 Y95.799 E3.43245
G1 X107.168 Y97.525 E3.51912
G1 X106.891 Y99.569 E3.62203
G1 X106.003 Y101.494 E3.72779
G1 X104.646 Y103.077 E3.83182
G1 X102.819 Y104.273 E3.94076
G1 X101.254 Y104.736 E4.02218
G1 X99.841 Y104.965 E4.0936
G1 X98.121 Y104.879 E4.17951
G1 X96.09 Y104.111 E4.28784
G1 X94.919 Y103.277 E4.35957
G1 X93.748 Y102.186 E4.43942
G1 X92.515 Y100.283 E4.55254
G1 X91.916 Y98.256 E4.65799
G1 X91.735 Y96.542 E4.74398
G1 X91.985 Y94.814 E4.83109
G1 X92.468 Y93.48 E4.90187
G1 X93.613 Y91.638 E5.01008
G0 F3600 X93.915 Y91.91
G1 F1800 X95.443 Y90.714 E5.10688
G1 X96.599 Y90.103 E5.17212
G1 X98.466 Y89.622 E5.2683
G1 X100.244 Y89.624 E5.35701
G1 X101.565 Y89.99 E5.4254
G1 X103.173 Y90.668 E5.51246
G1 X104.775 Y92.153 E5.62144
G1 X106.013 Y94.017 E5.73308
G1 X106.577 Y95.883 E5.83033
G1 X106.765 Y97.521 E5.91259
G1 X106.503 Y99.455 E6.00996
G1 X105.663 Y101.276 E6.11001
G1 X104.38 Y102.773 E6.20837
G1 X102.649 Y103.906 E6.31158
G1 X101.141 Y104.352 E6.39004
G1 X99.821 Y104.563 E6.45673
G1 X98.201 Y104.482 E6.53765
G1 X96.281 Y103.756 E6.64006
G1 X95.151 Y102.951 E6.70928
G1 X94.059 Y101.929 E6.7839
G1 X92.882 Y100.113 E6.89186
G1 X92.31 Y98.177 E6.99258
G1 X92.138 Y96.549 E7.07425
G1 X92.375 Y94.911 E7.15682
G1 X92.829 Y93.657 E7.22336
G1 X93.915 Y91.91 E7.32599
G0 F3600 X94.217 Y92.182
G1 F1800 X95.661 Y91.051 E7.41749
G1 X96.747 Y90.478 E7.47875
G1 X98.515 Y90.022 E7.56985
G1 X100.188 Y90.024 E7.65331
G1 X101.41 Y90.359 E7.71653
G1 X102.954 Y91.01 E7.80013
G1 X104.469 Y92.414 E7.90318
G1 X105.646 Y94.188 E8.00939
G1 X106.184 Y95.967 E8.10211
G1 X106.362 Y97.517 E8.17995
G1 X106.115 Y99.341 E8.27178
G1 X105.323 Y101.058 E8.36612
G1 X104.114 Y102.469 E8.45882
G1 X102.48 Y103.538 E8.55624
G1 X101.027 Y103.968 E8.63183
G1 X99.802 Y104.161 E8.6937
G1 X98.282 Y104.085 E8.76963
G1 X96.471 Y103.4 E8.86623
G1 X95.383 Y102.625 E8.93287
G1 X94.37 Y101.673 E9.00223
G1 X93.249 Y99.943 E9.10507
G1 X92.704 Y98.098 E9.20105
G1 X92.541 Y96.556 E9.27841
G1 X92.765 Y95.008 E9.35645
G1 X93.19 Y93.834 E9.41874
G1 X94.217 Y92.182 E9.51578
G0 F3600 X94.519 Y92.454
G1 F1800 X95.879 Y91.389 E9.60196
G1 X96.895 Y90.853 E9.65927
G1 X98.564 Y90.422 E9.74527
G1 X100.134 Y90.424 E9.8236
G1 X101.255 Y90.728 E9.88155
G1 X102.735 Y91.352 E9.96168
G1 X104.163 Y92.675 E10.0588
G1 X105.279 Y94.358 E10.15955
G1 X105.791 Y96.051 E10.24779
G1 X105.959 Y97.513 E10.32121
G1 X105.727 Y99.227 E10.4075
G1 X104.983 Y100.84 E10.49612
G1 X103.848 Y102.165 E10.58316
G1 X102.31 Y103.171 E10.67485
G1 X100.914 Y103.584 E10.74748
G1 X99.785 Y103.759 E10.80448
G1 X98.363 Y103.688 E10.87551
G1 X96.659 Y103.043 E10.96641
G1 X95.657 Y102.333 E11.02768
G1 X94.68 Y101.415 E11.09456
G1 X93.616 Y99.773 E11.19218
G1 X93.098 Y98.019 E11.28342
G1 X92.944 Y96.563 E11.35647
G1 X93.155 Y95.105 E11.42996
G1 X93.551 Y94.011 E11.48801
G1 X94.519 Y92.454 E11.57948
G0 F3600 X94.821 Y92.726
G1 F1800 X96.097 Y91.727 E11.66033
G1 X97.043 Y91.228 E11.71368
G1 X98.613 Y90.822 E11.79459
G1 X100.081 Y90.824 E11.86783
G1 X101.1 Y91.097 E11.92046
G1 X102.516 Y91.694 E11.99713
G1 X103.857 Y92.936 E12.08831
G1 X104.912 Y94.528 E12.1836
G1 X105.398 Y96.135 E12.26736
G1 X105.556 Y97.509 E12.33636
G1 X105.339 Y99.113 E12.41711
G1 X104.643 Y100.622 E12.50002
G1 X103.582 Y101.861 E12.5814
G1 X102.141 Y102.803 E12.66729
G1 X100.8 Y103.2 E12.73706
G1 X99.769 Y103.357 E12.78909
G1 X98.444 Y103.291 E12.85528
G1 X96.848 Y102.687 E12.94041
G1 X95.931 Y102.041 E12.99638
G1 X94.99 Y101.157 E13.06079
G1 X93.983 Y99.603 E13.15317
G1 X93.492 Y97.94 E13.23968
G1 X93.347 Y96.57 E13.30841
G1 X93.545 Y95.202 E13.37737
G1 X93.912 Y94.188 E13.43117
G1 X94.821 Y92.726 E13.51706
G0 F3600 X95.123 Y92.998
G1 F1800 X96.315 Y92.065 E13.59258
G1 X97.191 Y91.603 E13.64199
G1 X98.662 Y91.222 E13.7178
G1 X100.027 Y91.224 E13.7859
G1 X100.945 Y91.466 E13.83326
G1 X102.295 Y92.035 E13.90635
G1 X103.55 Y93.197 E13.99168
G1 X104.546 Y94.701 E14.08168
G1 X105.005 Y96.219 E14.1608
G1 X105.153 Y97.505 E14.22538
G1 X104.951 Y98.999 E14.3006
G1 X104.303 Y100.404 E14.37779
G1 X103.316 Y101.557 E14.45351
G1 X101.972 Y102.435 E14.5336
G1 X100.686 Y102.816 E14.60052
G1 X99.749 Y102.955 E14.64778
G1 X98.524 Y102.894 E14.70897
G1 X97.038 Y102.332 E14.78823
G1 X96.205 Y101.749 E14.83895
G1 X95.3 Y100.899 E14.9009
G1 X94.35 Y99.433 E14.98805
G1 X93.886 Y97.861 E15.06982
G1 X93.75 Y96.577 E15.13424
G1 X93.935 Y95.299 E15.19866
G1 X94.273 Y94.365 E15.24822
G1 X95.123 Y92.998 E15.32853
G0 F3600 X95.425 Y93.27
G1 F1800 X96.533 Y92.403 E15.39872
G1 X97.339 Y91.978 E15.44418
G1 X98.712 Y91.622 E15.51494
G1 X99.974 Y91.624 E15.5779
G1 X100.843 Y91.853 E15.62274
G1 X102.075 Y92.376 E15.68951
G1 X103.241 Y93.456 E15.7688
G1 X104.18 Y94.874 E15.85365
G1 X104.612 Y96.303 E15.92813
G1 X104.75 Y97.501 E15.9883
G1 X104.563 Y98.886 E16.05802
G1 X103.964 Y100.185 E16.12939
G1 X103.05 Y101.253 E16.19952
G1 X101.801 Y102.069 E16.27395
G1 X100.627 Y102.42 E16.33508
G1 X99.73 Y102.553 E16.38032
G1 X98.604 Y102.497 E16.43657
G1 X97.225 Y101.976 E16.51012
G1 X96.479 Y101.457 E16.55545
G1 X95.61 Y100.641 E16.61493
G1 X94.717 Y99.263 E16.69685
G1 X94.28 Y97.782 E16.77389
G1 X94.153 Y96.584 E16.83399
G1 X94.325 Y95.396 E16.89388
G1 X94.634 Y94.542 E16.93919
G1 X95.425 Y93.27 E17.01392
G0 F3600 X95.727 Y93.542
G1 F1800 X96.753 Y92.739 E17.07892
G1 X97.484 Y92.354 E17.12014
G1 X98.763 Y92.022 E17.18606
G1 X99.921 Y92.024 E17.24383
G1 X100.741 Y92.24 E17.28614
G1 X101.855 Y92.717 E17.3466
G1 X102.932 Y93.715 E17.41985
G1 X103.814 Y95.047 E17.49955
G1 X104.219 Y96.387 E17.56939
G1 X104.347 Y97.498 E17.62519
G1 X104.175 Y98.773 E17.68937
G1 X103.625 Y99.966 E17.75491
G1 X102.784 Y100.949 E17.81945
G1 X101.631 Y101.702 E17.88816
G1 X100.568 Y102.024 E17.94357
G1 X99.706 Y102.152 E17.98705
G1 X98.687 Y102.101 E18.03795
G1 X97.413 Y101.62 E18.10589
G1 X96.753 Y101.165 E18.14588
G1 X95.92 Y100.383 E18.20289
G1 X95.084 Y99.093 E18.27958
G1 X94.674 Y97.703 E18.35188
G1 X94.556 Y96.591 E18.40767
G1 X94.715 Y95.493 E18.46302
G1 X94.995 Y94.719 E18.50408
G1 X95.727 Y93.542 E18.57323
G0 F3600 X96.029 Y93.814
G1 F1800 X96.973 Y93.075 E18.63304
G1 X97.63 Y92.729 E18.67009
G1 X98.813 Y92.422 E18.73106
G1 X99.868 Y92.424 E18.7837
G1 X100.639 Y92.627 E18.82348
G1 X101.634 Y93.058 E18.87757
G1 X102.623 Y93.974 E18.94483
G1 X103.448 Y95.22 E19.01938
G1 X103.826 Y96.471 E19.08458
G1 X103.944 Y97.495 E19.13601
G1 X103.787 Y98.66 E19.19465
G1 X103.286 Y99.747 E19.25437
G1 X102.518 Y100.645 E19.31332
G1 X101.458 Y101.337 E19.37647
G1 X100.509 Y101.628 E19.426
G1 X99.687 Y101.75 E19.46745
G1 X98.767 Y101.704 E19.51341
G1 X97.599 Y101.263 E19.5757
G1 X97.027 Y100.873 E19.61024
G1 X96.23 Y100.125 E19.66477
G1 X95.451 Y98.923 E19.73623
G1 X95.068 Y97.624 E19.80379
G1 X94.959 Y96.598 E19.85527
G1 X95.105 Y95.59 E19.90608
G1 X95.356 Y94.896 E19.9429
G1 X96.029 Y93.814 E20.00647
G0 F3600 X96.332 Y94.084
G1 F1800 X97.19 Y93.413 E20.06082
G1 X97.775 Y93.105 E20.0938
G1 X98.864 Y92.822 E20.14993
G1 X99.818 Y92.824 E20.19753
G1 X100.48 Y92.994 E20.23163
G1 X101.413 Y93.398 E20.28235
G1 X102.314 Y94.233 E20.34364
G1 X103.082 Y95.393 E20.41305
G1 X103.433 Y96.555 E20.47361
G1 X103.541 Y97.492 E20.52066
G1 X103.399 Y98.547 E20.57377
G1 X102.947 Y99.528 E20.62766
G1 X102.252 Y100.341 E20.68102
G1 X101.286 Y100.971 E20.73856
G1 X100.45 Y101.232 E20.78225
G1 X99.668 Y101.348 E20.82169
G1 X98.847 Y101.307 E20.8627
G1 X97.786 Y100.906 E20.91929
G1 X97.301 Y100.581 E20.94842
G1 X96.54 Y99.867 E21.00048
G1 X95.818 Y98.753 E21.06671
G1 X95.462 Y97.545 E21.12954
G1 X95.362 Y96.605 E21.1767
G1 X95.495 Y95.687 E21.22298
G1 X95.717 Y95.073 E21.25555
G1 X96.332 Y94.084 E21.31365
G0 F3600 X96.635 Y94.354
G1 F1800 X97.407 Y93.751 E21.36253
G1 X97.92 Y93.481 E21.39145
G1 X98.915 Y93.222 E21.44274
G1 X99.768 Y93.224 E21.4853
G1 X100.321 Y93.361 E21.51372
G1 X101.192 Y93.738 E21.56107
G1 X102.007 Y94.494 E21.61653
G1 X102.715 Y95.563 E21.6805
G1 X103.04 Y96.639 E21.73658
G1 X103.138 Y97.489 E21.77927
G1 X103.011 Y98.434 E21.82684
G1 X102.608 Y99.309 E21.8749
G1 X101.985 Y100.038 E21.92274
G1 X101.115 Y100.605 E21.97455
G1 X100.331 Y100.85 E22.01553
G1 X99.653 Y100.946 E22.04969
G1 X98.927 Y100.91 E22.08596
G1 X97.971 Y100.549 E22.13694
G1 X97.575 Y100.289 E22.16057
G1 X96.85 Y99.609 E22.21016
G1 X96.185 Y98.583 E22.27116
G1 X95.856 Y97.466 E22.32926
G1 X95.765 Y96.612 E22.3721
G1 X95.885 Y95.784 E22.41384
G1 X96.078 Y95.25 E22.44217
G1 X96.635 Y94.354 E22.49481
G0 F3600 X96.938 Y94.624
G1 F1800 X97.624 Y94.089 E22.53821
G1 X98.065 Y93.857 E22.56307
G1 X98.966 Y93.622 E22.60952
G1 X99.72 Y93.624 E22.64714
G1 X100.162 Y93.728 E22.6698
G1 X100.971 Y94.078 E22.71377
G1 X101.7 Y94.755 E22.76341
G1 X102.348 Y95.733 E22.82194
G1 X102.647 Y96.723 E22.87353
G1 X102.735 Y97.486 E22.91185
G1 X102.623 Y98.321 E22.95388
G1 X102.269 Y99.09 E22.99612
G1 X101.718 Y99.735 E23.03844
G1 X100.944 Y100.239 E23.08452
G1 X100.212 Y100.468 E23.12279
G1 X99.642 Y100.544 E23.15147
G1 X99.007 Y100.513 E23.18319
G1 X98.155 Y100.191 E23.22863
G1 X97.849 Y99.997 E23.24671
G1 X97.158 Y99.349 E23.29397
G1 X96.553 Y98.415 E23.34949
G1 X96.25 Y97.387 E23.40296
G1 X96.168 Y96.619 E23.44149
G1 X96.275 Y95.88 E23.47874
G1 X96.418 Y95.461 E23.50083
G1 X96.938 Y94.624 E23.54999
G0 F3600 X97.241 Y94.894
G1 F1800 X97.82 Y94.438 E23.58676
G1 X98.166 Y94.244 E23.60655
G1 X99.017 Y94.022 E23.65043
G1 X99.674 Y94.024 E23.68321
G1 X100.003 Y94.095 E23.7
G1 X100.75 Y94.418 E23.7406
G1 X101.393 Y95.016 E23.78441
G1 X101.981 Y95.903 E23.8375
G1 X102.254 Y96.807 E23.88462
G1 X102.332 Y97.483 E23.91857
G1 X102.235 Y98.205 E23.95491
G1 X101.928 Y98.874 E23.99163
G1 X101.451 Y99.432 E24.02826
G1 X100.773 Y99.873 E24.06861
G1 X100.154 Y100.072 E24.10105
G1 X99.661 Y100.144 E24.1259
G1 X99.087 Y100.116 E24.15458
G1 X98.296 Y99.817 E24.19676
G1 X98.074 Y99.666 E24.21016
G1 X97.47 Y99.093 E24.25169
G1 X96.92 Y98.245 E24.30212
G1 X96.644 Y97.309 E24.35081
G1 X96.571 Y96.626 E24.38508
G1 X96.671 Y95.938 E24.41976
G1 X96.758 Y95.672 E24.43372
G1 X97.241 Y94.894 E24.47941
G0 F3600 X97.544 Y95.165
G1 F1800 X98.068 Y94.752 E24.5127
G1 X98.317 Y94.618 E24.5268
G1 X99.068 Y94.422 E24.56553
G1 X99.673 Y94.424 E24.59571
G1 X99.904 Y94.483 E24.6076
G1 X100.528 Y94.758 E24.64162
G1 X101.086 Y95.277 E24.67964
G1 X101.614 Y96.073 E24.7273
G1 X101.861 Y96.891 E24.76993
G1 X101.929 Y97.48 E24.79951
G1 X101.847 Y98.091 E24.83027
G1 X101.588 Y98.657 E24.86132
G1 X101.184 Y99.129 E24.89232
G1 X100.601 Y99.508 E24.92701
G1 X100.089 Y99.677 E24.95391
G1 X99.68 Y99.744 E24.97458
G1 X99.167 Y99.719 E25.00021
G1 X98.482 Y99.46 E25.03674
G1 X98.349 Y99.376 E25.04459
G1 X97.782 Y98.838 E25.08359
G1 X97.287 Y98.075 E25.12896
G1 X97.038 Y97.231 E25.17286
G1 X96.974 Y96.633 E25.20287
G1 X97.067 Y95.996 E25.23499
G1 X97.123 Y95.843 E25.24311
G1 X97.544 Y95.165 E25.28293
G0 F3600 X97.847 Y95.436
G1 F1800 X98.316 Y95.066 E25.31273
G1 X98.463 Y94.993 E25.32092
G1 X99.119 Y94.822 E25.35474
G1 X99.587 Y94.815 E25.37809
G1 X99.742 Y94.849 E25.38601
G1 X100.306 Y95.098 E25.41677
G1 X100.779 Y95.538 E25.449
G1 X101.247 Y96.243 E25.49122
G1 X101.478 Y97.007 E25.53104
G1 X101.526 Y97.478 E25.55466
G1 X101.459 Y97.976 E25.57973
G1 X101.246 Y98.441 E25.60524
G1 X100.917 Y98.826 E25.63051
G1 X100.429 Y99.143 E25.65954
G1 X99.963 Y99.297 E25.68403
G1 X99.621 Y99.348 E25.70128
G1 X99.25 Y99.323 E25.71983
G1 X98.624 Y99.086 E25.75322
G1 X98.094 Y98.583 E25.78968
G1 X97.654 Y97.905 E25.83
G1 X97.432 Y97.153 E25.86912
G1 X97.377 Y96.64 E25.89486
G1 X97.463 Y96.054 E25.92441
G1 X97.847 Y95.436 E25.96071
G0 F3600 X98.15 Y95.707
G1 F1800 X98.564 Y95.38 E25.98703
G1 X99.22 Y95.209 E26.02085
G1 X99.58 Y95.215 E26.03881
G1 X100.082 Y95.437 E26.0662
G1 X100.472 Y95.8 E26.09278
G1 X100.881 Y96.415 E26.12963
G1 X101.095 Y97.123 E26.16653
G1 X101.127 Y97.511 E26.18595
G1 X101.064 Y97.914 E26.2063
G1 X100.889 Y98.26 E26.22564
G1 X100.62 Y98.558 E26.24567
G1 X100.303 Y98.763 E26.26451
G1 X99.837 Y98.917 E26.28899
G1 X99.57 Y98.951 E26.30242
G1 X99.287 Y98.925 E26.3166
G1 X98.84 Y98.74 E26.34073
G1 X98.404 Y98.326 E26.37073
G1 X98.022 Y97.738 E26.40571
G1 X97.816 Y97.04 E26.44202
G1 X97.775 Y96.603 E26.46392
G1 X97.846 Y96.195 E26.48458
G1 X98.15 Y95.707 E26.51326
G0 F3600 X98.477 Y95.937
G1 F1800 X98.745 Y95.746 E26.52968
G1 X99.321 Y95.596 E26.55938
G1 X99.549 Y95.614 E26.57079
G1 X99.817 Y95.737 E26.5855
G1 X100.139 Y96.022 E26.60695
G1 X100.516 Y96.588 E26.64088
G1 X100.699 Y97.196 E26.67256
G1 X100.728 Y97.544 E26.68998
G1 X100.671 Y97.838 E26.70492
G1 X100.592 Y97.992 E26.71356
G1 X100.323 Y98.29 E26.73359
G1 X100.104 Y98.416 E26.74619
G1 X99.786 Y98.52 E26.76288
G1 X99.519 Y98.554 E26.77631
G1 X99.343 Y98.529 E26.78518
G1 X99.062 Y98.399 E26.80063
G1 X98.739 Y98.108 E26.82232
G1 X98.39 Y97.571 E26.85427
G1 X98.2 Y96.927 E26.88777
G1 X98.174 Y96.574 E26.90543
G1 X98.237 Y96.278 E26.92052
G1 X98.477 Y95.937 E26.94133
G0 F3600 X98.783 Y96.195
G1 F1800 X98.958 Y96.085 E26.95164
G1 X99.406 Y95.987 E26.97452
G1 X99.565 Y96.048 E26.98302
G1 X99.806 Y96.243 E26.99848
G1 X100.149 Y96.759 E27.02939
G1 X100.316 Y97.312 E27.05821
G1 X100.329 Y97.565 E27.07085
G1 X100.284 Y97.737 E27.07972
G1 X100.104 Y97.955 E27.09383
G1 X99.98 Y98.036 E27.10122
G1 X99.662 Y98.14 E27.11791
G1 X99.485 Y98.155 E27.12677
G1 X99.317 Y98.091 E27.13574
G1 X99.074 Y97.89 E27.15147
G1 X98.758 Y97.404 E27.1804
G1 X98.584 Y96.814 E27.21108
G1 X98.574 Y96.558 E27.22387
G1 X98.622 Y96.386 E27.23277
G1 X98.783 Y96.195 E27.24524
G0 F3600 X99.076 Y96.467
G1 F1800 X99.347 Y96.383 E27.25939
G1 X99.473 Y96.465 E27.26689
G1 X99.784 Y96.932 E27.29488
G1 X99.933 Y97.427 E27.32067
G1 X99.929 Y97.552 E27.32691
G1 X99.827 Y97.666 E27.33455
G1 X99.539 Y97.759 E27.34964
G1 X99.409 Y97.672 E27.35745
G1 X99.126 Y97.237 E27.38334
G1 X98.968 Y96.701 E27.41122
G1 X98.974 Y96.577 E27.41741
G1 X99.076 Y96.467 E27.4249
G1 F1500 E20.9249
G0 F3600 X99.726 Y96.018
G0 X107.394 Y91.321
G1 F1500 E27.4249
G1 F1800 X107.768 Y89.639 E27.51086
G1 X108.58 Y88.095 E27.59789
G1 X109.249 Y87.149 E27.6557
G1 X111.017 Y85.642 E27.7716
G1 X113.021 Y84.877 E27.87862
G1 X114.485 Y84.692 E27.95224
G1 X116.425 Y84.789 E28.04915
G1 X118.444 Y85.53 E28.15644
G1 X119.746 Y86.449 E28.23595
G1 X120.873 Y87.615 E28.31686
G1 X121.808 Y89.251 E28.41087
G1 X122.505 Y91.523 E28.52943
G1 X122.465 Y93.66 E28.63606
G1 X122.161 Y95.283 E28.71844
G1 X121.278 Y97.202 E28.82383
G1 X120.905 Y97.688 E28.8544
G1 X119.45 Y99.08 E28.95486
G1 X117.494 Y100.123 E29.06545
G1 X115.477 Y100.491 E29.16774
G1 X114.117 Y100.425 E29.23567
G1 X113.068 Y100.267 E29.28859
G1 X111.31 Y99.635 E29.3818
G1 X109.362 Y98.111 E29.50519
G1 X107.999 Y95.935 E29.63329
G1 X107.323 Y93.468 E29.76091
G1 X107.394 Y91.321 E29.86808
G0 F3600 X107.793 Y91.368
G1 F1800 X108.146 Y89.779 E29.94929
G1 X108.907 Y88.326 E30.03112
G1 X109.548 Y87.42 E30.08649
G1 X111.223 Y85.992 E30.1963
G1 X113.12 Y85.268 E30.2976
G1 X114.504 Y85.093 E30.3672
G1 X116.341 Y85.185 E30.45896
G1 X118.257 Y85.888 E30.56078
G1 X119.485 Y86.755 E30.63578
G1 X120.551 Y87.858 E30.71231
G1 X121.44 Y89.413 E30.80167
G1 X122.104 Y91.578 E30.91465
G1 X122.066 Y93.62 E31.01654
G1 X121.777 Y95.162 E31.09481
G1 X120.934 Y96.993 E31.19538
G1 X120.628 Y97.399 E31.22074
G1 X119.212 Y98.754 E31.31852
G1 X117.363 Y99.74 E31.42306
G1 X115.45 Y100.089 E31.52008
G1 X114.177 Y100.029 E31.58366
G1 X113.161 Y99.876 E31.63492
G1 X111.506 Y99.281 E31.72266
G1 X109.664 Y97.84 E31.83934
G1 X108.37 Y95.774 E31.96096
G1 X107.725 Y93.42 E32.08273
G1 X107.793 Y91.368 E32.18516
G1 F1500 E25.68516
G0 F3600 X109.848 Y87.689
G1 F1500 E32.18516
G1 F1800 X111.427 Y86.343 E32.28868
G1 X113.219 Y85.659 E32.38437
G1 X114.523 Y85.494 E32.44995
G1 X116.257 Y85.581 E32.53656
G1 X118.07 Y86.246 E32.63291
G1 X119.224 Y87.061 E32.70339
G1 X120.229 Y88.101 E32.77555
G1 X121.072 Y89.575 E32.86026
G1 X121.703 Y91.633 E32.96765
G1 X121.667 Y93.58 E33.06481
G1 X121.393 Y95.041 E33.13897
G1 X120.571 Y96.826 E33.23701
G1 X120.351 Y97.11 E33.25493
G1 X118.974 Y98.428 E33.35003
G1 X117.229 Y99.358 E33.44868
G1 X115.427 Y99.687 E33.54007
G1 X114.237 Y99.633 E33.5995
G1 X113.254 Y99.485 E33.64909
G1 X111.702 Y98.927 E33.73137
G1 X109.966 Y97.569 E33.84133
G1 X108.741 Y95.613 E33.95648
G1 X108.127 Y93.372 E34.0724
G1 X108.192 Y91.415 E34.17009
G1 X108.524 Y89.92 E34.24649
G1 X109.234 Y88.557 E34.32317
G1 X109.848 Y87.689 E34.37621
G0 F3600 X110.148 Y87.958
G1 F1800 X111.631 Y86.694 E34.47343
G1 X113.318 Y86.05 E34.56352
G1 X114.536 Y85.896 E34.62477
G1 X116.176 Y85.978 E34.70669
G1 X117.883 Y86.604 E34.7974
G1 X118.963 Y87.367 E34.86337
G1 X119.907 Y88.344 E34.93115
G1 X120.704 Y89.737 E35.01121
G1 X121.302 Y91.688 E35.11302
G1 X121.268 Y93.54 E35.20543
G1 X121.009 Y94.92 E35.27548
G1 X120.228 Y96.616 E35.36864
G1 X120.074 Y96.821 E35.38143
G1 X118.736 Y98.102 E35.47384
G1 X117.098 Y98.975 E35.56644
G1 X115.399 Y99.285 E35.65261
G1 X114.255 Y99.233 E35.70974
G1 X113.352 Y99.096 E35.75531
G1 X111.898 Y98.573 E35.8324
G1 X110.268 Y97.298 E35.93564
G1 X109.112 Y95.452 E36.04431
G1 X108.529 Y93.324 E36.15439
G1 X108.591 Y91.467 E36.24708
G1 X108.904 Y90.056 E36.31919
G1 X109.561 Y88.788 E36.39044
G1 X110.148 Y87.958 E36.44116
G0 F3600 X110.447 Y88.229
G1 F1800 X111.837 Y87.044 E36.53228
G1 X113.417 Y86.441 E36.61666
G1 X114.555 Y86.297 E36.67388
G1 X116.092 Y86.374 E36.75066
G1 X117.696 Y86.962 E36.83589
G1 X118.702 Y87.673 E36.89735
G1 X119.587 Y88.588 E36.96086
G1 X120.335 Y89.897 E37.03608
G1 X120.901 Y91.743 E37.13241
G1 X120.869 Y93.5 E37.22008
G1 X120.625 Y94.799 E37.28602
G1 X119.883 Y96.41 E37.37451
G1 X119.797 Y96.532 E37.38195
G1 X118.498 Y97.776 E37.47169
G1 X116.964 Y98.593 E37.55839
G1 X115.376 Y98.883 E37.63893
G1 X114.273 Y98.833 E37.69402
G1 X113.45 Y98.707 E37.73555
G1 X112.094 Y98.219 E37.80745
G1 X110.57 Y97.027 E37.90398
G1 X109.483 Y95.291 E38.00617
G1 X108.931 Y93.276 E38.1104
G1 X108.99 Y91.519 E38.19811
G1 X109.284 Y90.193 E38.26587
G1 X109.888 Y89.019 E38.33174
G1 X110.447 Y88.229 E38.38002
G0 F3600 X110.747 Y88.498
G1 F1800 X112.041 Y87.395 E38.46485
G1 X113.516 Y86.832 E38.54361
G1 X114.574 Y86.698 E38.59682
G1 X116.008 Y86.77 E38.66845
G1 X117.509 Y87.32 E38.74821
G1 X118.441 Y87.979 E38.80515
G1 X119.265 Y88.831 E38.86429
G1 X119.967 Y90.059 E38.93486
G1 X120.5 Y91.798 E39.0256
G1 X120.47 Y93.46 E39.10853
G1 X120.241 Y94.678 E39.17036
G1 X119.52 Y96.243 E39.25633
G1 X118.26 Y97.45 E39.34338
G1 X116.833 Y98.21 E39.42404
G1 X115.348 Y98.481 E39.49935
G1 X114.291 Y98.433 E39.55214
G1 X113.548 Y98.318 E39.58965
G1 X112.292 Y97.866 E39.65624
G1 X110.871 Y96.754 E39.74626
G1 X109.854 Y95.13 E39.84186
G1 X109.333 Y93.229 E39.9402
G1 X109.389 Y91.57 E40.02301
G1 X109.664 Y90.328 E40.08648
G1 X110.215 Y89.25 E40.14688
G1 X110.747 Y88.498 E40.19283
G0 F3600 X111.047 Y88.767
G1 F1800 X112.245 Y87.746 E40.27136
G1 X113.615 Y87.223 E40.34452
G1 X114.593 Y87.099 E40.39371
G1 X115.925 Y87.166 E40.46025
G1 X117.321 Y87.677 E40.53441
G1 X118.18 Y88.284 E40.58689
G1 X118.943 Y89.074 E40.64168
G1 X119.599 Y90.221 E40.7076
G1 X120.099 Y91.853 E40.79276
G1 X120.071 Y93.42 E40.87095
G1 X119.857 Y94.557 E40.92867
G1 X119.19 Y96.005 E41.00821
G1 X118.022 Y97.124 E41.08891
G1 X116.702 Y97.827 E41.16352
G1 X115.32 Y98.079 E41.2336
G1 X114.309 Y98.033 E41.2841
G1 X113.647 Y97.929 E41.31753
G1 X112.487 Y97.511 E41.37904
G1 X111.173 Y96.483 E41.46228
G1 X110.225 Y94.969 E41.5514
G1 X109.735 Y93.182 E41.64384
G1 X109.788 Y91.621 E41.72177
G1 X110.044 Y90.464 E41.78088
G1 X110.542 Y89.481 E41.83586
G1 X111.047 Y88.767 E41.87949
G0 F3600 X111.345 Y89.038
G1 F1800 X112.451 Y88.096 E41.95197
G1 X113.714 Y87.614 E42.01942
G1 X114.606 Y87.501 E42.06427
G1 X115.845 Y87.563 E42.12616
G1 X117.133 Y88.034 E42.19459
G1 X117.918 Y88.589 E42.24255
G1 X118.621 Y89.317 E42.29304
G1 X119.231 Y90.383 E42.35431
G1 X119.698 Y91.908 E42.43388
G1 X119.672 Y93.38 E42.50733
G1 X119.473 Y94.436 E42.56094
G1 X118.86 Y95.767 E42.63405
G1 X117.784 Y96.798 E42.7084
G1 X116.568 Y97.445 E42.77712
G1 X115.297 Y97.677 E42.84158
G1 X114.327 Y97.633 E42.89002
G1 X113.746 Y97.54 E42.91938
G1 X112.684 Y97.157 E42.9757
G1 X111.474 Y96.21 E43.05236
G1 X110.596 Y94.808 E43.13489
G1 X110.137 Y93.135 E43.22144
G1 X110.187 Y91.672 E43.29447
G1 X110.424 Y90.599 E43.34929
G1 X110.869 Y89.712 E43.3988
G1 X111.345 Y89.038 E43.43997
G0 F3600 X111.642 Y89.31
G1 F1800 X112.655 Y88.447 E43.50636
G1 X113.813 Y88.005 E43.5682
G1 X114.625 Y87.902 E43.60903
G1 X115.762 Y87.959 E43.66583
G1 X116.945 Y88.391 E43.72866
G1 X117.657 Y88.894 E43.77215
G1 X118.301 Y89.561 E43.81841
G1 X118.862 Y90.543 E43.87483
G1 X119.297 Y91.963 E43.94893
G1 X119.273 Y93.34 E44.01764
G1 X119.089 Y94.315 E44.06714
G1 X118.53 Y95.529 E44.13382
G1 X117.546 Y96.472 E44.20181
G1 X116.434 Y97.063 E44.26464
G1 X115.274 Y97.275 E44.32347
G1 X114.345 Y97.233 E44.36987
G1 X113.844 Y97.15 E44.3952
G1 X112.879 Y96.802 E44.44638
G1 X111.776 Y95.939 E44.51625
G1 X110.967 Y94.647 E44.5923
G1 X110.539 Y93.088 E44.67296
G1 X110.586 Y91.723 E44.7411
G1 X110.804 Y90.734 E44.79163
G1 X111.227 Y89.891 E44.83868
G1 X111.642 Y89.31 E44.8743
G0 F3600 X111.939 Y89.582
G1 F1800 X112.861 Y88.797 E44.93471
G1 X113.912 Y88.396 E44.99084
G1 X114.644 Y88.303 E45.02765
G1 X115.679 Y88.355 E45.07935
G1 X116.757 Y88.748 E45.1366
G1 X117.395 Y89.199 E45.17558
G1 X117.98 Y89.805 E45.2176
G1 X118.493 Y90.703 E45.26919
G1 X118.896 Y92.018 E45.33781
G1 X118.874 Y93.3 E45.40178
G1 X118.705 Y94.194 E45.44717
G1 X118.2 Y95.291 E45.50742
G1 X117.308 Y96.145 E45.56903
G1 X116.3 Y96.681 E45.62599
G1 X115.25 Y96.873 E45.67924
G1 X114.411 Y96.838 E45.72114
G1 X113.942 Y96.76 E45.74486
G1 X113.074 Y96.447 E45.79089
G1 X112.078 Y95.668 E45.85397
G1 X111.338 Y94.486 E45.92355
G1 X110.941 Y93.041 E45.99831
G1 X110.985 Y91.774 E46.06156
G1 X111.184 Y90.869 E46.10779
G1 X111.585 Y90.07 E46.15239
G1 X111.939 Y89.582 E46.18247
G0 F3600 X112.235 Y89.855
G1 F1800 X113.068 Y89.146 E46.23704
G1 X114.01 Y88.787 E46.28733
G1 X114.657 Y88.705 E46.31987
G1 X115.6 Y88.752 E46.36698
G1 X116.569 Y89.105 E46.41843
G1 X117.133 Y89.504 E46.4529
G1 X117.659 Y90.049 E46.49068
G1 X118.124 Y90.863 E46.53745
G1 X118.495 Y92.073 E46.60059
G1 X118.475 Y93.26 E46.65982
G1 X118.321 Y94.073 E46.70111
G1 X117.869 Y95.055 E46.75504
G1 X117.072 Y95.817 E46.81005
G1 X116.169 Y96.298 E46.86109
G1 X115.221 Y96.471 E46.90917
G1 X114.476 Y96.443 E46.94636
G1 X114.041 Y96.371 E46.96836
G1 X113.271 Y96.093 E47.0092
G1 X112.379 Y95.395 E47.06571
G1 X111.709 Y94.325 E47.1287
G1 X111.343 Y92.994 E47.19757
G1 X111.384 Y91.825 E47.25592
G1 X111.565 Y91 E47.29806
G1 X111.909 Y90.305 E47.33675
G1 X112.235 Y89.855 E47.36447
G0 F3600 X112.529 Y90.13
G1 F1800 X113.275 Y89.495 E47.41335
G1 X114.107 Y89.178 E47.45777
G1 X114.67 Y89.107 E47.48608
G1 X115.521 Y89.149 E47.52859
G1 X116.384 Y89.463 E47.5744
G1 X116.868 Y89.806 E47.604
G1 X117.337 Y90.292 E47.63769
G1 X117.756 Y91.025 E47.67982
G1 X118.094 Y92.128 E47.73737
G1 X118.076 Y93.219 E47.79181
G1 X117.937 Y93.952 E47.82903
G1 X117.538 Y94.819 E47.87665
G1 X116.837 Y95.489 E47.92502
G1 X116.035 Y95.916 E47.97035
G1 X115.195 Y96.07 E48.01296
G1 X114.542 Y96.048 E48.04556
G1 X114.139 Y95.981 E48.06594
G1 X113.468 Y95.739 E48.10153
G1 X112.68 Y95.122 E48.15146
G1 X112.08 Y94.164 E48.20785
G1 X111.745 Y92.947 E48.27083
G1 X111.783 Y91.876 E48.32429
G1 X111.946 Y91.133 E48.36224
G1 X112.268 Y90.482 E48.39848
G1 X112.529 Y90.13 E48.42034
G0 F3600 X112.788 Y90.435
G1 F1800 X113.481 Y89.845 E48.46575
G1 X114.207 Y89.568 E48.50451
G1 X114.65 Y89.507 E48.52682
G1 X115.442 Y89.546 E48.56638
G1 X116.198 Y89.821 E48.60652
G1 X116.58 Y90.084 E48.62966
G1 X117.015 Y90.535 E48.66092
G1 X117.388 Y91.187 E48.69839
G1 X117.693 Y92.183 E48.75036
G1 X117.677 Y93.178 E48.80001
G1 X117.553 Y93.831 E48.83317
G1 X117.207 Y94.583 E48.87447
G1 X116.602 Y95.161 E48.91621
G1 X115.901 Y95.534 E48.95583
G1 X115.168 Y95.669 E48.99301
G1 X114.607 Y95.653 E49.02101
G1 X114.238 Y95.592 E49.03967
G1 X113.665 Y95.385 E49.07007
G1 X112.981 Y94.849 E49.11342
G1 X112.451 Y94.003 E49.16323
G1 X112.147 Y92.9 E49.22031
G1 X112.182 Y91.927 E49.26888
G1 X112.327 Y91.266 E49.30264
G1 X112.627 Y90.659 E49.33642
G1 X112.788 Y90.435 E49.35019
G0 F3600 X113.084 Y90.709
G1 F1800 X113.688 Y90.194 E49.38979
G1 X114.349 Y89.942 E49.42508
G1 X114.63 Y89.907 E49.43921
G1 X115.363 Y89.943 E49.47582
G1 X116.061 Y90.197 E49.51288
G1 X116.292 Y90.362 E49.52704
G1 X116.693 Y90.778 E49.55587
G1 X117.02 Y91.349 E49.58869
G1 X117.292 Y92.238 E49.63508
G1 X117.278 Y93.137 E49.67993
G1 X117.169 Y93.71 E49.70903
G1 X116.877 Y94.345 E49.7439
G1 X116.364 Y94.834 E49.77926
G1 X115.767 Y95.152 E49.81301
G1 X115.139 Y95.268 E49.84487
G1 X114.673 Y95.258 E49.86812
G1 X114.336 Y95.202 E49.88517
G1 X113.863 Y95.031 E49.91026
G1 X113.282 Y94.576 E49.94708
G1 X112.822 Y93.842 E49.99029
G1 X112.549 Y92.853 E50.04148
G1 X112.581 Y91.977 E50.08521
G1 X112.707 Y91.4 E50.11468
G1 X112.986 Y90.836 E50.14607
G1 X113.084 Y90.709 E50.15407
G0 F3600 X113.344 Y91.013
G1 F1800 X113.895 Y90.543 E50.1902
G1 X114.448 Y90.333 E50.21972
G1 X114.61 Y90.307 E50.2279
G1 X115.284 Y90.34 E50.26157
G1 X115.874 Y90.555 E50.2929
G1 X116.004 Y90.64 E50.30065
G1 X116.371 Y91.021 E50.32704
G1 X116.65 Y91.507 E50.355
G1 X116.891 Y92.296 E50.39615
G1 X116.879 Y93.096 E50.43607
G1 X116.785 Y93.589 E50.46111
G1 X116.546 Y94.108 E50.48962
G1 X116.129 Y94.506 E50.51838
G1 X115.632 Y94.771 E50.54648
G1 X115.109 Y94.867 E50.573
G1 X114.739 Y94.863 E50.59146
G1 X114.402 Y94.807 E50.60851
G1 X114.059 Y94.676 E50.62683
G1 X113.583 Y94.303 E50.657
G1 X113.193 Y93.681 E50.69362
G1 X112.951 Y92.805 E50.73896
G1 X112.98 Y92.027 E50.77781
G1 X113.088 Y91.53 E50.80318
G1 X113.344 Y91.013 E50.83196
G0 F3600 X113.667 Y91.262
G1 F1800 X114.1 Y90.893 E50.86034
G1 X114.59 Y90.707 E50.88649
G1 X115.264 Y90.74 E50.92016
G1 X115.724 Y90.926 E50.94491
G1 X116.024 Y91.22 E50.96587
G1 X116.28 Y91.665 E50.99148
G1 X116.49 Y92.354 E51.02742
G1 X116.479 Y93.09 E51.06414
G1 X116.393 Y93.509 E51.08548
G1 X116.214 Y93.873 E51.10572
G1 X115.941 Y94.153 E51.12523
G1 X115.498 Y94.389 E51.15027
G1 X115.108 Y94.467 E51.17011
G1 X114.805 Y94.468 E51.18523
G1 X114.468 Y94.412 E51.20227
G1 X114.212 Y94.306 E51.2161
G1 X113.884 Y94.031 E51.23745
G1 X113.564 Y93.52 E51.26753
G1 X113.353 Y92.757 E51.30703
G1 X113.38 Y92.042 E51.34272
G1 X113.478 Y91.62 E51.36434
G1 X113.667 Y91.262 E51.38453
G0 F3600 X114.014 Y91.461
G1 F1800 X114.342 Y91.212 E51.40508
G1 X114.651 Y91.111 E51.4213
G1 X115.244 Y91.14 E51.45092
G1 X115.456 Y91.223 E51.46228
G1 X115.682 Y91.427 E51.47747
G1 X115.897 Y91.782 E51.49817
G1 X116.089 Y92.412 E51.53103
G1 X116.079 Y93.084 E51.56456
G1 X116.003 Y93.421 E51.58179
G1 X115.862 Y93.683 E51.59664
G1 X115.74 Y93.807 E51.60532
G1 X115.41 Y93.999 E51.62436
G1 X115.107 Y94.067 E51.63986
G1 X114.804 Y94.068 E51.65497
G1 X114.542 Y94.019 E51.66827
G1 X114.383 Y93.944 E51.67704
G1 X114.153 Y93.735 E51.69255
G1 X113.935 Y93.361 E51.71414
G1 X113.755 Y92.712 E51.74775
G1 X113.78 Y92.057 E51.78045
G1 X113.866 Y91.719 E51.79785
G1 X114.014 Y91.461 E51.81269
G0 F3600 X114.348 Y91.682
G1 F1800 X114.556 Y91.55 E51.82498
G1 X114.753 Y91.498 E51.83514
G1 X115.209 Y91.538 E51.85798
G1 X115.348 Y91.647 E51.86679
G1 X115.514 Y91.899 E51.88185
G1 X115.688 Y92.47 E51.91163
G1 X115.679 Y93.078 E51.94196
G1 X115.616 Y93.321 E51.95449
G1 X115.522 Y93.472 E51.96336
G1 X115.305 Y93.613 E51.97627
G1 X115.106 Y93.667 E51.98656
G1 X114.803 Y93.668 E52.00168
G1 X114.63 Y93.629 E52.01052
G1 X114.49 Y93.519 E52.01941
G1 X114.32 Y93.254 E52.03512
G1 X114.157 Y92.667 E52.06551
G1 X114.18 Y92.072 E52.09522
G1 X114.25 Y91.83 E52.10778
G1 X114.348 Y91.682 E52.11664
G0 F3600 X114.624 Y91.971
G1 F1800 X114.753 Y91.898 E52.12403
G1 X115.036 Y91.898 E52.13815
G1 X115.131 Y92.016 E52.14571
G1 X115.287 Y92.528 E52.17241
G1 X115.279 Y93.072 E52.19956
G1 X115.238 Y93.19 E52.20579
G1 X115.105 Y93.267 E52.21346
G1 X114.802 Y93.268 E52.22857
G1 X114.705 Y93.147 E52.23631
G1 X114.559 Y92.622 E52.2635
G1 X114.58 Y92.088 E52.29016
G1 X114.624 Y91.971 E52.2964
G1 F1500 E45.7964
G0 F3600 X114.553 Y91.457
G0 X123.592 Y91.587
G1 F1500 E52.2964
G1 F1800 X124.176 Y89.959 E52.38268
G1 X125.024 Y88.337 E52.474
G1 X126.235 Y87.051 E52.56213
G1 X127.258 Y86.373 E52.62336
G1 X129.093 Y85.565 E52.72339
G1 X130.969 Y85.455 E52.81714
G1 X132.385 Y85.624 E52.88829
G1 X133.961 Y86.186 E52.97176
G1 X135.483 Y87.15 E53.06165
G1 X136.452 Y88.247 E53.13467
G1 X137.43 Y89.837 E53.2278
G1 X137.886 Y91.905 E53.33345
G1 X137.864 Y94.113 E53.44361
G1 X137.176 Y96.253 E53.55576
G1 X136.441 Y97.529 E53.62923
G1 X135.245 Y98.842 E53.71784
G1 X134.772 Y99.23 E53.74836
G1 X132.965 Y100.124 E53.84894
G1 X130.818 Y100.534 E53.95799
G1 X128.974 Y100.26 E54.051
G1 X127.678 Y99.786 E54.11984
G1 X126.701 Y99.295 E54.17439
G1 X125.373 Y98.203 E54.26017
G1 X124.288 Y96.626 E54.35567
G1 X123.885 Y95.525 E54.41416
G1 X123.512 Y93.868 E54.4989
G1 X123.592 Y91.587 E54.61277
G1 F1500 E48.11277
G0 F3600 X125.353 Y88.57
G1 F1500 E54.61277
G1 F1800 X126.494 Y87.359 E54.69578
G1 X127.449 Y86.726 E54.75294
G1 X129.189 Y85.96 E54.84779
G1 X130.956 Y85.856 E54.9361
G1 X132.292 Y86.016 E55.00323
G1 X133.785 Y86.548 E55.0823
G1 X135.22 Y87.457 E55.16705
G1 X136.128 Y88.485 E55.23548
G1 X137.054 Y89.99 E55.32364
G1 X137.486 Y91.948 E55.42367
G1 X137.465 Y94.048 E55.52845
G1 X136.809 Y96.088 E55.63535
G1 X136.114 Y97.294 E55.7048
G1 X134.949 Y98.573 E55.79111
G1 X134.556 Y98.89 E55.8163
G1 X132.836 Y99.741 E55.91204
G1 X130.81 Y100.128 E56.01495
G1 X129.072 Y99.87 E56.1026
G1 X127.815 Y99.41 E56.16938
G1 X126.921 Y98.958 E56.21936
G1 X125.672 Y97.931 E56.30004
G1 X124.646 Y96.44 E56.39033
G1 X124.261 Y95.388 E56.44622
G1 X123.914 Y93.833 E56.52571
G1 X123.99 Y91.664 E56.63399
G1 X124.553 Y90.094 E56.7172
G1 X125.353 Y88.57 E56.80307
G0 F3600 X125.683 Y88.802
G1 F1800 X126.753 Y87.667 E56.88089
G1 X127.64 Y87.079 E56.93398
G1 X129.285 Y86.355 E57.02365
G1 X130.944 Y86.257 E57.10656
G1 X132.199 Y86.407 E57.16962
G1 X133.609 Y86.91 E57.24431
G1 X134.957 Y87.764 E57.32392
G1 X135.804 Y88.723 E57.38775
G1 X136.678 Y90.143 E57.47094
G1 X137.086 Y91.991 E57.56536
G1 X137.066 Y93.982 E57.6647
G1 X136.441 Y95.924 E57.76648
G1 X135.787 Y97.059 E57.83183
G1 X134.653 Y98.304 E57.91585
G1 X134.379 Y98.531 E57.9336
G1 X132.707 Y99.358 E58.02666
G1 X130.802 Y99.722 E58.12342
G1 X129.17 Y99.48 E58.20573
G1 X127.996 Y99.053 E58.26806
G1 X127.14 Y98.62 E58.31592
G1 X125.969 Y97.657 E58.39155
G1 X125.006 Y96.258 E58.47629
G1 X124.637 Y95.25 E58.52984
G1 X124.316 Y93.795 E58.60418
G1 X124.388 Y91.741 E58.70671
G1 X124.93 Y90.229 E58.78685
G1 X125.683 Y88.802 E58.86735
G0 F3600 X126.011 Y89.037
G1 F1800 X127.012 Y87.975 E58.94016
G1 X127.831 Y87.432 E58.98918
G1 X129.381 Y86.75 E59.07366
G1 X130.932 Y86.658 E59.15118
G1 X132.104 Y86.798 E59.21007
G1 X133.434 Y87.273 E59.28053
G1 X134.694 Y88.071 E59.35493
G1 X135.48 Y88.961 E59.41417
G1 X136.302 Y90.296 E59.49239
G1 X136.686 Y92.034 E59.58119
G1 X136.667 Y93.916 E59.67509
G1 X136.073 Y95.76 E59.77174
G1 X135.46 Y96.824 E59.833
G1 X134.357 Y98.035 E59.91473
G1 X134.159 Y98.194 E59.9274
G1 X132.581 Y98.975 E60.01524
G1 X130.794 Y99.316 E60.106
G1 X129.266 Y99.09 E60.18306
G1 X128.177 Y98.696 E60.24084
G1 X127.359 Y98.282 E60.28658
G1 X126.266 Y97.383 E60.35718
G1 X125.365 Y96.075 E60.43642
G1 X125.013 Y95.113 E60.48753
G1 X124.718 Y93.759 E60.55666
G1 X124.786 Y91.818 E60.65356
G1 X125.307 Y90.364 E60.73062
G1 X126.011 Y89.037 E60.80556
G0 F3600 X126.339 Y89.271
G1 F1800 X127.271 Y88.283 E60.87332
G1 X128.022 Y87.785 E60.91828
G1 X129.477 Y87.145 E60.99758
G1 X130.919 Y87.059 E61.06965
G1 X132.011 Y87.19 E61.12452
G1 X133.258 Y87.635 E61.19058
G1 X134.431 Y88.378 E61.25985
G1 X135.156 Y89.199 E61.3145
G1 X135.926 Y90.449 E61.38774
G1 X136.286 Y92.077 E61.47093
G1 X136.268 Y93.85 E61.55939
G1 X135.705 Y95.596 E61.65091
G1 X135.133 Y96.589 E61.70808
G1 X134.061 Y97.766 E61.78751
G1 X133.942 Y97.856 E61.79495
G1 X132.455 Y98.592 E61.87773
G1 X130.786 Y98.91 E61.96249
G1 X129.36 Y98.699 E62.03441
G1 X128.358 Y98.339 E62.08753
G1 X127.578 Y97.944 E62.13115
G1 X126.563 Y97.109 E62.19672
G1 X125.724 Y95.892 E62.27047
G1 X125.389 Y94.976 E62.31913
G1 X125.12 Y93.724 E62.38302
G1 X125.184 Y91.895 E62.47432
G1 X125.684 Y90.499 E62.5483
G1 X126.339 Y89.271 E62.61774
G0 F3600 X126.665 Y89.509
G1 F1800 X127.533 Y88.589 E62.68084
G1 X128.213 Y88.138 E62.72155
G1 X129.573 Y87.54 E62.79567
G1 X130.906 Y87.46 E62.86229
G1 X131.916 Y87.581 E62.91304
G1 X133.083 Y87.998 E62.97487
G1 X134.168 Y88.685 E63.03894
G1 X134.832 Y89.437 E63.08899
G1 X135.549 Y90.601 E63.15719
G1 X135.886 Y92.121 E63.23487
G1 X135.869 Y93.784 E63.31784
G1 X135.337 Y95.432 E63.40424
G1 X134.806 Y96.354 E63.45732
G1 X133.765 Y97.497 E63.53445
G1 X132.326 Y98.209 E63.61455
G1 X130.778 Y98.504 E63.69317
G1 X129.457 Y98.309 E63.75979
G1 X128.539 Y97.982 E63.8084
G1 X127.797 Y97.606 E63.8499
G1 X126.86 Y96.835 E63.91044
G1 X126.083 Y95.708 E63.97874
G1 X125.765 Y94.839 E64.0249
G1 X125.522 Y93.691 E64.08345
G1 X125.582 Y91.972 E64.16926
G1 X126.061 Y90.634 E64.24016
G1 X126.665 Y89.509 E64.30387
G0 F3600 X126.993 Y89.744
G1 F1800 X127.792 Y88.897 E64.36196
G1 X128.404 Y88.491 E64.3986
G1 X129.669 Y87.935 E64.46754
G1 X130.893 Y87.861 E64.52871
G1 X131.823 Y87.973 E64.57545
G1 X132.907 Y88.36 E64.63287
G1 X133.905 Y88.992 E64.6918
G1 X134.532 Y89.702 E64.73906
G1 X135.172 Y90.75 E64.80032
G1 X135.486 Y92.165 E64.87264
G1 X135.47 Y93.718 E64.95012
G1 X134.969 Y95.268 E65.03139
G1 X134.479 Y96.119 E65.08038
G1 X133.521 Y97.171 E65.15137
G1 X132.197 Y97.826 E65.22506
G1 X130.77 Y98.098 E65.29754
G1 X129.552 Y97.918 E65.35896
G1 X128.72 Y97.625 E65.40297
G1 X128.016 Y97.268 E65.44235
G1 X127.157 Y96.561 E65.49786
G1 X126.443 Y95.526 E65.56059
G1 X126.141 Y94.701 E65.60442
G1 X125.924 Y93.656 E65.65767
G1 X125.98 Y92.049 E65.73789
G1 X126.438 Y90.769 E65.80571
G1 X126.993 Y89.744 E65.86386
G0 F3600 X127.319 Y89.982
G1 F1800 X128.054 Y89.203 E65.9173
G1 X128.595 Y88.844 E65.94969
G1 X129.765 Y88.33 E66.01345
G1 X130.88 Y88.262 E66.06918
G1 X131.73 Y88.365 E66.11189
G1 X132.731 Y88.722 E66.16492
G1 X133.642 Y89.299 E66.21871
G1 X134.21 Y89.942 E66.26152
G1 X134.797 Y90.903 E66.3177
G1 X135.086 Y92.205 E66.38424
G1 X135.071 Y93.652 E66.45643
G1 X134.601 Y95.104 E66.53257
G1 X134.152 Y95.884 E66.57747
G1 X133.277 Y96.845 E66.64231
G1 X132.068 Y97.443 E66.70961
G1 X130.762 Y97.692 E66.77594
G1 X129.648 Y97.528 E66.83211
G1 X128.901 Y97.268 E66.87158
G1 X128.235 Y96.93 E66.90884
G1 X127.454 Y96.287 E66.95931
G1 X126.801 Y95.342 E67.01661
G1 X126.533 Y94.62 E67.05504
G1 X126.326 Y93.622 E67.10589
G1 X126.378 Y92.126 E67.18057
G1 X126.815 Y90.904 E67.24531
G1 X127.319 Y89.982 E67.29774
G0 F3600 X127.646 Y90.218
G1 F1800 X128.313 Y89.511 E67.34623
G1 X128.786 Y89.197 E67.37455
G1 X129.861 Y88.725 E67.43313
G1 X130.868 Y88.663 E67.48346
G1 X131.635 Y88.756 E67.52201
G1 X132.556 Y89.085 E67.5708
G1 X133.379 Y89.606 E67.6194
G1 X133.888 Y90.182 E67.65775
G1 X134.422 Y91.056 E67.70884
G1 X134.686 Y92.245 E67.76961
G1 X134.672 Y93.586 E67.83651
G1 X134.233 Y94.94 E67.90753
G1 X133.825 Y95.649 E67.94834
G1 X133.031 Y96.521 E68.00718
G1 X131.942 Y97.06 E68.0678
G1 X130.754 Y97.286 E68.12813
G1 X129.745 Y97.138 E68.17901
G1 X129.033 Y96.89 E68.21662
G1 X128.454 Y96.592 E68.24911
G1 X127.752 Y96.014 E68.29448
G1 X127.157 Y95.154 E68.34665
G1 X126.925 Y94.539 E68.37944
G1 X126.728 Y93.588 E68.4279
G1 X126.776 Y92.203 E68.49704
G1 X127.192 Y91.039 E68.5587
G1 X127.646 Y90.218 E68.60551
G0 F3600 X127.97 Y90.458
G1 F1800 X128.573 Y89.819 E68.64934
G1 X128.98 Y89.548 E68.67374
G1 X129.957 Y89.12 E68.72695
G1 X130.855 Y89.064 E68.77184
G1 X131.542 Y89.148 E68.80637
G1 X132.38 Y89.447 E68.85076
G1 X133.116 Y89.913 E68.89422
G1 X133.566 Y90.422 E68.92812
G1 X134.047 Y91.209 E68.97413
G1 X134.286 Y92.285 E69.02912
G1 X134.273 Y93.523 E69.09089
G1 X133.867 Y94.774 E69.15651
G1 X133.5 Y95.412 E69.19323
G1 X132.787 Y96.195 E69.24606
G1 X131.813 Y96.677 E69.30028
G1 X130.746 Y96.88 E69.35447
G1 X129.84 Y96.747 E69.40015
G1 X129.164 Y96.512 E69.43586
G1 X128.676 Y96.256 E69.46335
G1 X128.05 Y95.741 E69.50379
G1 X127.514 Y94.966 E69.5508
G1 X127.317 Y94.458 E69.57799
G1 X127.13 Y93.554 E69.62404
G1 X127.174 Y92.28 E69.68764
G1 X127.569 Y91.174 E69.74623
G1 X127.97 Y90.458 E69.78717
G0 F3600 X128.295 Y90.697
G1 F1800 X128.864 Y90.094 E69.82854
G1 X129.193 Y89.887 E69.84793
G1 X130.053 Y89.515 E69.89468
G1 X130.842 Y89.465 E69.93412
G1 X131.447 Y89.539 E69.96453
G1 X132.205 Y89.81 E70.00469
G1 X132.853 Y90.22 E70.04295
G1 X133.244 Y90.662 E70.07239
G1 X133.672 Y91.362 E70.11332
G1 X133.886 Y92.325 E70.16254
G1 X133.874 Y93.46 E70.21917
G1 X133.502 Y94.606 E70.27928
G1 X133.173 Y95.177 E70.31215
G1 X132.543 Y95.869 E70.35884
G1 X131.684 Y96.294 E70.40666
G1 X130.738 Y96.474 E70.4547
G1 X129.936 Y96.357 E70.49513
G1 X129.296 Y96.134 E70.52895
G1 X128.897 Y95.92 E70.55154
G1 X128.348 Y95.468 E70.58701
G1 X127.843 Y94.738 E70.6313
G1 X127.709 Y94.377 E70.65051
G1 X127.532 Y93.52 E70.69417
G1 X127.572 Y92.356 E70.75228
G1 X127.934 Y91.341 E70.80604
G1 X128.295 Y90.697 E70.84287
G0 F3600 X128.621 Y90.934
G1 F1800 X129.12 Y90.405 E70.87915
G1 X129.352 Y90.254 E70.89296
G1 X130.148 Y89.91 E70.93622
G1 X130.868 Y89.864 E70.97222
G1 X131.351 Y89.93 E70.99654
G1 X132.03 Y90.173 E71.03252
G1 X132.591 Y90.528 E71.06564
G1 X132.903 Y90.871 E71.08877
G1 X133.297 Y91.515 E71.12644
G1 X133.486 Y92.365 E71.16988
G1 X133.475 Y93.396 E71.22132
G1 X133.136 Y94.439 E71.27604
G1 X132.846 Y94.942 E71.305
G1 X132.299 Y95.543 E71.34555
G1 X131.555 Y95.911 E71.38696
G1 X130.73 Y96.068 E71.42885
G1 X130.031 Y95.966 E71.4641
G1 X129.427 Y95.756 E71.496
G1 X129.12 Y95.586 E71.51351
G1 X128.644 Y95.194 E71.54427
G1 X128.201 Y94.553 E71.58315
G1 X128.101 Y94.296 E71.5969
G1 X127.934 Y93.486 E71.63817
G1 X127.97 Y92.431 E71.69083
G1 X128.299 Y91.508 E71.73972
G1 X128.621 Y90.934 E71.77255
G0 F3600 X128.947 Y91.171
G1 F1800 X129.378 Y90.714 E71.80389
G1 X129.511 Y90.621 E71.81199
G1 X130.243 Y90.305 E71.85177
G1 X130.894 Y90.263 E71.88431
G1 X131.216 Y90.307 E71.90053
G1 X131.855 Y90.536 E71.93439
G1 X132.331 Y90.837 E71.96249
G1 X132.562 Y91.08 E71.97922
G1 X132.922 Y91.668 E72.01361
G1 X133.086 Y92.405 E72.05128
G1 X133.076 Y93.332 E72.09753
G1 X132.769 Y94.274 E72.14696
G1 X132.521 Y94.705 E72.17177
G1 X132.055 Y95.217 E72.20631
G1 X131.426 Y95.528 E72.24132
G1 X130.722 Y95.662 E72.27707
G1 X130.125 Y95.575 E72.30717
G1 X129.612 Y95.401 E72.33419
G1 X129.374 Y95.277 E72.34758
G1 X128.942 Y94.921 E72.37551
G1 X128.556 Y94.363 E72.40936
G1 X128.493 Y94.215 E72.41739
G1 X128.336 Y93.452 E72.45625
G1 X128.368 Y92.506 E72.50347
G1 X128.664 Y91.675 E72.54748
G1 X128.947 Y91.171 E72.57632
G0 F3600 X129.273 Y91.408
G1 F1800 X129.669 Y90.988 E72.60512
G1 X130.337 Y90.7 E72.64141
G1 X130.92 Y90.662 E72.67056
G1 X131.081 Y90.684 E72.67867
G1 X131.72 Y90.913 E72.71253
G1 X132.11 Y91.171 E72.73586
G1 X132.221 Y91.289 E72.74394
G1 X132.547 Y91.821 E72.77507
G1 X132.686 Y92.445 E72.80697
G1 X132.677 Y93.267 E72.84798
G1 X132.403 Y94.107 E72.89206
G1 X132.194 Y94.47 E72.91296
G1 X131.811 Y94.891 E72.94135
G1 X131.297 Y95.145 E72.96996
G1 X130.714 Y95.256 E72.99956
G1 X130.25 Y95.195 E73.02291
G1 X129.797 Y95.046 E73.0467
G1 X129.559 Y94.922 E73.06009
G1 X129.271 Y94.693 E73.07845
G1 X128.885 Y94.135 E73.1123
G1 X128.738 Y93.419 E73.14877
G1 X128.766 Y92.581 E73.1906
G1 X129.029 Y91.842 E73.22973
G1 X129.273 Y91.408 E73.25457
G0 F3600 X129.619 Y91.609
G1 F1800 X129.904 Y91.322 E73.27475
G1 X130.431 Y91.095 E73.30338
G1 X130.946 Y91.061 E73.32913
G1 X131.585 Y91.29 E73.36299
G1 X131.88 Y91.498 E73.381
G1 X132.172 Y91.974 E73.40886
G1 X132.286 Y92.485 E73.43498
G1 X132.278 Y93.202 E73.47075
G1 X132.037 Y93.94 E73.50949
G1 X131.847 Y94.27 E73.52848
G1 X131.567 Y94.565 E73.54878
G1 X131.222 Y94.752 E73.56835
G1 X130.703 Y94.851 E73.59471
G1 X130.371 Y94.814 E73.61138
G1 X129.982 Y94.691 E73.63173
G1 X129.744 Y94.567 E73.64512
G1 X129.527 Y94.386 E73.65922
G1 X129.261 Y93.975 E73.68365
G1 X129.14 Y93.385 E73.71369
G1 X129.164 Y92.656 E73.75008
G1 X129.406 Y91.976 E73.78609
G1 X129.619 Y91.609 E73.80726
G0 F3600 X129.961 Y91.817
G1 F1800 X130.178 Y91.613 E73.82212
G1 X130.568 Y91.471 E73.84283
G1 X130.89 Y91.465 E73.8589
G1 X131.45 Y91.666 E73.88858
G1 X131.629 Y91.81 E73.90004
G1 X131.784 Y92.07 E73.91514
G1 X131.886 Y92.481 E73.93627
G1 X131.879 Y93.137 E73.969
G1 X131.671 Y93.773 E74.00238
G1 X131.5 Y94.07 E74.01948
G1 X131.287 Y94.279 E74.03437
G1 X131.132 Y94.362 E74.04314
G1 X130.738 Y94.453 E74.06332
G1 X130.485 Y94.431 E74.07599
G1 X130.167 Y94.336 E74.09254
G1 X129.929 Y94.212 E74.10593
G1 X129.797 Y94.091 E74.11487
G1 X129.638 Y93.822 E74.13046
G1 X129.54 Y93.398 E74.15217
G1 X129.562 Y92.731 E74.18546
G1 X129.783 Y92.11 E74.21835
G1 X129.961 Y91.817 E74.23545
G0 F3600 X130.296 Y92.035
G1 F1800 X130.433 Y91.922 E74.24431
G1 X130.673 Y91.857 E74.25672
G1 X130.874 Y91.865 E74.26675
G1 X131.3 Y92.037 E74.28967
G1 X131.4 Y92.182 E74.29846
G1 X131.486 Y92.477 E74.31379
G1 X131.48 Y93.071 E74.34343
G1 X131.291 Y93.648 E74.37372
G1 X131.16 Y93.86 E74.38615
G1 X131.025 Y93.977 E74.39506
G1 X130.751 Y94.053 E74.40925
G1 X130.599 Y94.048 E74.41684
G1 X130.281 Y93.953 E74.43339
G1 X130.127 Y93.865 E74.44224
G1 X130.024 Y93.715 E74.45132
G1 X129.94 Y93.411 E74.46706
G1 X129.96 Y92.806 E74.49726
G1 X130.16 Y92.244 E74.52702
G1 X130.296 Y92.035 E74.53946
G0 F3600 X130.537 Y92.378
G1 F1800 X130.613 Y92.279 E74.54568
G1 X130.757 Y92.248 E74.55303
G1 X131.029 Y92.331 E74.56722
G1 X131.086 Y92.473 E74.57485
G1 X131.081 Y93.005 E74.6014
G1 X130.911 Y93.523 E74.6286
G1 X130.837 Y93.624 E74.63484
G1 X130.688 Y93.658 E74.64247
G1 X130.397 Y93.57 E74.65764
G1 X130.34 Y93.424 E74.66545
G1 X130.358 Y92.881 E74.69256
G1 X130.537 Y92.378 E74.7192
G1 F1500 E68.2192
G0 F3600 X130.099 Y92.223
G0 X123.444 Y89.639
G1 F1500 E74.7192
G1 F1800 X124.366 Y87.871 E74.81868
G1 X125.717 Y86.435 E74.91704
G1 X126.876 Y85.667 E74.98641
G1 X128.901 Y84.775 E75.0968
G1 X130.995 Y84.653 E75.20145
G1 X132.571 Y84.841 E75.28063
G1 X134.313 Y85.462 E75.3729
G1 X136.009 Y86.536 E75.47305
G1 X137.1 Y87.771 E75.55526
G1 X138.182 Y89.532 E75.65838
G1 X138.686 Y91.819 E75.77522
G1 X138.662 Y94.243 E75.89616
G1 X137.91 Y96.583 E76.01878
G1 X137.093 Y98.001 E76.10043
G1 X135.753 Y99.46 E76.19926
G1 X135.209 Y99.905 E76.23432
G1 X133.22 Y100.89 E76.34505
G1 X130.832 Y101.346 E76.46634
G1 X128.777 Y101.04 E76.57
G1 X127.362 Y100.52 E76.64521
G1 X126.263 Y99.97 E76.70652
G1 X124.775 Y98.747 E76.80262
G1 X123.571 Y96.997 E76.90859
G1 X123.133 Y95.8 E76.97218
G1 X122.769 Y94.209 E77.05361
G1 X122.545 Y95.404 E77.11427
G1 X121.621 Y97.413 E77.22459
G1 X121.182 Y97.977 E77.26025
G1 X119.688 Y99.406 E77.36339
G1 X117.625 Y100.506 E77.48003
G1 X115.504 Y100.893 E77.58759
G1 X114.057 Y100.821 E77.65987
G1 X112.975 Y100.658 E77.71446
G1 X111.114 Y99.989 E77.81313
G1 X109.06 Y98.382 E77.94324
G1 X107.628 Y96.096 E78.07781
G1 X106.921 Y93.516 E78.21128
G1 X106.995 Y91.274 E78.32319
G1 X107.39 Y89.499 E78.41391
G1 X108.253 Y87.864 E78.50615
G1 X108.949 Y86.88 E78.56628
G1 X110.813 Y85.291 E78.68848
G1 X112.922 Y84.486 E78.8011
G1 X114.472 Y84.29 E78.87905
G1 X116.506 Y84.392 E78.98065
G1 X118.631 Y85.172 E79.09358
G1 X120.007 Y86.143 E79.17761
G1 X121.193 Y87.371 E79.26278
G1 X122.177 Y89.091 E79.36164
G1 X122.85 Y91.286 E79.47618
G1 X123.444 Y89.639 E79.56353
G1 F1500 E73.06353
G0 F3600 X123.194 Y91.51
G1 F1500 E79.56353
G1 F1800 X123.799 Y89.824 E79.6529
G1 X124.696 Y88.103 E79.74972
G1 X125.976 Y86.743 E79.8429
G1 X127.067 Y86.02 E79.90819
G1 X128.997 Y85.17 E80.01341
G1 X130.982 Y85.054 E80.11261
G1 X132.478 Y85.233 E80.18778
G1 X134.137 Y85.824 E80.27564
G1 X135.746 Y86.843 E80.37066
G1 X136.776 Y88.009 E80.44827
G1 X137.806 Y89.684 E80.54638
G1 X138.286 Y91.862 E80.65764
G1 X138.263 Y94.178 E80.7732
G1 X137.543 Y96.418 E80.89058
G1 X136.767 Y97.765 E80.96814
G1 X135.499 Y99.151 E81.06186
G1 X134.989 Y99.569 E81.09475
G1 X133.094 Y100.507 E81.20024
G1 X130.825 Y100.94 E81.31549
G1 X128.876 Y100.65 E81.41379
G1 X127.541 Y100.162 E81.48471
G1 X126.481 Y99.632 E81.54383
G1 X125.074 Y98.475 E81.63472
G1 X123.93 Y96.812 E81.73542
G1 X123.509 Y95.662 E81.79652
G1 X123.11 Y93.904 E81.88645
G1 X123.194 Y91.51 E82.00596
G1 F1500 E75.50596
G0 F3600 X127.044 Y103.068
G1 F1500 E82.00596
G1 F1800 X127.247 Y103.091 E82.01616
G1 X127.858 Y103.054 E82.0467
G1 X139.312 Y103.037 E82.61814
G1 X139.615 Y102.717 E82.64012
G1 X141.198 Y101.633 E82.73584
G1 X143.187 Y100.896 E82.84167
G1 X148.601 Y100.295 E83.11343
G1 X158.202 Y100.257 E83.59243
G1 X160.322 Y100.673 E83.70022
G1 X162.286 Y101.749 E83.81194
G1 X163.078 Y102.381 E83.86249
G1 X165.401 Y105.18 E84.04396
G1 X165.6 Y105.522 E84.06371
G1 X166.427 Y107.982 E84.19318
G1 X166.488 Y109.946 E84.29122
G1 X166.291 Y111.154 E84.35228
G1 X166.35 Y112.481 E84.41855
G1 X166.039 Y114.21 E84.50619
G1 X165.516 Y115.596 E84.5801
G1 X164.436 Y117.283 E84.68004
G1 X161.984 Y119.56 E84.84698
G1 X161.105 Y120.074 E84.89778
G1 X160.532 Y120.517 E84.93391
G1 X158.017 Y121.79 E85.07454
G1 X157.473 Y122.013 E85.10388
G1 X156.896 Y122.391 E85.13829
G1 X153.299 Y123.663 E85.32864
G1 X153.092 Y123.718 E85.33932
G1 X152.307 Y124.114 E85.38319
G1 X148.609 Y125.154 E85.57484
G1 X148.281 Y125.229 E85.59162
G1 X147.74 Y125.518 E85.62222
G1 X147.415 Y125.618 E85.63919
G1 X147.576 Y127.524 E85.73462
G1 X147.435 Y129.157 E85.81639
G1 X150.732 Y130.1 E85.98748
G1 X151.451 Y130.377 E86.02592
G1 X155.88 Y131.886 E86.25935
G1 X156.641 Y132.317 E86.30299
G1 X157.095 Y132.531 E86.32803
G1 X159.803 Y133.755 E86.47629
G1 X160.933 Y134.443 E86.54229
G1 X161.474 Y134.948 E86.57921
G1 X163.666 Y136.534 E86.7142
G1 X164.936 Y138.081 E86.81405
G1 X165.659 Y139.422 E86.89006
G1 X166.18 Y141.344 E86.98941
G1 X166.204 Y141.915 E87.01792
G1 X166.441 Y142.477 E87.04835
G1 X166.874 Y144.506 E87.15186
G1 X166.674 Y146.573 E87.25546
G1 X166.278 Y147.945 E87.32671
G1 X165.538 Y149.309 E87.40413
G1 X163.156 Y152.255 E87.59314
G1 X160.964 Y153.82 E87.72751
G1 X158.489 Y154.475 E87.85524
G1 X148.733 Y154.439 E88.34197
G1 X144.594 Y153.974 E88.54976
G1 X145.081 Y155.089 E88.61047
G1 X146.505 Y158.86 E88.81157
G1 X147.714 Y161.484 E88.95571
G1 X148.117 Y163.088 E89.03822
G1 X148.155 Y165.32 E89.14959
G1 X147.325 Y167.886 E89.28414
G1 X145.583 Y170.069 E89.42347
G1 X143.646 Y171.246 E89.53655
G1 X142.877 Y171.572 E89.57822
G1 X141.258 Y172.051 E89.66246
G1 X139.384 Y172.082 E89.75596
G1 X137.995 Y171.824 E89.82645
G1 X136.117 Y171.068 E89.92745
G1 X134.192 Y169.532 E90.05031
G1 X133.152 Y167.862 E90.14846
G1 X132.051 Y165.517 E90.27771
G1 X131.856 Y165.182 E90.29705
G1 X130.097 Y161.943 E90.48094
G1 X130.315 Y165.804 E90.67387
G1 X130.321 Y166.076 E90.68744
G1 X130.665 Y168.773 E90.82309
G1 X130.563 Y170.816 E90.92514
G1 X129.838 Y172.639 E91.02302
G1 X129.174 Y173.834 E91.09122
G1 X127.904 Y175.161 E91.18286
G1 X126.304 Y176.245 E91.27928
G1 X124.365 Y176.895 E91.38131
G1 X122.695 Y177.065 E91.46505
G1 X120.749 Y176.885 E91.56255
G1 X118.532 Y176.026 E91.68117
G1 X116.666 Y174.436 E91.80348
G1 X115.337 Y172.424 E91.92378
G1 X114.848 Y170.497 E92.02297
G1 X114.521 Y167.984 E92.1494
G1 X114.429 Y167.561 E92.17099
G1 X113.889 Y164.731 E92.31473
G1 X113.084 Y167.883 E92.47703
G1 X112.585 Y170.642 E92.61691
G1 X111.851 Y172.629 E92.72259
G1 X110.654 Y174.097 E92.81709
G1 X109.625 Y175.075 E92.88792
G1 X107.979 Y175.971 E92.98141
G1 X105.919 Y176.575 E93.08852
G1 X103.87 Y176.51 E93.19079
G1 X102.419 Y176.157 E93.26529
G1 X101.19 Y175.718 E93.3304
G1 X99.686 Y174.714 E93.42062
G1 X98.689 Y173.736 E93.4903
G1 X97.583 Y172.029 E93.59177
G1 X96.933 Y169.847 E93.70536
G1 X96.893 Y167.887 E93.80317
G1 X97.395 Y165.133 E93.94283
G1 X97.432 Y164.68 E93.9655
G1 X97.835 Y161.081 E94.14618
G1 X98.433 Y157.642 E94.32033
G1 X99.538 Y155.516 E94.43987
G1 X100.348 Y154.475 E94.50567
G1 X101.751 Y153.286 E94.59742
G1 X103.372 Y152.361 E94.69053
G1 X104.739 Y151.999 E94.76108
G1 X106.565 Y151.759 E94.85297
G1 X107.866 Y151.929 E94.91843
G1 X109.628 Y152.396 E95.00937
G1 X111.815 Y153.737 E95.13736
G1 X113.119 Y155.321 E95.23972
G1 X114.102 Y157.083 E95.34038
G1 X115.252 Y155.237 E95.44888
G1 X116.779 Y153.749 E95.55526
G1 X118.668 Y152.726 E95.66243
G1 X121.04 Y152.157 E95.78413
G1 X123.23 Y152.381 E95.89396
G1 X124.693 Y152.818 E95.97013
G1 X126.436 Y153.775 E96.06934
G1 X127.887 Y155.185 E96.17028
G1 X128.348 Y155.798 E96.20854
G1 X128.454 Y154.905 E96.25341
G1 X128.895 Y153.101 E96.34606
G1 X129.76 Y151.534 E96.43536
G1 X119.788 Y151.51 E96.93286
G1 X119.391 Y151.52 E96.95268
G1 X113.484 Y151.538 E97.24738
G1 X111.667 Y151.184 E97.33973
G1 X107.794 Y149.47 E97.55103
G1 X107.159 Y149.041 E97.58927
G1 X106.411 Y148.647 E97.63145
G1 X106.012 Y148.344 E97.65644
G1 X104.947 Y147.977 E97.71264
G1 X103.295 Y146.884 E97.81147
G1 X102.098 Y145.6 E97.89904
G1 X101.676 Y145.043 E97.93391
G1 X100.844 Y144.163 E97.99433
G1 X99.843 Y142.589 E98.08739
G1 X99.576 Y141.794 E98.12923
G1 X99.132 Y141.838 E98.15149
G1 X96.919 Y141.437 E98.26369
G1 X94.955 Y140.52 E98.37183
G1 X93.853 Y139.629 E98.44253
G1 X93.073 Y139.363 E98.48365
G1 X90.809 Y137.919 E98.61762
G1 X89.558 Y136.283 E98.72037
G1 X89.245 Y136.192 E98.73663
G1 X87.746 Y135.401 E98.82119
G1 X86.476 Y134.524 E98.89819
G1 X84.665 Y132.445 E99.03574
G1 X83.656 Y130.635 E99.13913
G1 X83.185 Y128.427 E99.25176
G1 X83.228 Y126.125 E99.36663
G1 X83.814 Y123.695 E99.49134
G1 X85.027 Y121.933 E99.59806
G1 X86.491 Y120.441 E99.70235
G1 X88.386 Y119.219 E99.81484
G1 X89.869 Y118.796 E99.89178
G1 X90.274 Y118.162 E99.92931
G1 X91.706 Y116.627 E100.03404
G1 X93.503 Y115.578 E100.13785
G1 X94.672 Y115.164 E100.19973
G1 X96.537 Y114.163 E100.30533
G1 X99.246 Y113.498 E100.44449
G1 X99.62 Y112.536 E100.49599
G1 X100.311 Y111.687 E100.5506
G1 X100.712 Y111.073 E100.58718
G1 X101.106 Y110.664 E100.61552
G1 X101.865 Y109.342 E100.69157
G1 X103.337 Y107.925 E100.79351
G1 X104.491 Y107.214 E100.86113
G1 X105.252 Y106.518 E100.91258
G1 X108.486 Y105.001 E101.09079
G1 X109.206 Y104.599 E101.13193
G1 X111.873 Y103.434 E101.27713
G1 X113.705 Y103.051 E101.37051
G1 X116.842 Y103.071 E101.52702
G1 X117.36 Y103.065 E101.55286
G1 X127.044 Y103.068 E102.036
G1 F1500 E95.536
G0 F3600 X86.746 Y120.752
G1 F1500 E102.036
G1 F1800 X88.552 Y119.588 E102.14319
G1 X90.124 Y119.139 E102.22476
G1 X90.593 Y118.406 E102.26817
G1 X91.958 Y116.943 E102.368
G1 X93.672 Y115.942 E102.46702
G1 X94.833 Y115.531 E102.52847
G1 X96.681 Y114.539 E102.63311
G1 X98.758 Y114.025 E102.73986
G1 X99.543 Y113.838 E102.78012
G1 X99.971 Y112.738 E102.839
G1 X100.639 Y111.917 E102.89181
G1 X101.026 Y111.324 E102.92713
G1 X101.428 Y110.907 E102.95603
G1 X102.184 Y109.589 E103.03184
G1 X103.58 Y108.246 E103.12848
G1 X104.731 Y107.537 E103.19592
G1 X105.477 Y106.854 E103.24639
G1 X108.673 Y105.355 E103.4225
G1 X109.366 Y104.966 E103.46215
G1 X111.995 Y103.818 E103.60527
G1 X113.747 Y103.451 E103.69458
G1 X116.844 Y103.471 E103.84909
G1 X117.36 Y103.465 E103.87483
G1 X127 Y103.466 E104.35578
G1 X127.233 Y103.492 E104.36747
G1 X127.859 Y103.454 E104.39876
G1 X139.491 Y103.437 E104.97908
G1 X139.841 Y103.047 E105.00523
G1 X141.383 Y101.991 E105.09847
G1 X143.278 Y101.289 E105.19929
G1 X148.645 Y100.693 E105.4687
G1 X158.166 Y100.657 E105.9437
G1 X160.182 Y101.053 E106.0462
G1 X162.061 Y102.082 E106.15308
G1 X162.799 Y102.671 E106.20019
G1 X165.093 Y105.435 E106.3794
G1 X165.221 Y105.649 E106.39184
G1 X166.029 Y108.052 E106.51832
G1 X166.087 Y109.92 E106.61156
G1 X165.889 Y111.136 E106.67302
G1 X165.948 Y112.454 E106.73884
G1 X165.651 Y114.107 E106.82263
G1 X165.158 Y115.413 E106.89228
G1 X164.125 Y117.026 E106.98784
G1 X161.744 Y119.237 E107.14995
G1 X160.88 Y119.742 E107.19987
G1 X160.319 Y120.176 E107.23526
G1 X157.836 Y121.433 E107.37411
G1 X157.283 Y121.659 E107.40391
G1 X156.715 Y122.031 E107.43778
G1 X153.196 Y123.276 E107.62401
G1 X152.952 Y123.341 E107.63661
G1 X152.162 Y123.739 E107.68074
G1 X148.52 Y124.764 E107.8695
G1 X148.14 Y124.851 E107.88895
G1 X147.552 Y125.165 E107.92221
G1 X146.988 Y125.321 E107.9514
G1 X147.174 Y127.523 E108.06165
G1 X147.007 Y129.451 E108.1582
G1 X150.622 Y130.485 E108.34578
G1 X151.318 Y130.755 E108.38303
G1 X155.718 Y132.254 E108.61494
G1 X156.462 Y132.675 E108.65758
G1 X156.924 Y132.893 E108.68307
G1 X159.595 Y134.097 E108.82924
G1 X160.692 Y134.765 E108.89332
G1 X161.219 Y135.257 E108.92929
G1 X163.389 Y136.827 E109.06291
G1 X164.602 Y138.305 E109.1583
G1 X165.285 Y139.571 E109.23007
G1 X165.782 Y141.404 E109.32482
G1 X165.807 Y142.004 E109.35478
G1 X166.058 Y142.599 E109.387
G1 X166.47 Y144.529 E109.48546
G1 X166.279 Y146.499 E109.5842
G1 X165.907 Y147.789 E109.65118
G1 X165.203 Y149.087 E109.72485
G1 X162.879 Y151.961 E109.90925
G1 X160.791 Y153.452 E110.03725
G1 X158.437 Y154.075 E110.15874
G1 X148.778 Y154.041 E110.64063
G1 X143.934 Y153.497 E110.88382
G1 X144.217 Y154.112 E110.91759
G1 X144.714 Y155.249 E110.9795
G1 X146.135 Y159.013 E111.18022
G1 X147.335 Y161.616 E111.32322
G1 X147.718 Y163.14 E111.40162
G1 X147.754 Y165.259 E111.50735
G1 X146.967 Y167.693 E111.63498
G1 X145.312 Y169.766 E111.76731
G1 X143.489 Y170.878 E111.87385
G1 X142.763 Y171.188 E111.91323
G1 X141.195 Y171.652 E111.99481
G1 X139.416 Y171.681 E112.08358
G1 X138.109 Y171.439 E112.1499
G1 X136.32 Y170.718 E112.24613
G1 X134.496 Y169.263 E112.36253
G1 X133.492 Y167.651 E112.45728
G1 X132.405 Y165.329 E112.58519
G1 X132.208 Y164.991 E112.60471
G1 X130.286 Y161.452 E112.80563
G1 X129.436 Y159.63 E112.90593
G1 X129.583 Y160.768 E112.96318
G1 X129.679 Y161.631 E113.0065
G1 X129.915 Y165.813 E113.21547
G1 X129.922 Y166.108 E113.23019
G1 X130.263 Y168.787 E113.36493
G1 X130.166 Y170.73 E113.46198
G1 X129.466 Y172.491 E113.55653
G1 X128.851 Y173.593 E113.61949
G1 X127.642 Y174.856 E113.70672
G1 X126.125 Y175.883 E113.79811
G1 X124.282 Y176.501 E113.89509
G1 X122.691 Y176.663 E113.97488
G1 X120.842 Y176.492 E114.06752
G1 X118.74 Y175.678 E114.17998
G1 X116.97 Y174.169 E114.29602
G1 X115.708 Y172.26 E114.41019
G1 X115.245 Y170.445 E114.50364
G1 X114.916 Y167.918 E114.63077
G1 X114.822 Y167.486 E114.65283
G1 X114.062 Y163.506 E114.85498
G1 X113.942 Y162.583 E114.90142
G1 X113.674 Y163.953 E114.97106
G1 X112.693 Y167.797 E115.16899
G1 X112.197 Y170.539 E115.30801
G1 X111.499 Y172.427 E115.40843
G1 X110.344 Y173.844 E115.49963
G1 X109.388 Y174.749 E115.56531
G1 X107.827 Y175.599 E115.65399
G1 X105.868 Y176.173 E115.75583
G1 X103.924 Y176.111 E115.85287
G1 X102.554 Y175.78 E115.92318
G1 X101.37 Y175.357 E115.98591
G1 X99.94 Y174.402 E116.0717
G1 X99.002 Y173.482 E116.13725
G1 X97.949 Y171.857 E116.23385
G1 X97.332 Y169.786 E116.34166
G1 X97.294 Y167.921 E116.43473
G1 X97.792 Y165.187 E116.57337
G1 X97.83 Y164.725 E116.5965
G1 X98.233 Y161.126 E116.77718
G1 X98.816 Y157.773 E116.94697
G1 X99.876 Y155.734 E117.06162
G1 X100.64 Y154.752 E117.12369
G1 X101.984 Y153.613 E117.21158
G1 X103.525 Y152.734 E117.30009
G1 X104.791 Y152.396 E117.36547
G1 X106.566 Y152.163 E117.45478
G1 X107.764 Y152.316 E117.51503
G1 X109.47 Y152.768 E117.60308
G1 X111.549 Y154.043 E117.72476
G1 X112.788 Y155.548 E117.82201
G1 X113.704 Y157.19 E117.91582
G1 X114.051 Y158.528 E117.98478
G1 X114.445 Y157.28 E118.05007
G1 X115.566 Y155.489 E118.15548
G1 X117.017 Y154.075 E118.25656
G1 X118.812 Y153.103 E118.3584
G1 X121.067 Y152.562 E118.4741
G1 X123.153 Y152.775 E118.57871
G1 X124.537 Y153.189 E118.65078
G1 X126.195 Y154.099 E118.74514
G1 X127.567 Y155.426 E118.84037
G1 X128.302 Y156.402 E118.90132
G1 X128.874 Y157.662 E118.97036
G1 X128.69 Y156.322 E119.03784
G1 X128.843 Y155 E119.10423
G1 X129.272 Y153.245 E119.19437
G1 X130.361 Y151.273 E119.30676
G1 X130.479 Y151.136 E119.31578
G1 X119.831 Y151.112 E119.84701
G1 X119.637 Y151.091 E119.85675
G1 X119.348 Y151.122 E119.87125
G1 X113.523 Y151.138 E120.16186
G1 X111.788 Y150.8 E120.25004
G1 X107.99 Y149.119 E120.45726
G1 X107.366 Y148.698 E120.49481
G1 X106.598 Y148.293 E120.53813
G1 X106.205 Y147.988 E120.56295
G1 X105.128 Y147.617 E120.61978
G1 X103.553 Y146.574 E120.71402
G1 X102.417 Y145.358 E120.79704
G1 X101.982 Y144.784 E120.83298
G1 X101.162 Y143.917 E120.89251
G1 X100.205 Y142.412 E120.98149
G1 X99.908 Y141.528 E121.02802
G1 X99.81 Y141.355 E121.03794
G1 X99.203 Y141.444 E121.06854
G1 X97.042 Y141.052 E121.17812
G1 X95.168 Y140.178 E121.28128
G1 X94.049 Y139.273 E121.35308
G1 X93.245 Y138.999 E121.39546
G1 X91.085 Y137.621 E121.52328
G1 X89.792 Y135.931 E121.62944
G1 X89.432 Y135.838 E121.64799
G1 X87.933 Y135.047 E121.73255
G1 X86.745 Y134.224 E121.80465
G1 X84.992 Y132.211 E121.93782
G1 X84.034 Y130.493 E122.03596
G1 X83.586 Y128.39 E122.14323
G1 X83.627 Y126.177 E122.25366
G1 X84.186 Y123.86 E122.37257
G1 X85.335 Y122.191 E122.47366
G1 X86.746 Y120.752 E122.57421
G0 F3600 X87.001 Y121.063
G1 F1800 X88.718 Y119.957 E122.67611
G1 X90.379 Y119.483 E122.76228
G1 X90.912 Y118.65 E122.81162
G1 X92.21 Y117.259 E122.90654
G1 X93.84 Y116.307 E123.00071
G1 X94.992 Y115.899 E123.06168
G1 X96.825 Y114.915 E123.16548
G1 X98.829 Y114.419 E123.26847
G1 X99.284 Y114.337 E123.29154
G1 X99.808 Y114.175 E123.3189
G1 X99.939 Y113.923 E123.33307
G1 X100.322 Y112.94 E123.3857
G1 X100.967 Y112.147 E123.4367
G1 X101.361 Y111.543 E123.47268
G1 X101.749 Y111.152 E123.50016
G1 X102.503 Y109.836 E123.57583
G1 X103.823 Y108.567 E123.66718
G1 X104.971 Y107.86 E123.73445
G1 X105.702 Y107.19 E123.78392
G1 X108.85 Y105.714 E123.95738
G1 X109.526 Y105.333 E123.99609
G1 X112.121 Y104.2 E124.13736
G1 X113.785 Y103.851 E124.22218
G1 X116.817 Y103.87 E124.37345
G1 X117.146 Y103.892 E124.3899
G1 X117.405 Y103.863 E124.4029
G1 X126.956 Y103.864 E124.87941
G1 X127.219 Y103.893 E124.89261
G1 X127.86 Y103.854 E124.92465
G1 X139.676 Y103.837 E125.51415
G1 X140.067 Y103.377 E125.54427
G1 X141.568 Y102.349 E125.63503
G1 X143.369 Y101.682 E125.73085
G1 X148.689 Y101.091 E125.9979
G1 X158.125 Y101.057 E126.46866
G1 X160.045 Y101.434 E126.56628
G1 X161.84 Y102.417 E126.66838
G1 X162.517 Y102.958 E126.71162
G1 X164.785 Y105.69 E126.88877
G1 X164.856 Y105.817 E126.89603
G1 X165.631 Y108.122 E127.01735
G1 X165.686 Y109.894 E127.1058
G1 X165.487 Y111.114 E127.16747
G1 X165.546 Y112.427 E127.23304
G1 X165.263 Y114.004 E127.31297
G1 X164.8 Y115.23 E127.37835
G1 X163.814 Y116.769 E127.46954
G1 X161.504 Y118.914 E127.62681
G1 X160.655 Y119.41 E127.67587
G1 X160.106 Y119.835 E127.7105
G1 X157.655 Y121.076 E127.84757
G1 X157.096 Y121.303 E127.87767
G1 X156.536 Y121.67 E127.91107
G1 X153.094 Y122.889 E128.09324
G1 X152.811 Y122.964 E128.10785
G1 X152.017 Y123.364 E128.15221
G1 X148.431 Y124.374 E128.33807
G1 X147.999 Y124.473 E128.36018
G1 X147.364 Y124.812 E128.3961
G1 X146.56 Y125.018 E128.4375
G1 X146.772 Y127.522 E128.56288
G1 X146.579 Y129.745 E128.6742
G1 X150.512 Y130.87 E128.87829
G1 X151.184 Y131.132 E128.91427
G1 X155.556 Y132.622 E129.14471
G1 X156.278 Y133.031 E129.18611
G1 X156.76 Y133.258 E129.21269
G1 X159.387 Y134.439 E129.35639
G1 X160.451 Y135.087 E129.41854
G1 X160.967 Y135.569 E129.45377
G1 X163.113 Y137.122 E129.58592
G1 X164.268 Y138.529 E129.67674
G1 X164.911 Y139.72 E129.74427
G1 X165.384 Y141.464 E129.83442
G1 X165.41 Y142.092 E129.86578
G1 X165.675 Y142.721 E129.89983
G1 X166.066 Y144.552 E129.99324
G1 X165.885 Y146.424 E130.08707
G1 X165.536 Y147.633 E130.14985
G1 X164.868 Y148.865 E130.21977
G1 X162.602 Y151.667 E130.39955
G1 X160.618 Y153.084 E130.52119
G1 X158.385 Y153.675 E130.63643
G1 X148.823 Y153.643 E131.11348
G1 X143.274 Y153.02 E131.39206
G1 X143.851 Y154.272 E131.46084
G1 X144.34 Y155.39 E131.52172
G1 X145.765 Y159.166 E131.72307
G1 X146.955 Y161.747 E131.86486
G1 X147.319 Y163.193 E131.93926
G1 X147.353 Y165.198 E132.0393
G1 X146.608 Y167.501 E132.16006
G1 X145.044 Y169.461 E132.28516
G1 X143.281 Y170.536 E132.38818
G1 X142.649 Y170.804 E132.42243
G1 X141.132 Y171.253 E132.50136
G1 X139.448 Y171.28 E132.58538
G1 X138.222 Y171.053 E132.64759
G1 X136.526 Y170.37 E132.7388
G1 X134.798 Y168.991 E132.8491
G1 X133.831 Y167.439 E132.94033
G1 X132.756 Y165.137 E133.06708
G1 X132.56 Y164.8 E133.08653
G1 X130.638 Y161.261 E133.28745
G1 X129.41 Y158.63 E133.43231
G1 X129.093 Y156.317 E133.54878
G1 X129.232 Y155.095 E133.61014
G1 X129.649 Y153.389 E133.69776
G1 X130.711 Y151.466 E133.80736
G1 X131.55 Y150.721 E133.86334
G1 X130.72 Y150.737 E133.90475
G1 X119.875 Y150.714 E134.44581
G1 X119.638 Y150.688 E134.45771
G1 X119.305 Y150.724 E134.47442
G1 X113.562 Y150.738 E134.76094
G1 X111.909 Y150.416 E134.84496
G1 X108.181 Y148.766 E135.04835
G1 X107.57 Y148.353 E135.08514
G1 X106.818 Y147.957 E135.12754
G1 X106.4 Y147.632 E135.15396
G1 X105.306 Y147.256 E135.21167
G1 X103.813 Y146.267 E135.30102
G1 X102.736 Y145.116 E135.37966
G1 X102.288 Y144.525 E135.41666
G1 X101.48 Y143.671 E135.47532
G1 X100.567 Y142.235 E135.56021
G1 X100.274 Y141.361 E135.6062
G1 X100.017 Y140.909 E135.63214
G1 X99.274 Y141.05 E135.66987
G1 X97.161 Y140.667 E135.77701
G1 X95.382 Y139.837 E135.87495
G1 X94.37 Y139.019 E135.93987
G1 X94.155 Y138.888 E135.95243
G1 X93.421 Y138.637 E135.99113
G1 X91.361 Y137.323 E136.11303
G1 X90.189 Y135.791 E136.20926
G1 X90.07 Y135.583 E136.22122
G1 X89.618 Y135.484 E136.2443
G1 X88.161 Y134.718 E136.32643
G1 X87.015 Y133.924 E136.39598
G1 X85.319 Y131.977 E136.5248
G1 X84.412 Y130.351 E136.61769
G1 X83.987 Y128.353 E136.7196
G1 X84.026 Y126.229 E136.82559
G1 X84.558 Y124.025 E136.9387
G1 X85.643 Y122.449 E137.03416
G1 X87.001 Y121.063 E137.13097
G0 F3600 X87.256 Y121.374
G1 F1800 X88.884 Y120.326 E137.22756
G1 X90.634 Y119.827 E137.31835
G1 X91.229 Y118.897 E137.37343
G1 X92.464 Y117.573 E137.46376
G1 X94.009 Y116.671 E137.55302
G1 X95.153 Y116.266 E137.61356
G1 X96.969 Y115.291 E137.7164
G1 X98.9 Y114.813 E137.81564
G1 X99.374 Y114.728 E137.83967
G1 X100.086 Y114.508 E137.87685
G1 X100.305 Y114.085 E137.90061
G1 X100.673 Y113.142 E137.95111
G1 X101.295 Y112.377 E138.0003
G1 X101.674 Y111.796 E138.03491
G1 X102.08 Y111.387 E138.06366
G1 X102.119 Y111.306 E138.06815
G1 X102.822 Y110.083 E138.13853
G1 X104.066 Y108.888 E138.22459
G1 X105.211 Y108.183 E138.29167
G1 X105.927 Y107.526 E138.34015
G1 X109.033 Y106.07 E138.51129
G1 X109.686 Y105.7 E138.54873
G1 X112.247 Y104.582 E138.68815
G1 X113.823 Y104.251 E138.76849
G1 X116.791 Y104.269 E138.91657
G1 X117.158 Y104.293 E138.93492
G1 X117.449 Y104.261 E138.94952
G1 X126.913 Y104.262 E139.42168
G1 X127.206 Y104.294 E139.43639
G1 X127.861 Y104.254 E139.46913
G1 X139.861 Y104.237 E140.06781
G1 X140.338 Y103.676 E140.10455
G1 X141.753 Y102.707 E140.19011
G1 X143.46 Y102.075 E140.28092
G1 X148.733 Y101.489 E140.54561
G1 X158.089 Y101.457 E141.01239
G1 X159.905 Y101.814 E141.10472
G1 X161.618 Y102.752 E141.20216
G1 X162.236 Y103.245 E141.2416
G1 X164.477 Y105.945 E141.41666
G1 X165.233 Y108.193 E141.53498
G1 X165.285 Y109.868 E141.61859
G1 X165.085 Y111.096 E141.68066
G1 X165.144 Y112.401 E141.74583
G1 X164.876 Y113.898 E141.82171
G1 X164.441 Y115.048 E141.88305
G1 X163.503 Y116.512 E141.96979
G1 X161.264 Y118.591 E142.12223
G1 X160.43 Y119.078 E142.17041
G1 X159.893 Y119.494 E142.2043
G1 X157.474 Y120.719 E142.33957
G1 X156.911 Y120.946 E142.36986
G1 X156.358 Y121.309 E142.40286
G1 X152.991 Y122.502 E142.58108
G1 X152.671 Y122.587 E142.59759
G1 X151.872 Y122.99 E142.64224
G1 X148.342 Y123.984 E142.8252
G1 X147.858 Y124.095 E142.84997
G1 X147.217 Y124.437 E142.88622
G1 X146.03 Y124.742 E142.94736
G1 X146.165 Y125.101 E142.9665
G1 X146.37 Y127.521 E143.08767
G1 X146.155 Y130.004 E143.21201
G1 X146.924 Y130.26 E143.25244
G1 X150.402 Y131.255 E143.43292
G1 X151.055 Y131.511 E143.46791
G1 X155.394 Y132.99 E143.69662
G1 X156.094 Y133.387 E143.73677
G1 X156.596 Y133.623 E143.76444
G1 X159.179 Y134.781 E143.90567
G1 X160.21 Y135.409 E143.96589
G1 X160.712 Y135.878 E144.00017
G1 X162.836 Y137.415 E144.13097
G1 X163.934 Y138.753 E144.21732
G1 X164.537 Y139.869 E144.28061
G1 X164.986 Y141.524 E144.36616
G1 X165.013 Y142.181 E144.39896
G1 X165.292 Y142.843 E144.43481
G1 X165.662 Y144.575 E144.52317
G1 X165.49 Y146.35 E144.61214
G1 X165.165 Y147.477 E144.67065
G1 X164.531 Y148.646 E144.737
G1 X162.327 Y151.372 E144.91189
G1 X160.445 Y152.716 E145.02727
G1 X158.333 Y153.275 E145.13626
G1 X148.868 Y153.245 E145.60848
G1 X142.615 Y152.543 E145.9224
G1 X143.485 Y154.433 E146.0262
G1 X143.966 Y155.531 E146.08601
G1 X145.395 Y159.319 E146.28799
G1 X146.575 Y161.878 E146.42858
G1 X146.92 Y163.246 E146.49897
G1 X146.952 Y165.137 E146.59332
G1 X146.25 Y167.308 E146.70716
G1 X144.774 Y169.157 E146.82519
G1 X143.124 Y170.168 E146.92173
G1 X142.535 Y170.42 E146.9537
G1 X141.069 Y170.854 E147.02997
G1 X139.48 Y170.879 E147.10926
G1 X138.335 Y170.667 E147.16735
G1 X136.73 Y170.021 E147.25367
G1 X135.103 Y168.723 E147.35751
G1 X134.171 Y167.227 E147.44544
G1 X133.114 Y164.957 E147.57037
G1 X132.912 Y164.609 E147.59044
G1 X130.99 Y161.07 E147.79136
G1 X129.798 Y158.516 E147.93198
G1 X129.496 Y156.315 E148.04281
G1 X129.621 Y155.19 E148.09929
G1 X130.026 Y153.533 E148.18439
G1 X131.027 Y151.721 E148.28767
G1 X132.585 Y150.338 E148.3916
G1 X131.608 Y150.337 E148.44034
G1 X131.252 Y150.327 E148.45811
G1 X130.721 Y150.337 E148.48461
G1 X119.919 Y150.316 E149.02352
G1 X119.639 Y150.285 E149.03758
G1 X119.262 Y150.326 E149.0565
G1 X113.602 Y150.338 E149.33888
G1 X112.03 Y150.032 E149.41878
G1 X108.373 Y148.413 E149.6183
G1 X107.774 Y148.008 E149.65438
G1 X107.004 Y147.603 E149.69778
G1 X106.583 Y147.266 E149.72469
G1 X106.472 Y147.237 E149.73041
G1 X105.483 Y146.894 E149.78264
G1 X104.076 Y145.962 E149.86683
G1 X103.055 Y144.874 E149.94127
G1 X102.598 Y144.271 E149.97902
G1 X101.8 Y143.428 E150.03693
G1 X100.929 Y142.058 E150.11793
G1 X100.64 Y141.194 E150.16338
G1 X100.224 Y140.462 E150.20538
G1 X99.273 Y140.643 E150.25368
G1 X97.28 Y140.282 E150.35473
G1 X95.596 Y139.496 E150.44745
G1 X94.602 Y138.693 E150.5112
G1 X94.322 Y138.522 E150.52757
G1 X93.593 Y138.273 E150.566
G1 X91.637 Y137.025 E150.68176
G1 X90.507 Y135.548 E150.77454
G1 X90.33 Y135.222 E150.79304
G1 X89.804 Y135.13 E150.81968
G1 X88.389 Y134.389 E150.89937
G1 X87.285 Y133.624 E150.96638
G1 X85.646 Y131.743 E151.09085
G1 X84.79 Y130.209 E151.17849
G1 X84.388 Y128.316 E151.27504
G1 X84.425 Y126.281 E151.37658
G1 X84.93 Y124.19 E151.4839
G1 X85.951 Y122.707 E151.57373
G1 X87.256 Y121.374 E151.6668
G0 F3600 X87.513 Y121.684
G1 F1800 X89.048 Y120.696 E151.75787
G1 X90.889 Y120.171 E151.85338
G1 X91.546 Y119.143 E151.91425
G1 X92.716 Y117.889 E151.99981
G1 X94.177 Y117.036 E152.08422
G1 X95.312 Y116.634 E152.14429
G1 X97.113 Y115.667 E152.24627
G1 X98.971 Y115.207 E152.34177
G1 X99.465 Y115.118 E152.36681
G1 X100.364 Y114.84 E152.41376
G1 X100.67 Y114.252 E152.44683
G1 X101.024 Y113.344 E152.49545
G1 X101.623 Y112.607 E152.54283
G1 X101.987 Y112.049 E152.57607
G1 X102.414 Y111.619 E152.6063
G1 X102.466 Y111.505 E152.61255
G1 X103.141 Y110.331 E152.68011
G1 X104.309 Y109.209 E152.76092
G1 X105.454 Y108.504 E152.828
G1 X106.154 Y107.861 E152.87542
G1 X109.213 Y106.428 E153.04395
G1 X109.846 Y106.067 E153.08031
G1 X112.373 Y104.964 E153.21787
G1 X113.861 Y104.651 E153.29373
G1 X116.765 Y104.668 E153.43861
G1 X117.169 Y104.694 E153.45881
G1 X117.492 Y104.659 E153.47502
G1 X126.87 Y104.66 E153.94289
G1 X127.194 Y104.695 E153.95915
G1 X127.862 Y104.654 E153.99253
G1 X140.047 Y104.637 E154.60045
G1 X140.609 Y103.975 E154.64377
G1 X141.938 Y103.065 E154.72413
G1 X143.551 Y102.468 E154.80994
G1 X148.777 Y101.887 E155.07227
G1 X158.053 Y101.857 E155.53505
G1 X159.765 Y102.194 E155.6221
G1 X161.393 Y103.085 E155.71469
G1 X161.954 Y103.533 E155.75051
G1 X164.122 Y106.144 E155.91983
G1 X164.835 Y108.264 E156.03142
G1 X164.884 Y109.842 E156.11018
G1 X164.683 Y111.074 E156.17246
G1 X164.742 Y112.375 E156.23743
G1 X164.488 Y113.793 E156.3093
G1 X164.082 Y114.866 E156.36654
G1 X163.192 Y116.255 E156.44884
G1 X161.026 Y118.267 E156.59633
G1 X160.208 Y118.744 E156.64357
G1 X159.68 Y119.153 E156.67689
G1 X157.293 Y120.362 E156.81039
G1 X156.724 Y120.59 E156.84097
G1 X156.179 Y120.948 E156.8735
G1 X152.889 Y122.115 E157.04766
G1 X152.53 Y122.21 E157.06619
G1 X151.727 Y122.615 E157.11105
G1 X148.253 Y123.594 E157.29112
G1 X147.717 Y123.717 E157.31856
G1 X147.069 Y124.063 E157.35521
G1 X145.473 Y124.472 E157.43741
G1 X145.766 Y125.135 E157.47357
G1 X145.968 Y127.521 E157.59303
G1 X145.768 Y129.832 E157.70876
G1 X145.608 Y130.244 E157.73081
G1 X146.807 Y130.643 E157.79385
G1 X150.292 Y131.64 E157.9747
G1 X150.926 Y131.89 E158.0087
G1 X155.232 Y133.358 E158.23567
G1 X155.911 Y133.743 E158.27461
G1 X156.426 Y133.985 E158.303
G1 X158.971 Y135.123 E158.44208
G1 X159.969 Y135.731 E158.50039
G1 X160.457 Y136.187 E158.53371
G1 X162.559 Y137.708 E158.66315
G1 X163.6 Y138.977 E158.74504
G1 X164.163 Y140.018 E158.80408
G1 X164.588 Y141.584 E158.88504
G1 X164.616 Y142.269 E158.91924
G1 X164.909 Y142.965 E158.95692
G1 X165.258 Y144.598 E159.04023
G1 X165.096 Y146.275 E159.12428
G1 X164.794 Y147.321 E159.1786
G1 X164.194 Y148.427 E159.24137
G1 X162.052 Y151.077 E159.41137
G1 X160.272 Y152.348 E159.52049
G1 X158.281 Y152.875 E159.62324
G1 X148.913 Y152.847 E160.09062
G1 X141.614 Y152.028 E160.45705
G1 X142.274 Y152.757 E160.50611
G1 X143.119 Y154.593 E160.60695
G1 X143.592 Y155.673 E160.66577
G1 X144.91 Y159.151 E160.85133
G1 X145.027 Y159.476 E160.86856
G1 X146.196 Y162.011 E161.00783
G1 X146.521 Y163.3 E161.07415
G1 X146.551 Y165.076 E161.16277
G1 X145.891 Y167.116 E161.26974
G1 X144.505 Y168.853 E161.38061
G1 X142.915 Y169.827 E161.47363
G1 X142.421 Y170.036 E161.50039
G1 X141.006 Y170.455 E161.57402
G1 X139.512 Y170.478 E161.64856
G1 X138.447 Y170.281 E161.7026
G1 X136.936 Y169.673 E161.78385
G1 X135.405 Y168.451 E161.88158
G1 X134.534 Y167.058 E161.96355
G1 X133.473 Y164.78 E162.08892
G1 X133.264 Y164.418 E162.10977
G1 X131.342 Y160.879 E162.31069
G1 X130.186 Y158.402 E162.44707
G1 X129.899 Y156.312 E162.55232
G1 X130.01 Y155.285 E162.60385
G1 X130.403 Y153.677 E162.68644
G1 X131.343 Y151.976 E162.7834
G1 X132.781 Y150.699 E162.87934
G1 X133.463 Y150.281 E162.91925
G1 X134.389 Y149.941 E162.96846
G1 X131.619 Y149.937 E163.10666
G1 X131.255 Y149.927 E163.12483
G1 X130.722 Y149.937 E163.15142
G1 X119.963 Y149.918 E163.68819
G1 X119.64 Y149.882 E163.70441
G1 X119.219 Y149.928 E163.72554
G1 X113.643 Y149.938 E164.00372
G1 X112.15 Y149.647 E164.07961
G1 X108.565 Y148.06 E164.27521
G1 X107.978 Y147.663 E164.31056
G1 X107.19 Y147.249 E164.35497
G1 X106.768 Y146.9 E164.38229
G1 X106.603 Y146.859 E164.39078
G1 X105.66 Y146.532 E164.44057
G1 X104.338 Y145.656 E164.51969
G1 X103.347 Y144.6 E164.59194
G1 X102.904 Y144.013 E164.62863
G1 X102.12 Y143.185 E164.68552
G1 X101.291 Y141.881 E164.76261
G1 X101.006 Y141.03 E164.80738
G1 X100.431 Y140.016 E164.86554
G1 X99.272 Y140.236 E164.9244
G1 X97.399 Y139.897 E165.01936
G1 X95.81 Y139.155 E165.10685
G1 X94.829 Y138.362 E165.16978
G1 X94.495 Y138.159 E165.18928
G1 X93.768 Y137.91 E165.22762
G1 X91.913 Y136.727 E165.33739
G1 X90.825 Y135.305 E165.42671
G1 X90.587 Y134.852 E165.45224
G1 X89.989 Y134.775 E165.48232
G1 X88.617 Y134.06 E165.55951
G1 X87.555 Y133.324 E165.62397
G1 X85.973 Y131.509 E165.74409
G1 X85.168 Y130.067 E165.82649
G1 X84.789 Y128.279 E165.91767
G1 X84.824 Y126.333 E166.01478
G1 X85.302 Y124.355 E166.1163
G1 X86.259 Y122.965 E166.20049
G1 X87.513 Y121.684 E166.28993
G0 F3600 X87.77 Y121.994
G1 F1800 X89.212 Y121.066 E166.37548
G1 X91.144 Y120.514 E166.47572
G1 X91.863 Y119.39 E166.54229
G1 X92.97 Y118.203 E166.62327
G1 X94.346 Y117.4 E166.70275
G1 X95.473 Y117.001 E166.7624
G1 X97.257 Y116.043 E166.86342
G1 X99.042 Y115.601 E166.95517
G1 X99.555 Y115.509 E166.98117
G1 X100.642 Y115.173 E167.03793
G1 X101.036 Y114.415 E167.08055
G1 X101.375 Y113.546 E167.12709
G1 X101.951 Y112.837 E167.17266
G1 X102.3 Y112.302 E167.20453
G1 X102.752 Y111.846 E167.23656
G1 X102.813 Y111.704 E167.24427
G1 X103.46 Y110.579 E167.30902
G1 X104.552 Y109.53 E167.38456
G1 X105.694 Y108.827 E167.45147
G1 X106.379 Y108.197 E167.4979
G1 X109.399 Y106.783 E167.66426
G1 X110.006 Y106.434 E167.6992
G1 X112.499 Y105.346 E167.8349
G1 X113.899 Y105.051 E167.90628
G1 X116.739 Y105.067 E168.04797
G1 X117.181 Y105.096 E168.07007
G1 X117.536 Y105.057 E168.08789
G1 X126.827 Y105.058 E168.55142
G1 X127.182 Y105.096 E168.56923
G1 X127.863 Y105.054 E168.60327
G1 X140.232 Y105.037 E169.22036
G1 X140.88 Y104.274 E169.2703
G1 X142.123 Y103.423 E169.34546
G1 X143.642 Y102.861 E169.42626
G1 X148.821 Y102.285 E169.68624
G1 X158.017 Y102.257 E170.14503
G1 X159.625 Y102.574 E170.2268
G1 X161.171 Y103.42 E170.31472
G1 X161.67 Y103.818 E170.34657
G1 X163.767 Y106.343 E170.51032
G1 X164.437 Y108.335 E170.61517
G1 X164.483 Y109.816 E170.68909
G1 X164.281 Y111.056 E170.75177
G1 X164.34 Y112.349 E170.81635
G1 X164.1 Y113.688 E170.88421
G1 X163.723 Y114.684 E170.93734
G1 X162.881 Y115.998 E171.0152
G1 X160.786 Y117.944 E171.15786
G1 X159.984 Y118.412 E171.20418
G1 X159.467 Y118.812 E171.2368
G1 X157.112 Y120.005 E171.3685
G1 X156.536 Y120.235 E171.39945
G1 X156 Y120.587 E171.43144
G1 X152.786 Y121.728 E171.60159
G1 X152.39 Y121.833 E171.62203
G1 X151.582 Y122.241 E171.66719
G1 X148.164 Y123.204 E171.84435
G1 X147.574 Y123.339 E171.87455
G1 X146.919 Y123.689 E171.9116
G1 X144.917 Y124.202 E172.01471
G1 X145.372 Y125.234 E172.07098
G1 X145.566 Y127.521 E172.18548
G1 X145.369 Y129.798 E172.29951
G1 X145.064 Y130.478 E172.33669
G1 X145.361 Y130.557 E172.35202
G1 X145.852 Y130.747 E172.37829
G1 X146.69 Y131.026 E172.42235
G1 X150.182 Y132.025 E172.60356
G1 X150.787 Y132.266 E172.63605
G1 X155.07 Y133.726 E172.8618
G1 X155.728 Y134.099 E172.89954
G1 X156.256 Y134.347 E172.92864
G1 X158.763 Y135.465 E173.06559
G1 X159.728 Y136.053 E173.12197
G1 X160.202 Y136.496 E173.15433
G1 X162.282 Y138.001 E173.28242
G1 X163.266 Y139.201 E173.35984
G1 X163.789 Y140.167 E173.41465
G1 X164.19 Y141.644 E173.491
G1 X164.219 Y142.357 E173.5266
G1 X164.527 Y143.088 E173.56618
G1 X164.854 Y144.62 E173.64433
G1 X164.701 Y146.201 E173.72358
G1 X164.422 Y147.167 E173.77374
G1 X163.861 Y148.203 E173.83252
G1 X161.774 Y150.784 E173.99811
G1 X160.1 Y151.98 E174.10076
G1 X158.229 Y152.475 E174.19731
G1 X148.958 Y152.449 E174.65985
G1 X140.607 Y151.512 E175.07909
G1 X141.937 Y152.981 E175.17796
G1 X142.753 Y154.753 E175.27529
G1 X143.218 Y155.815 E175.33313
G1 X144.534 Y159.286 E175.51832
G1 X144.657 Y159.628 E175.53646
G1 X145.816 Y162.142 E175.67457
G1 X146.122 Y163.354 E175.73693
G1 X146.15 Y165.015 E175.81981
G1 X145.533 Y166.923 E175.91985
G1 X144.236 Y168.548 E176.02358
G1 X142.757 Y169.459 E176.11025
G1 X142.307 Y169.652 E176.13467
G1 X140.943 Y170.056 E176.20565
G1 X139.544 Y170.077 E176.27545
G1 X138.559 Y169.895 E176.32542
G1 X137.142 Y169.325 E176.40162
G1 X135.708 Y168.18 E176.49317
G1 X134.897 Y166.889 E176.56924
G1 X133.832 Y164.603 E176.69506
G1 X133.615 Y164.227 E176.71671
G1 X131.704 Y160.71 E176.91641
G1 X130.574 Y158.288 E177.04975
G1 X130.302 Y156.309 E177.14941
G1 X130.408 Y155.328 E177.19863
G1 X130.779 Y153.824 E177.27592
G1 X131.659 Y152.231 E177.36671
G1 X133.021 Y151.021 E177.45761
G1 X133.636 Y150.644 E177.49359
G1 X135.188 Y150.075 E177.57606
G1 X136.943 Y149.983 E177.66374
G1 X137.191 Y150.022 E177.67627
G1 X136.717 Y149.545 E177.70981
G1 X131.63 Y149.537 E177.96361
G1 X131.259 Y149.527 E177.98212
G1 X130.723 Y149.537 E178.00887
G1 X120.007 Y149.52 E178.54349
G1 X119.643 Y149.48 E178.56176
G1 X119.218 Y149.528 E178.5831
G1 X113.683 Y149.538 E178.85924
G1 X112.271 Y149.263 E178.93101
G1 X108.757 Y147.707 E179.12274
G1 X108.182 Y147.318 E179.15738
G1 X107.413 Y146.914 E179.20072
G1 X106.951 Y146.532 E179.23062
G1 X106.734 Y146.481 E179.24175
G1 X105.841 Y146.171 E179.28891
G1 X104.598 Y145.348 E179.36328
G1 X103.639 Y144.326 E179.4332
G1 X103.212 Y143.757 E179.46869
G1 X102.44 Y142.942 E179.5247
G1 X101.653 Y141.704 E179.59789
G1 X101.372 Y140.865 E179.64203
G1 X100.637 Y139.57 E179.71632
G1 X99.271 Y139.829 E179.78568
G1 X97.522 Y139.512 E179.87436
G1 X96.023 Y138.813 E179.95688
G1 X95.06 Y138.034 E180.01867
G1 X94.666 Y137.794 E180.04169
G1 X93.94 Y137.546 E180.07997
G1 X92.189 Y136.429 E180.18359
G1 X91.143 Y135.062 E180.26946
G1 X90.848 Y134.482 E180.30192
G1 X90.111 Y134.387 E180.339
G1 X88.802 Y133.705 E180.41264
G1 X87.825 Y133.025 E180.47202
G1 X86.3 Y131.275 E180.58783
G1 X85.546 Y129.925 E180.66497
G1 X85.19 Y128.242 E180.7508
G1 X85.223 Y126.385 E180.84346
G1 X85.674 Y124.52 E180.93919
G1 X86.567 Y123.223 E181.01775
G1 X87.77 Y121.994 E181.10355
G0 F3600 X88.027 Y122.304
G1 F1800 X89.376 Y121.436 E181.18358
G1 X91.457 Y120.841 E181.29156
G1 X91.549 Y120.623 E181.30336
G1 X92.18 Y119.636 E181.36181
G1 X93.222 Y118.519 E181.43802
G1 X94.515 Y117.764 E181.51272
G1 X95.634 Y117.368 E181.57194
G1 X97.4 Y116.42 E181.67194
G1 X99.093 Y115.998 E181.75899
G1 X99.568 Y115.937 E181.78288
G1 X99.674 Y115.891 E181.78864
G1 X100.732 Y115.561 E181.84393
G1 X100.931 Y115.537 E181.85394
G1 X101.018 Y115.31 E181.86606
G1 X101.402 Y114.579 E181.90726
G1 X101.726 Y113.748 E181.95176
G1 X102.276 Y113.071 E181.99527
G1 X102.613 Y112.555 E182.02602
G1 X103.09 Y112.074 E182.05982
G1 X103.181 Y111.861 E182.07137
G1 X103.778 Y110.828 E182.1309
G1 X104.795 Y109.851 E182.20126
G1 X105.934 Y109.15 E182.26798
G1 X106.604 Y108.533 E182.31342
G1 X109.587 Y107.137 E182.47773
G1 X110.166 Y106.801 E182.51113
G1 X112.625 Y105.728 E182.64498
G1 X113.938 Y105.451 E182.71193
G1 X116.712 Y105.466 E182.85033
G1 X117.193 Y105.498 E182.87438
G1 X117.58 Y105.455 E182.89381
G1 X126.827 Y105.458 E183.35514
G1 X127.173 Y105.497 E183.37251
G1 X127.864 Y105.454 E183.40705
G1 X140.326 Y105.437 E184.02878
G1 X140.452 Y105.396 E184.03539
G1 X141.151 Y104.573 E184.08927
G1 X142.308 Y103.781 E184.15922
G1 X143.733 Y103.254 E184.23502
G1 X148.865 Y102.683 E184.49263
G1 X157.981 Y102.657 E184.94743
G1 X159.485 Y102.954 E185.02392
G1 X160.946 Y103.753 E185.107
G1 X161.388 Y104.106 E185.13522
G1 X163.412 Y106.542 E185.29322
G1 X164.039 Y108.406 E185.39134
G1 X164.082 Y109.79 E185.46042
G1 X163.879 Y111.038 E185.5235
G1 X163.938 Y112.324 E185.58773
G1 X163.713 Y113.582 E185.65149
G1 X163.364 Y114.502 E185.70058
G1 X162.57 Y115.741 E185.774
G1 X160.548 Y117.62 E185.91171
G1 X159.762 Y118.078 E185.95709
G1 X159.254 Y118.471 E185.98913
G1 X156.964 Y119.633 E186.11725
G1 X156.352 Y119.877 E186.15012
G1 X155.821 Y120.226 E186.18182
G1 X152.683 Y121.341 E186.34797
G1 X152.25 Y121.456 E186.37032
G1 X151.438 Y121.866 E186.4157
G1 X148.075 Y122.814 E186.59002
G1 X147.433 Y122.961 E186.62288
G1 X146.771 Y123.314 E186.66031
G1 X144.36 Y123.932 E186.78448
G1 X144.979 Y125.334 E186.86094
G1 X145.164 Y127.521 E186.97044
G1 X144.976 Y129.697 E187.07941
G1 X144.505 Y130.747 E187.13682
G1 X145.217 Y130.93 E187.1735
G1 X145.726 Y131.127 E187.20073
G1 X146.573 Y131.409 E187.24526
G1 X150.072 Y132.41 E187.42683
G1 X150.658 Y132.645 E187.45833
G1 X154.908 Y134.094 E187.68235
G1 X155.545 Y134.455 E187.71888
G1 X156.086 Y134.709 E187.74869
G1 X158.555 Y135.807 E187.88351
G1 X159.487 Y136.375 E187.93796
G1 X159.947 Y136.805 E187.96937
G1 X162.005 Y138.294 E188.0961
G1 X162.932 Y139.425 E188.16906
G1 X163.415 Y140.317 E188.21967
G1 X163.792 Y141.704 E188.29138
G1 X163.822 Y142.445 E188.32837
G1 X164.144 Y143.21 E188.36978
G1 X164.45 Y144.643 E188.44289
G1 X164.306 Y146.127 E188.51727
G1 X164.051 Y147.011 E188.56317
G1 X163.524 Y147.984 E188.61838
G1 X161.497 Y150.491 E188.77922
G1 X159.929 Y151.611 E188.87536
G1 X158.177 Y152.075 E188.96578
G1 X149.003 Y152.051 E189.42347
G1 X140.425 Y151.089 E189.85411
G1 X138.968 Y150.725 E189.92904
G1 X137.746 Y150.013 E189.9996
G1 X136.884 Y149.145 E190.06063
G1 X131.641 Y149.137 E190.3222
G1 X131.263 Y149.127 E190.34107
G1 X130.724 Y149.137 E190.36796
G1 X120.051 Y149.122 E190.90044
G1 X119.643 Y149.077 E190.92092
G1 X119.217 Y149.128 E190.94233
G1 X113.723 Y149.138 E191.21642
G1 X112.392 Y148.879 E191.28407
G1 X108.949 Y147.354 E191.47194
G1 X108.386 Y146.973 E191.50585
G1 X107.636 Y146.579 E191.54812
G1 X107.132 Y146.163 E191.58073
G1 X106.865 Y146.103 E191.59438
G1 X106.018 Y145.809 E191.63911
G1 X104.86 Y145.042 E191.7084
G1 X103.931 Y144.052 E191.77614
G1 X103.518 Y143.498 E191.81061
G1 X102.758 Y142.695 E191.86577
G1 X102.015 Y141.527 E191.93483
G1 X101.738 Y140.701 E191.9783
G1 X100.847 Y139.129 E192.06845
G1 X100.782 Y139.111 E192.07181
G1 X100.592 Y139.171 E192.08175
G1 X99.27 Y139.422 E192.14889
G1 X97.641 Y139.127 E192.23148
G1 X96.237 Y138.472 E192.30877
G1 X95.287 Y137.704 E192.36972
G1 X94.839 Y137.431 E192.39589
G1 X94.115 Y137.183 E192.43407
G1 X92.465 Y136.131 E192.5317
G1 X91.482 Y134.846 E192.61242
G1 X91.108 Y134.112 E192.65352
G1 X90.233 Y133.999 E192.69753
G1 X88.987 Y133.35 E192.76762
G1 X88.096 Y132.726 E192.82189
G1 X86.627 Y131.041 E192.93342
G1 X85.924 Y129.783 E193.00531
G1 X85.591 Y128.205 E193.08578
G1 X85.622 Y126.437 E193.17399
G1 X86.046 Y124.685 E193.26393
G1 X86.875 Y123.481 E193.33686
G1 X88.027 Y122.304 E193.41902
G0 F3600 X88.284 Y122.614
G1 F1800 X89.54 Y121.806 E193.49353
G1 X91.76 Y121.171 E193.60873
G1 X91.886 Y120.838 E193.62649
G1 X92.497 Y119.882 E193.6831
G1 X93.474 Y118.835 E193.75454
G1 X94.683 Y118.129 E193.82439
G1 X95.793 Y117.736 E193.88314
G1 X97.544 Y116.796 E193.98228
G1 X99.144 Y116.395 E194.06458
G1 X99.678 Y116.326 E194.09144
G1 X99.793 Y116.273 E194.09776
G1 X100.851 Y115.943 E194.15305
G1 X101.216 Y115.92 E194.1713
G1 X101.372 Y115.496 E194.19384
G1 X101.768 Y114.743 E194.23628
G1 X102.076 Y113.952 E194.27863
G1 X102.599 Y113.308 E194.32002
G1 X102.928 Y112.805 E194.35001
G1 X103.429 Y112.299 E194.38553
G1 X103.549 Y112.019 E194.40073
G1 X104.097 Y111.076 E194.45514
G1 X105.038 Y110.172 E194.52024
G1 X106.174 Y109.472 E194.58681
G1 X106.83 Y108.868 E194.6313
G1 X109.776 Y107.49 E194.79356
G1 X110.326 Y107.168 E194.82536
G1 X112.751 Y106.11 E194.95736
G1 X113.977 Y105.851 E195.01987
G1 X116.686 Y105.865 E195.15503
G1 X117.205 Y105.899 E195.18097
G1 X117.624 Y105.853 E195.202
G1 X126.783 Y105.856 E195.65895
G1 X127.16 Y105.898 E195.67787
G1 X127.865 Y105.854 E195.71311
G1 X140.389 Y105.837 E196.33794
G1 X140.715 Y105.731 E196.35504
G1 X140.811 Y105.592 E196.36347
G1 X141.422 Y104.872 E196.41058
G1 X142.493 Y104.139 E196.47533
G1 X143.824 Y103.647 E196.54613
G1 X148.909 Y103.081 E196.80138
G1 X157.944 Y103.057 E197.25214
G1 X159.346 Y103.334 E197.32344
G1 X160.754 Y104.104 E197.40351
G1 X161.102 Y104.389 E197.42595
G1 X163.058 Y106.742 E197.5786
G1 X163.641 Y108.476 E197.66987
G1 X163.681 Y109.764 E197.73416
G1 X163.477 Y111.02 E197.79764
G1 X163.536 Y112.298 E197.86147
G1 X163.325 Y113.476 E197.92118
G1 X163.005 Y114.32 E197.96621
G1 X162.259 Y115.484 E198.03518
G1 X160.311 Y117.294 E198.16785
G1 X159.543 Y117.742 E198.21221
G1 X159.041 Y118.13 E198.24386
G1 X156.816 Y119.261 E198.36838
G1 X156.168 Y119.519 E198.40318
G1 X155.642 Y119.865 E198.43459
G1 X152.581 Y120.954 E198.59668
G1 X152.109 Y121.079 E198.62104
G1 X151.294 Y121.491 E198.6666
G1 X147.986 Y122.424 E198.83808
G1 X147.292 Y122.583 E198.8736
G1 X146.627 Y122.938 E198.91121
G1 X143.803 Y123.661 E199.05664
G1 X144.585 Y125.433 E199.15327
G1 X144.762 Y127.521 E199.25782
G1 X144.583 Y129.596 E199.36172
G1 X143.944 Y131.019 E199.43955
G1 X145.072 Y131.303 E199.49758
G1 X145.593 Y131.505 E199.52546
G1 X146.456 Y131.792 E199.57083
G1 X149.962 Y132.795 E199.75276
G1 X150.521 Y133.021 E199.78284
G1 X154.746 Y134.462 E200.00555
G1 X155.362 Y134.811 E200.04087
G1 X155.924 Y135.075 E200.07185
G1 X158.347 Y136.149 E200.20408
G1 X159.246 Y136.697 E200.25661
G1 X159.692 Y137.114 E200.28707
G1 X161.73 Y138.588 E200.41255
G1 X162.595 Y139.644 E200.48065
G1 X163.042 Y140.469 E200.52747
G1 X163.394 Y141.764 E200.59442
G1 X163.425 Y142.533 E200.63281
G1 X163.761 Y143.332 E200.67606
G1 X164.046 Y144.666 E200.74411
G1 X163.911 Y146.053 E200.81364
G1 X163.68 Y146.855 E200.85528
G1 X163.187 Y147.765 E200.90691
G1 X161.222 Y150.196 E201.06286
G1 X159.757 Y151.242 E201.15267
G1 X158.124 Y151.675 E201.23695
G1 X149.048 Y151.653 E201.68976
G1 X140.47 Y150.691 E202.1204
G1 X139.122 Y150.351 E202.18976
G1 X137.992 Y149.692 E202.25502
G1 X137.298 Y148.994 E202.30413
G1 X137.166 Y148.826 E202.31479
G1 X137.008 Y148.761 E202.32331
G1 X136.425 Y148.744 E202.35241
G1 X131.651 Y148.737 E202.59059
G1 X131.266 Y148.727 E202.6098
G1 X130.724 Y148.737 E202.63684
G1 X120.095 Y148.724 E203.16713
G1 X119.64 Y148.674 E203.18996
G1 X119.216 Y148.728 E203.21129
G1 X113.764 Y148.738 E203.48329
G1 X112.512 Y148.494 E203.54693
G1 X109.141 Y147.001 E203.73086
G1 X108.59 Y146.628 E203.76406
G1 X107.862 Y146.246 E203.80508
G1 X107.313 Y145.793 E203.84059
G1 X106.996 Y145.725 E203.85676
G1 X106.195 Y145.447 E203.89906
G1 X105.122 Y144.736 E203.96328
G1 X104.223 Y143.778 E204.02882
G1 X103.829 Y143.245 E204.06189
G1 X103.078 Y142.452 E204.11638
G1 X102.377 Y141.35 E204.18154
G1 X102.104 Y140.537 E204.22433
G1 X101.114 Y138.789 E204.32455
G1 X100.774 Y138.692 E204.34219
G1 X100.517 Y138.778 E204.35571
G1 X99.269 Y139.015 E204.41909
G1 X97.76 Y138.742 E204.49559
G1 X96.453 Y138.132 E204.56755
G1 X95.523 Y137.38 E204.62722
G1 X95.01 Y137.067 E204.6572
G1 X94.291 Y136.821 E204.69511
G1 X92.741 Y135.833 E204.78682
G1 X91.819 Y134.628 E204.86252
G1 X91.368 Y133.742 E204.91212
G1 X90.355 Y133.611 E204.96307
G1 X89.172 Y132.995 E205.02962
G1 X88.365 Y132.426 E205.07888
G1 X86.956 Y130.81 E205.18584
G1 X86.302 Y129.64 E205.25272
G1 X85.992 Y128.169 E205.32772
G1 X86.021 Y126.489 E205.41154
G1 X86.418 Y124.85 E205.49568
G1 X87.183 Y123.739 E205.56298
G1 X88.284 Y122.614 E205.64151
G0 F3600 X88.541 Y122.924
G1 F1800 X89.704 Y122.176 E205.7105
G1 X92.071 Y121.498 E205.83334
G1 X92.223 Y121.053 E205.8568
G1 X92.814 Y120.128 E205.91156
G1 X93.726 Y119.151 E205.97824
G1 X94.852 Y118.493 E206.0433
G1 X95.954 Y118.103 E206.10162
G1 X97.687 Y117.173 E206.19975
G1 X99.195 Y116.792 E206.27734
G1 X99.79 Y116.715 E206.30728
G1 X99.96 Y116.637 E206.31661
G1 X100.969 Y116.325 E206.3693
G1 X101.499 Y116.314 E206.39575
G1 X101.726 Y115.682 E206.42925
G1 X102.134 Y114.907 E206.47295
G1 X102.426 Y114.156 E206.51315
G1 X102.922 Y113.545 E206.55241
G1 X103.243 Y113.055 E206.58163
G1 X103.768 Y112.524 E206.61889
G1 X103.895 Y112.22 E206.63532
G1 X104.416 Y111.324 E206.68703
G1 X105.284 Y110.49 E206.74709
G1 X106.417 Y109.791 E206.8135
G1 X107.056 Y109.203 E206.85683
G1 X109.967 Y107.842 E207.01715
G1 X110.486 Y107.535 E207.04723
G1 X112.877 Y106.492 E207.17737
G1 X114.016 Y106.251 E207.23546
G1 X116.66 Y106.264 E207.36737
G1 X117.217 Y106.3 E207.39522
G1 X117.667 Y106.251 E207.4178
G1 X126.739 Y106.254 E207.8704
G1 X127.147 Y106.299 E207.89088
G1 X127.866 Y106.254 E207.92682
G1 X140.012 Y106.238 E208.53279
G1 X140.523 Y106.213 E208.55831
G1 X140.849 Y106.12 E208.57523
G1 X140.999 Y106.024 E208.58411
G1 X141.116 Y105.851 E208.59453
G1 X141.693 Y105.171 E208.63902
G1 X142.678 Y104.497 E208.69857
G1 X143.915 Y104.04 E208.76436
G1 X148.953 Y103.479 E209.01726
G1 X157.907 Y103.457 E209.46398
G1 X159.207 Y103.714 E209.53009
G1 X160.562 Y104.455 E209.60714
G1 X160.794 Y104.645 E209.6221
G1 X162.703 Y106.942 E209.77111
G1 X163.243 Y108.547 E209.85559
G1 X163.28 Y109.738 E209.91504
G1 X163.075 Y111.001 E209.97888
G1 X163.134 Y112.273 E210.04241
G1 X162.938 Y113.369 E210.09795
G1 X162.646 Y114.138 E210.13899
G1 X161.948 Y115.227 E210.20352
G1 X160.073 Y116.97 E210.33124
G1 X159.321 Y117.408 E210.37466
G1 X158.828 Y117.789 E210.40575
G1 X156.635 Y118.904 E210.52849
G1 X155.983 Y119.162 E210.56347
G1 X155.463 Y119.504 E210.59452
G1 X152.478 Y120.567 E210.7526
G1 X151.969 Y120.702 E210.77887
G1 X151.15 Y121.116 E210.82466
G1 X147.897 Y122.034 E210.99329
G1 X147.151 Y122.205 E211.03147
G1 X146.479 Y122.563 E211.06946
G1 X143.195 Y123.404 E211.23859
G1 X143.355 Y123.637 E211.25269
G1 X144.192 Y125.533 E211.35609
G1 X144.36 Y127.521 E211.45562
G1 X144.19 Y129.495 E211.55447
G1 X143.383 Y131.29 E211.65266
G1 X144.974 Y131.691 E211.73451
G1 X145.467 Y131.885 E211.76095
G1 X146.339 Y132.175 E211.80679
G1 X149.852 Y133.18 E211.98909
G1 X150.392 Y133.4 E212.01818
G1 X154.584 Y134.83 E212.23915
G1 X155.179 Y135.167 E212.27327
G1 X155.762 Y135.441 E212.30541
G1 X158.139 Y136.491 E212.43505
G1 X159.005 Y137.019 E212.48565
G1 X159.437 Y137.423 E212.51516
G1 X161.455 Y138.882 E212.6394
G1 X162.26 Y139.865 E212.70278
G1 X162.668 Y140.619 E212.74556
G1 X162.996 Y141.824 E212.80786
G1 X163.028 Y142.621 E212.84766
G1 X163.378 Y143.454 E212.89273
G1 X163.642 Y144.689 E212.95574
G1 X163.516 Y145.979 E213.0204
G1 X163.309 Y146.699 E213.05778
G1 X162.85 Y147.546 E213.10584
G1 X160.945 Y149.903 E213.25704
G1 X159.587 Y150.873 E213.3403
G1 X158.071 Y151.275 E213.41855
G1 X149.093 Y151.255 E213.86646
G1 X140.515 Y150.293 E214.2971
G1 X139.273 Y149.976 E214.36105
G1 X138.238 Y149.372 E214.42084
G1 X137.581 Y148.712 E214.4673
G1 X137.42 Y148.498 E214.48066
G1 X137.092 Y148.363 E214.49836
G1 X136.437 Y148.344 E214.53105
G1 X131.661 Y148.337 E214.76932
G1 X131.269 Y148.327 E214.78889
G1 X130.724 Y148.337 E214.81608
G1 X120.139 Y148.326 E215.34417
G1 X119.639 Y148.271 E215.36927
G1 X119.215 Y148.328 E215.39061
G1 X113.804 Y148.338 E215.66057
G1 X112.633 Y148.11 E215.72008
G1 X109.333 Y146.648 E215.90016
G1 X108.794 Y146.283 E215.93263
G1 X108.085 Y145.911 E215.97258
G1 X107.49 Y145.421 E216.01103
G1 X107.127 Y145.347 E216.02952
G1 X106.372 Y145.085 E216.06939
G1 X105.382 Y144.429 E216.12864
G1 X104.545 Y143.54 E216.18955
G1 X104.14 Y142.992 E216.22355
G1 X103.395 Y142.205 E216.27762
G1 X102.74 Y141.176 E216.33847
G1 X102.471 Y140.374 E216.38067
G1 X101.498 Y138.668 E216.47866
G1 X101.401 Y138.455 E216.49033
G1 X100.762 Y138.272 E216.52349
G1 X100.442 Y138.385 E216.54042
G1 X99.268 Y138.608 E216.60004
G1 X97.879 Y138.357 E216.67046
G1 X96.669 Y137.792 E216.73709
G1 X95.759 Y137.056 E216.79548
G1 X95.177 Y136.701 E216.82949
G1 X94.463 Y136.457 E216.86713
G1 X93.017 Y135.535 E216.95269
G1 X92.158 Y134.412 E217.02323
G1 X91.628 Y133.372 E217.08146
G1 X90.476 Y133.223 E217.13942
G1 X89.403 Y132.668 E217.19969
G1 X88.633 Y132.125 E217.24669
G1 X87.285 Y130.579 E217.34902
G1 X86.681 Y129.498 E217.4108
G1 X86.393 Y128.132 E217.48045
G1 X86.42 Y126.541 E217.55984
G1 X86.79 Y125.015 E217.63818
G1 X87.491 Y123.997 E217.69984
G1 X88.541 Y122.924 E217.77474
G0 F3600 X88.798 Y123.234
G1 F1800 X89.868 Y122.546 E217.83821
G1 X92.389 Y121.823 E217.96905
G1 X92.56 Y121.268 E217.99802
G1 X93.131 Y120.374 E218.05095
G1 X93.978 Y119.467 E218.11286
G1 X95.02 Y118.858 E218.17307
G1 X96.113 Y118.471 E218.23092
G1 X97.829 Y117.55 E218.32808
G1 X99.247 Y117.189 E218.40108
G1 X99.901 Y117.104 E218.43399
G1 X100.126 Y117.001 E218.44633
G1 X101.086 Y116.707 E218.49642
G1 X101.836 Y116.719 E218.53384
G1 X101.887 Y116.407 E218.54962
G1 X102.102 Y115.82 E218.58081
G1 X102.499 Y115.072 E218.62305
G1 X102.777 Y114.357 E218.66133
G1 X103.244 Y113.782 E218.69828
G1 X103.553 Y113.311 E218.72639
G1 X104.109 Y112.748 E218.76586
G1 X104.241 Y112.421 E218.78346
G1 X104.735 Y111.572 E218.83246
G1 X105.53 Y110.808 E218.88747
G1 X106.66 Y110.11 E218.95373
G1 X107.282 Y109.538 E218.99589
G1 X110.155 Y108.195 E219.15411
G1 X110.646 Y107.902 E219.18264
G1 X113.003 Y106.874 E219.31093
G1 X114.056 Y106.651 E219.36463
G1 X116.634 Y106.663 E219.49325
G1 X117.225 Y106.701 E219.52279
G1 X117.667 Y106.651 E219.54499
G1 X126.739 Y106.654 E219.99759
G1 X127.137 Y106.7 E220.01758
G1 X127.867 Y106.654 E220.05407
G1 X140.031 Y106.638 E220.66094
G1 X140.588 Y106.611 E220.68876
G1 X141.015 Y106.489 E220.71091
G1 X141.285 Y106.315 E220.72694
G1 X141.421 Y106.11 E220.73921
G1 X141.964 Y105.47 E220.78108
G1 X142.863 Y104.855 E220.83543
G1 X144.006 Y104.433 E220.89621
G1 X148.997 Y103.877 E221.14676
G1 X157.87 Y103.857 E221.58943
G1 X159.068 Y104.094 E221.65036
G1 X160.37 Y104.806 E221.72439
G1 X160.486 Y104.901 E221.73188
G1 X162.349 Y107.142 E221.87727
G1 X162.845 Y108.617 E221.9549
G1 X162.879 Y109.712 E222.00956
G1 X162.673 Y110.982 E222.07375
G1 X162.732 Y112.247 E222.13693
G1 X162.55 Y113.263 E222.18842
G1 X162.287 Y113.956 E222.2254
G1 X161.637 Y114.97 E222.28549
G1 X159.836 Y116.644 E222.40817
G1 X159.097 Y117.075 E222.45085
G1 X158.609 Y117.452 E222.48161
G1 X156.488 Y118.532 E222.60036
G1 X155.798 Y118.805 E222.63738
G1 X155.284 Y119.143 E222.66807
G1 X152.375 Y120.18 E222.82215
G1 X151.829 Y120.325 E222.85033
G1 X151.006 Y120.741 E222.89634
G1 X147.808 Y121.644 E223.06213
G1 X147.01 Y121.827 E223.10297
G1 X146.335 Y122.187 E223.14114
G1 X142.898 Y123.067 E223.31814
G1 X142.487 Y123.12 E223.33882
G1 X142.989 Y123.798 E223.3809
G1 X143.798 Y125.632 E223.48091
G1 X143.958 Y127.521 E223.57549
G1 X143.797 Y129.394 E223.66928
G1 X142.985 Y131.199 E223.76802
G1 X142.742 Y131.541 E223.78895
G1 X144.876 Y132.079 E223.89875
G1 X145.338 Y132.264 E223.92358
G1 X146.222 Y132.558 E223.97006
G1 X149.742 Y133.565 E224.15272
G1 X150.25 Y133.775 E224.18014
G1 X154.422 Y135.198 E224.40006
G1 X154.996 Y135.523 E224.43296
G1 X155.6 Y135.807 E224.46626
G1 X157.977 Y136.857 E224.59591
G1 X158.763 Y137.34 E224.64193
G1 X159.182 Y137.732 E224.67056
G1 X161.177 Y139.174 E224.79337
G1 X161.925 Y140.088 E224.85229
G1 X162.295 Y140.771 E224.89104
G1 X162.598 Y141.884 E224.94859
G1 X162.631 Y142.709 E224.98979
G1 X162.996 Y143.577 E225.03676
G1 X163.238 Y144.711 E225.09461
G1 X163.121 Y145.906 E225.15452
G1 X162.938 Y146.544 E225.18763
G1 X162.515 Y147.325 E225.23194
G1 X160.67 Y149.608 E225.37839
G1 X159.415 Y150.504 E225.45532
G1 X158.017 Y150.875 E225.52748
G1 X149.138 Y150.857 E225.97045
G1 X140.56 Y149.895 E226.4011
G1 X139.426 Y149.603 E226.45952
G1 X138.484 Y149.053 E226.51394
G1 X137.901 Y148.472 E226.555
G1 X137.692 Y148.194 E226.57235
G1 X137.488 Y148.073 E226.58419
G1 X137.163 Y147.965 E226.60127
G1 X136.449 Y147.944 E226.63691
G1 X131.671 Y147.937 E226.87528
G1 X131.272 Y147.927 E226.8952
G1 X130.724 Y147.937 E226.92254
G1 X120.182 Y147.928 E227.44848
G1 X119.633 Y147.868 E227.47604
G1 X119.214 Y147.928 E227.49715
G1 X113.844 Y147.938 E227.76506
G1 X112.754 Y147.726 E227.82046
G1 X109.525 Y146.295 E227.99667
G1 X108.998 Y145.938 E228.02843
G1 X108.308 Y145.576 E228.0673
G1 X107.667 Y145.049 E228.1087
G1 X107.207 Y144.955 E228.13213
G1 X106.55 Y144.724 E228.16687
G1 X105.644 Y144.123 E228.22111
G1 X104.867 Y143.302 E228.27751
G1 X104.448 Y142.735 E228.31268
G1 X103.71 Y141.955 E228.36625
G1 X103.103 Y141.002 E228.42262
G1 X102.836 Y140.207 E228.46446
G1 X101.846 Y138.47 E228.56421
G1 X101.69 Y138.121 E228.58328
G1 X101.009 Y137.926 E228.61862
G1 X100.796 Y137.833 E228.63022
G1 X100.367 Y137.992 E228.65304
G1 X99.267 Y138.201 E228.7089
G1 X97.998 Y137.972 E228.77324
G1 X96.883 Y137.451 E228.83464
G1 X95.991 Y136.73 E228.89186
G1 X95.344 Y136.335 E228.92968
G1 X94.635 Y136.093 E228.96705
G1 X93.293 Y135.237 E229.04647
G1 X92.497 Y134.196 E229.11185
G1 X92.052 Y133.323 E229.16073
G1 X91.97 Y133.013 E229.17673
G1 X90.597 Y132.835 E229.2458
G1 X89.634 Y132.341 E229.2998
G1 X88.901 Y131.824 E229.34455
G1 X87.614 Y130.348 E229.44225
G1 X87.06 Y129.356 E229.49894
G1 X86.794 Y128.095 E229.56323
G1 X86.819 Y126.593 E229.63818
G1 X87.162 Y125.18 E229.71072
G1 X87.799 Y124.255 E229.76675
G1 X88.798 Y123.234 E229.83802
G0 F3600 X89.055 Y123.544
G1 F1800 X90.035 Y122.914 E229.89614
G1 X92.496 Y122.208 E230.02387
G1 X92.705 Y122.185 E230.03436
G1 X92.897 Y121.483 E230.07067
G1 X93.448 Y120.62 E230.12176
G1 X94.23 Y119.783 E230.1789
G1 X95.188 Y119.223 E230.23426
G1 X96.272 Y118.839 E230.29164
G1 X97.975 Y117.925 E230.38807
G1 X99.299 Y117.586 E230.45625
G1 X100.015 Y117.493 E230.49227
G1 X100.243 Y117.383 E230.5049
G1 X101.141 Y117.108 E230.55176
G1 X102.186 Y117.125 E230.6039
G1 X102.263 Y116.545 E230.63309
G1 X102.478 Y115.958 E230.66428
G1 X102.862 Y115.241 E230.70486
G1 X103.127 Y114.561 E230.74127
G1 X103.565 Y114.021 E230.77595
G1 X103.865 Y113.565 E230.80319
G1 X104.452 Y112.97 E230.84489
G1 X104.587 Y112.622 E230.86351
G1 X105.054 Y111.82 E230.90981
G1 X105.776 Y111.126 E230.95977
G1 X106.904 Y110.429 E231.02593
G1 X107.508 Y109.873 E231.06688
G1 X110.346 Y108.547 E231.22316
G1 X110.806 Y108.269 E231.24998
G1 X113.129 Y107.256 E231.37641
G1 X114.096 Y107.051 E231.42573
G1 X116.609 Y107.062 E231.5511
G1 X117.236 Y107.102 E231.58245
G1 X117.667 Y107.051 E231.6041
G1 X126.739 Y107.054 E232.05671
G1 X127.123 Y107.102 E232.07601
G1 X127.868 Y107.054 E232.11326
G1 X140.05 Y107.038 E232.72102
G1 X140.653 Y107.009 E232.75114
G1 X141.181 Y106.858 E232.77854
G1 X141.575 Y106.604 E232.80192
G1 X141.726 Y106.369 E232.81586
G1 X142.235 Y105.769 E232.85512
G1 X143.049 Y105.212 E232.90432
G1 X144.095 Y104.826 E232.95995
G1 X149.041 Y104.275 E233.20823
G1 X157.833 Y104.257 E233.64687
G1 X158.929 Y104.474 E233.70261
G1 X160.178 Y105.157 E233.77363
G1 X161.995 Y107.342 E233.91541
G1 X162.447 Y108.687 E233.9862
G1 X162.478 Y109.686 E234.03606
G1 X162.271 Y110.963 E234.1006
G1 X162.33 Y112.222 E234.16348
G1 X162.163 Y113.156 E234.21082
G1 X161.928 Y113.774 E234.24381
G1 X161.326 Y114.713 E234.29945
G1 X159.597 Y116.32 E234.41722
G1 X158.875 Y116.741 E234.45892
G1 X158.394 Y117.113 E234.48925
G1 X156.341 Y118.16 E234.60423
G1 X155.612 Y118.449 E234.64335
G1 X155.104 Y118.782 E234.67366
G1 X152.272 Y119.793 E234.82368
G1 X151.689 Y119.948 E234.85377
G1 X150.862 Y120.366 E234.9
G1 X147.719 Y121.254 E235.06295
G1 X146.869 Y121.449 E235.10646
G1 X146.191 Y121.811 E235.1448
G1 X142.799 Y122.679 E235.31948
G1 X142.051 Y122.771 E235.35708
G1 X141.792 Y122.854 E235.37065
G1 X142.641 Y124.001 E235.44184
G1 X143.405 Y125.732 E235.53624
G1 X143.556 Y127.521 E235.62581
G1 X143.404 Y129.293 E235.71454
G1 X142.62 Y131.035 E235.80985
G1 X142.065 Y131.783 E235.85632
G1 X144.778 Y132.467 E235.9959
G1 X145.212 Y132.644 E236.01929
G1 X146.105 Y132.941 E236.06624
G1 X149.632 Y133.95 E236.24926
G1 X150.109 Y134.15 E236.27506
G1 X154.26 Y135.566 E236.49388
G1 X154.813 Y135.879 E236.52558
G1 X155.438 Y136.173 E236.56004
G1 X157.815 Y137.223 E236.68968
G1 X158.518 Y137.659 E236.73095
G1 X158.922 Y138.038 E236.75859
G1 X160.899 Y139.466 E236.88026
G1 X161.59 Y140.311 E236.93472
G1 X161.922 Y140.923 E236.96945
G1 X162.2 Y141.944 E237.02225
G1 X162.23 Y142.706 E237.06029
G1 X162.27 Y142.884 E237.06939
G1 X162.613 Y143.699 E237.11351
G1 X162.834 Y144.734 E237.16631
G1 X162.727 Y145.828 E237.22115
G1 X162.565 Y146.393 E237.25047
G1 X162.18 Y147.104 E237.29081
G1 X160.393 Y149.315 E237.43264
G1 X159.245 Y150.135 E237.50303
G1 X157.963 Y150.475 E237.5692
