;FLAVOR:Marlin
;TIME:6993
;Filament used: 18.6684m
;Layer height: 0.4
;MINX:66.242
;MINY:68.701
;MINZ:0.3
;MAXX:183.758
;MAXY:186.341
;MAXZ:21.9
;Generated with Cura_SteamEngine 5.3.0
M140 S60
M105
M190 S60
M104 S200
M105
M109 S200
M82 ;absolute extrusion mode
G21 ;metric values
G90 ;absolute positioning
M82 ;set extruder to absolute mode
M107 ;start with the fan off
G28 X0 Y0 ;move X/Y to min endstops
M300 S1318 P266
G28 Z0 ;move Z to min endstops
G0 Z0.2
G92 E0 ;zero the extruded length
G1 X40 E25 F400 ; Extrude 25mm of filament in a 4cm line. Reduce speed (F) if you have a nozzle smaller than 0.4mm!
G92 E0 ;zero the extruded length again
G1 E-1 F500 ; Retract a little
G1 X80 F4000 ; Quickly wipe away from the filament line
M117 ; Printing…
G5
G92 E0
G92 E0
G1 F1500 E-6.5
;LAYER_COUNT:55
;LAYER:0
M107
G0 F3600 X86.404 Y83.151 Z0.3
;TYPE:SKIRT
G1 F1500 E0
G1 F1800 X93.068 Y78.135 E0.41612
G1 X102.52 Y73.176 E0.94865
G1 X110.58 Y70.507 E1.37224
G1 X120.272 Y68.897 E1.8624
G1 X125.365 Y68.701 E2.11668
G1 X130.035 Y68.927 E2.34994
G1 X139.18 Y70.447 E2.81244
G1 X147.54 Y73.196 E3.25149
G1 X156.959 Y78.152 E3.78249
G1 X163.596 Y83.151 E4.19703
G1 X170.711 Y90.505 E4.70753
G1 X175.761 Y97.847 E5.15211
G1 X179.989 Y106.637 E5.63874
G1 X182.642 Y115.757 E6.11259
G1 X183.758 Y125.72 E6.61276
G1 X183.402 Y134.201 E7.03625
G1 X181.502 Y143.879 E7.5283
G1 X178.37 Y152.134 E7.96879
G1 X173.02 Y161.405 E8.50282
G1 X167.81 Y167.786 E8.9138
G1 X159.843 Y174.843 E9.44478
G1 X152.367 Y179.573 E9.88615
G1 X144.155 Y183.073 E10.3315
G1 X133.841 Y185.617 E10.86149
G1 X124.976 Y186.341 E11.30524
G1 X116.151 Y185.617 E11.747
G1 X105.785 Y183.051 E12.27977
G1 X97.719 Y179.604 E12.71739
G1 X90.103 Y174.809 E13.16639
G1 X82.19 Y167.786 E13.69424
G1 X76.851 Y161.22 E14.11644
G1 X71.711 Y152.308 E14.62971
G1 X68.489 Y143.848 E15.08136
G1 X66.598 Y134.201 E15.57181
G1 X66.242 Y125.723 E15.99515
G1 X67.358 Y115.756 E16.49551
G1 X70.01 Y106.64 E16.96917
G1 X74.239 Y97.847 E17.45595
G1 X79.289 Y90.505 E17.90053
G1 X86.404 Y83.151 E18.41103
G0 F3600 X86.645 Y83.471
G1 F1800 X93.309 Y78.455 E18.82715
G1 X102.646 Y73.556 E19.35321
G1 X110.646 Y70.902 E19.77372
G1 X120.338 Y69.292 E20.26388
G1 X125.346 Y69.101 E20.51391
G1 X129.969 Y69.322 E20.74482
G1 X139.114 Y70.842 E21.20732
G1 X147.384 Y73.566 E21.64172
G1 X156.718 Y78.472 E22.1678
G1 X163.355 Y83.471 E22.58234
G1 X170.381 Y90.732 E23.08642
G1 X175.431 Y98.074 E23.531
G1 X179.605 Y106.749 E24.01129
G1 X182.249 Y115.838 E24.48353
G1 X183.358 Y125.703 E24.9788
G1 X183.009 Y134.124 E25.39929
G1 X181.115 Y143.771 E25.88977
G1 X177.996 Y151.992 E26.32844
G1 X172.71 Y161.152 E26.85607
G1 X167.5 Y167.533 E27.26705
G1 X159.629 Y174.505 E27.79164
G1 X152.181 Y179.218 E28.23137
G1 X143.998 Y182.705 E28.67514
G1 X133.808 Y185.218 E29.19875
G1 X124.976 Y185.939 E29.64085
G1 X116.184 Y185.218 E30.08096
G1 X105.942 Y182.683 E30.60735
G1 X97.876 Y179.236 E31.04497
G1 X90.344 Y174.488 E31.48917
G1 X82.5 Y167.533 E32.01219
G1 X77.198 Y161.02 E32.43118
G1 X72.058 Y152.108 E32.94445
G1 X68.876 Y143.74 E33.3911
G1 X66.991 Y134.124 E33.87997
G1 X66.642 Y125.706 E34.30031
G1 X67.751 Y115.837 E34.79577
G1 X70.394 Y106.752 E35.26782
G1 X74.569 Y98.074 E35.74826
G1 X79.619 Y90.732 E36.19284
G1 X86.645 Y83.471 E36.69692
G0 F3600 X86.886 Y83.791
G1 F1800 X93.55 Y78.775 E37.11304
G1 X102.772 Y73.936 E37.63262
G1 X110.712 Y71.297 E38.05006
G1 X120.404 Y69.687 E38.54022
G1 X125.327 Y69.501 E38.78601
G1 X129.903 Y69.717 E39.01456
G1 X139.048 Y71.237 E39.47706
G1 X147.228 Y73.936 E39.90681
G1 X156.477 Y78.792 E40.42797
G1 X163.114 Y83.791 E40.84251
G1 X170.051 Y90.959 E41.34017
G1 X175.101 Y98.301 E41.78475
G1 X179.221 Y106.861 E42.2587
G1 X181.856 Y115.919 E42.72934
G1 X182.958 Y125.687 E43.21975
G1 X182.616 Y134.047 E43.63719
G1 X180.728 Y143.663 E44.12609
G1 X177.622 Y151.85 E44.56295
G1 X172.4 Y160.899 E45.08418
G1 X167.19 Y167.28 E45.49517
G1 X159.415 Y174.167 E46.01336
G1 X151.995 Y178.863 E46.45145
G1 X143.841 Y182.337 E46.89364
G1 X133.775 Y184.819 E47.41087
G1 X124.976 Y185.537 E47.85132
G1 X116.217 Y184.819 E48.28977
G1 X106.099 Y182.315 E48.80979
G1 X98.033 Y178.868 E49.24741
G1 X90.585 Y174.167 E49.68682
G1 X82.81 Y167.28 E50.20501
G1 X77.545 Y160.82 E50.62078
G1 X72.405 Y151.908 E51.13405
G1 X69.263 Y143.632 E51.5757
G1 X67.384 Y134.047 E52.063
G1 X67.042 Y125.69 E52.48028
G1 X68.144 Y115.918 E52.9709
G1 X70.778 Y106.864 E53.44133
G1 X74.899 Y98.301 E53.91544
G1 X79.949 Y90.959 E54.36001
G1 X86.886 Y83.791 E54.85767
G0 F3600 X87.127 Y84.111
G1 F1800 X93.791 Y79.095 E55.2738
G1 X102.898 Y74.316 E55.78691
G1 X110.778 Y71.692 E56.20126
G1 X120.47 Y70.082 E56.69143
G1 X125.308 Y69.901 E56.93296
G1 X129.837 Y70.112 E57.15916
G1 X138.982 Y71.632 E57.62167
G1 X147.102 Y74.316 E58.04833
G1 X156.236 Y79.112 E58.56303
G1 X162.873 Y84.111 E58.97757
G1 X169.721 Y91.186 E59.4688
G1 X174.771 Y98.528 E59.91338
G1 X178.847 Y107.006 E60.38269
G1 X181.463 Y116 E60.85
G1 X182.558 Y125.671 E61.33557
G1 X182.223 Y133.97 E61.74995
G1 X180.341 Y143.555 E62.23728
G1 X177.248 Y151.708 E62.67232
G1 X172.09 Y160.646 E63.18716
G1 X166.88 Y167.027 E63.59815
G1 X159.201 Y173.829 E64.10994
G1 X151.809 Y178.508 E64.5464
G1 X143.684 Y181.969 E64.987
G1 X133.742 Y184.42 E65.49786
G1 X124.976 Y185.135 E65.93665
G1 X116.25 Y184.42 E66.37345
G1 X106.256 Y181.947 E66.88709
G1 X98.219 Y178.513 E67.32313
G1 X90.799 Y173.829 E67.7609
G1 X83.12 Y167.027 E68.27269
G1 X77.892 Y160.62 E68.68525
G1 X72.752 Y151.708 E69.19852
G1 X69.65 Y143.524 E69.63517
G1 X67.777 Y133.97 E70.12089
G1 X67.442 Y125.674 E70.53512
G1 X68.537 Y115.999 E71.02089
G1 X71.152 Y107.009 E71.48799
G1 X75.229 Y98.528 E71.95746
G1 X80.279 Y91.186 E72.40204
G1 X87.127 Y84.111 E72.89327
G0 F3600 X87.368 Y84.431
G1 F1800 X94.032 Y79.415 E73.3094
G1 X103.024 Y74.696 E73.81604
G1 X110.904 Y72.072 E74.23039
G1 X120.535 Y70.477 E74.71743
G1 X125.29 Y70.301 E74.95482
G1 X129.771 Y70.507 E75.17862
G1 X138.916 Y72.027 E75.64112
G1 X146.976 Y74.696 E76.06471
G1 X155.995 Y79.432 E76.57293
G1 X162.632 Y84.431 E76.98747
G1 X169.391 Y91.413 E77.47229
G1 X174.441 Y98.755 E77.91686
G1 X178.463 Y107.118 E78.37984
G1 X181.07 Y116.082 E78.84558
G1 X182.158 Y125.655 E79.32626
G1 X181.83 Y133.893 E79.73758
G1 X179.954 Y143.447 E80.22333
G1 X176.874 Y151.566 E80.65656
G1 X171.78 Y160.393 E81.16501
G1 X166.57 Y166.774 E81.57599
G1 X158.987 Y173.491 E82.08139
G1 X151.623 Y178.153 E82.51621
G1 X143.527 Y181.601 E82.95523
G1 X133.709 Y184.021 E83.45971
G1 X124.976 Y184.733 E83.89685
G1 X116.283 Y184.021 E84.332
G1 X106.413 Y181.579 E84.83926
G1 X98.405 Y178.158 E85.27371
G1 X91.013 Y173.491 E85.70985
G1 X83.43 Y166.774 E86.21525
G1 X78.202 Y160.367 E86.62781
G1 X73.126 Y151.566 E87.13468
G1 X70.037 Y143.416 E87.56952
G1 X68.17 Y133.893 E88.05366
G1 X67.842 Y125.658 E88.46484
G1 X68.93 Y116.081 E88.94571
G1 X71.536 Y107.121 E89.41125
G1 X75.559 Y98.755 E89.87438
G1 X80.609 Y91.413 E90.31895
G1 X87.368 Y84.431 E90.80377
G0 F3600 X87.609 Y84.751
G1 F1800 X94.273 Y79.735 E91.21989
G1 X103.15 Y75.076 E91.72006
G1 X111.03 Y72.452 E92.13442
G1 X120.6 Y70.872 E92.61833
G1 X125.272 Y70.701 E92.85157
G1 X129.705 Y70.902 E93.07297
G1 X138.85 Y72.422 E93.53547
G1 X146.85 Y75.076 E93.95598
G1 X155.754 Y79.752 E94.45773
G1 X162.391 Y84.751 E94.87227
G1 X169.061 Y91.64 E95.35067
G1 X174.111 Y98.982 E95.79524
G1 X178.079 Y107.23 E96.25188
G1 X180.677 Y116.164 E96.71606
G1 X181.758 Y125.639 E97.19184
G1 X181.43 Y133.877 E97.60316
G1 X179.569 Y143.334 E98.08402
G1 X176.5 Y151.424 E98.5157
G1 X171.47 Y160.14 E99.01776
G1 X166.26 Y166.521 E99.42874
G1 X158.773 Y173.153 E99.92774
G1 X151.437 Y177.798 E100.36093
G1 X143.37 Y181.233 E100.79836
G1 X133.677 Y183.622 E101.29642
G1 X124.977 Y184.331 E101.7319
G1 X116.316 Y183.622 E102.16545
G1 X106.57 Y181.211 E102.66634
G1 X98.591 Y177.803 E103.0992
G1 X91.227 Y173.153 E103.53371
G1 X83.74 Y166.521 E104.0327
G1 X78.512 Y160.114 E104.44526
G1 X73.5 Y151.424 E104.94575
G1 X70.422 Y143.303 E105.37903
G1 X68.57 Y133.877 E105.85829
G1 X68.242 Y125.642 E106.26946
G1 X69.323 Y116.163 E106.74544
G1 X71.92 Y107.233 E107.20941
G1 X75.889 Y98.982 E107.66621
G1 X80.939 Y91.64 E108.11078
G1 X87.609 Y84.751 E108.58917
G0 F3600 X87.85 Y85.071
G1 F1800 X94.514 Y80.055 E109.0053
G1 X103.276 Y75.456 E109.49899
G1 X111.156 Y72.832 E109.91335
G1 X120.665 Y71.267 E110.39414
G1 X125.254 Y71.101 E110.62324
G1 X129.639 Y71.297 E110.84222
G1 X138.784 Y72.817 E111.30473
G1 X146.724 Y75.456 E111.72216
G1 X155.513 Y80.072 E112.21745
G1 X162.15 Y85.071 E112.63198
G1 X168.749 Y91.893 E113.10551
G1 X173.781 Y99.209 E113.54851
G1 X177.705 Y107.375 E114.00051
G1 X180.284 Y116.245 E114.46136
G1 X181.358 Y125.623 E114.93229
G1 X181.03 Y133.861 E115.34361
G1 X179.184 Y143.221 E115.81958
G1 X176.126 Y151.282 E116.24971
G1 X171.16 Y159.887 E116.74538
G1 X165.95 Y166.268 E117.15636
G1 X158.559 Y172.815 E117.64896
G1 X151.251 Y177.443 E118.08052
G1 X143.213 Y180.865 E118.51637
G1 X133.645 Y183.223 E119.008
G1 X124.978 Y183.929 E119.44183
G1 X116.349 Y183.223 E119.87377
G1 X106.727 Y180.843 E120.36828
G1 X98.777 Y177.448 E120.79956
G1 X91.441 Y172.815 E121.23243
G1 X84.05 Y166.268 E121.72503
G1 X78.822 Y159.861 E122.13759
G1 X73.874 Y151.282 E122.63168
G1 X70.807 Y143.19 E123.06342
G1 X68.97 Y133.861 E123.53778
G1 X68.642 Y125.626 E123.94896
G1 X69.716 Y116.245 E124.42003
G1 X72.294 Y107.378 E124.88073
G1 X76.219 Y99.209 E125.33288
G1 X81.251 Y91.893 E125.77588
G1 X87.85 Y85.071 E126.24941
G0 F3600 X88.091 Y85.391
G1 F1800 X94.755 Y80.375 E126.66553
G1 X103.402 Y75.836 E127.15276
G1 X111.282 Y73.212 E127.56711
G1 X120.68 Y71.667 E128.04228
G1 X125.236 Y71.501 E128.26973
G1 X129.573 Y71.692 E128.48631
G1 X138.718 Y73.212 E128.94882
G1 X146.598 Y75.836 E129.36317
G1 X155.272 Y80.392 E129.85198
G1 X161.909 Y85.391 E130.26652
G1 X168.419 Y92.12 E130.73363
G1 X173.451 Y99.436 E131.17663
G1 X177.344 Y107.548 E131.62553
G1 X179.891 Y116.324 E132.08143
G1 X180.958 Y125.607 E132.54761
G1 X180.63 Y133.845 E132.95893
G1 X178.799 Y143.109 E133.43006
G1 X175.752 Y151.14 E133.85859
G1 X170.85 Y159.634 E134.34787
G1 X165.64 Y166.015 E134.75885
G1 X158.345 Y172.477 E135.24506
G1 X151.037 Y177.105 E135.67661
G1 X143.086 Y180.485 E136.10765
G1 X133.613 Y182.824 E136.59445
G1 X124.979 Y183.527 E137.02663
G1 X116.382 Y182.824 E137.45696
G1 X106.884 Y180.475 E137.9451
G1 X98.963 Y177.093 E138.37479
G1 X91.655 Y172.477 E138.80603
G1 X84.36 Y166.015 E139.29223
G1 X79.132 Y159.608 E139.70479
G1 X74.248 Y151.14 E140.19249
G1 X71.192 Y143.077 E140.62268
G1 X69.37 Y133.845 E141.09215
G1 X69.042 Y125.61 E141.50333
G1 X70.109 Y116.324 E141.96965
G1 X72.655 Y107.551 E142.4254
G1 X76.549 Y99.436 E142.87446
G1 X81.581 Y92.12 E143.31746
G1 X88.091 Y85.391 E143.78456
G0 F3600 X88.332 Y85.711
G1 F1800 X94.996 Y80.695 E144.20069
G1 X103.528 Y76.216 E144.68144
G1 X111.408 Y73.592 E145.0958
G1 X120.695 Y72.067 E145.56533
G1 X125.219 Y71.901 E145.79119
G1 X129.508 Y72.087 E146.00537
G1 X138.592 Y73.592 E146.46475
G1 X146.472 Y76.216 E146.87911
G1 X155.031 Y80.712 E147.36144
G1 X161.668 Y85.711 E147.77598
G1 X168.089 Y92.347 E148.23667
G1 X173.121 Y99.663 E148.67967
G1 X176.983 Y107.721 E149.12547
G1 X179.498 Y116.403 E149.57642
G1 X180.558 Y125.591 E150.03785
G1 X180.23 Y133.829 E150.44918
G1 X178.414 Y142.996 E150.91541
G1 X175.378 Y150.998 E151.3424
G1 X170.54 Y159.381 E151.82528
G1 X165.33 Y165.762 E152.23626
G1 X158.131 Y172.139 E152.71607
G1 X150.851 Y176.749 E153.14597
G1 X142.929 Y180.117 E153.57543
G1 X133.581 Y182.425 E154.05581
G1 X124.98 Y183.125 E154.48634
G1 X116.415 Y182.425 E154.91507
G1 X107.041 Y180.107 E155.39683
G1 X99.149 Y176.738 E155.82494
G1 X91.869 Y172.139 E156.25454
G1 X84.67 Y165.762 E156.73435
G1 X79.442 Y159.355 E157.14691
G1 X74.622 Y150.998 E157.62821
G1 X71.577 Y142.965 E158.05681
G1 X69.77 Y133.829 E158.52144
G1 X69.442 Y125.594 E158.93261
G1 X70.502 Y116.403 E159.39419
G1 X73.016 Y107.724 E159.84498
G1 X76.879 Y99.663 E160.29094
G1 X81.911 Y92.347 E160.73394
G1 X88.332 Y85.711 E161.19463
G0 F3600 X88.573 Y86.031
G1 F1800 X95.237 Y81.015 E161.61075
G1 X103.654 Y76.596 E162.08503
G1 X111.534 Y73.972 E162.49939
G1 X120.71 Y72.467 E162.9633
G1 X125.202 Y72.301 E163.18756
G1 X129.443 Y72.482 E163.39934
G1 X138.466 Y73.972 E163.85559
G1 X146.346 Y76.596 E164.26995
G1 X154.79 Y81.032 E164.74582
G1 X161.427 Y86.031 E165.16036
G1 X167.759 Y92.574 E165.61462
G1 X172.791 Y99.89 E166.05762
G1 X176.622 Y107.894 E166.50032
G1 X179.105 Y116.482 E166.94633
G1 X180.158 Y125.575 E167.40301
G1 X179.83 Y133.813 E167.81433
G1 X178.029 Y142.883 E168.27567
G1 X175.004 Y150.856 E168.70111
G1 X170.23 Y159.128 E169.1776
G1 X165.02 Y165.509 E169.58859
G1 X157.917 Y171.801 E170.062
G1 X150.665 Y176.393 E170.49023
G1 X142.772 Y179.749 E170.91813
G1 X133.549 Y182.026 E171.39209
G1 X124.981 Y182.723 E171.82096
G1 X116.448 Y182.026 E172.24809
G1 X107.198 Y179.739 E172.72347
G1 X99.335 Y176.383 E173.14999
G1 X92.083 Y171.801 E173.57796
G1 X84.98 Y165.509 E174.05137
G1 X79.752 Y159.102 E174.46393
G1 X74.996 Y150.856 E174.93885
G1 X71.962 Y142.852 E175.3659
G1 X70.17 Y133.813 E175.82563
G1 X69.842 Y125.578 E176.2368
G1 X70.895 Y116.482 E176.69363
G1 X73.377 Y107.897 E177.13948
G1 X77.209 Y99.89 E177.58234
G1 X82.241 Y92.574 E178.02534
G1 X88.573 Y86.031 E178.4796
G0 F3600 X88.814 Y86.351
G1 F1800 X95.478 Y81.335 E178.89573
G1 X103.78 Y76.976 E179.36354
G1 X111.66 Y74.352 E179.7779
G1 X120.725 Y72.867 E180.23618
G1 X125.185 Y72.701 E180.45884
G1 X129.378 Y72.877 E180.66822
G1 X138.34 Y74.352 E181.12135
G1 X146.22 Y76.976 E181.53571
G1 X154.549 Y81.352 E182.0051
G1 X161.186 Y86.351 E182.41964
G1 X167.429 Y92.801 E182.86748
G1 X172.461 Y100.117 E183.31048
G1 X176.247 Y108.038 E183.74848
G1 X178.712 Y116.561 E184.19112
G1 X179.758 Y125.559 E184.64306
G1 X179.43 Y133.797 E185.05438
G1 X177.644 Y142.77 E185.51082
G1 X174.63 Y150.714 E185.93472
G1 X169.92 Y158.875 E186.40481
G1 X164.71 Y165.256 E186.8158
G1 X157.703 Y171.463 E187.28281
G1 X150.479 Y176.037 E187.70939
G1 X142.615 Y179.381 E188.13572
G1 X133.517 Y181.627 E188.60325
G1 X124.982 Y182.321 E189.03047
G1 X116.481 Y181.627 E189.456
G1 X107.355 Y179.371 E189.925
G1 X99.521 Y176.028 E190.34994
G1 X92.297 Y171.463 E190.77628
G1 X85.29 Y165.256 E191.24329
G1 X80.062 Y158.849 E191.65585
G1 X75.37 Y150.714 E192.12437
G1 X72.347 Y142.739 E192.54987
G1 X70.57 Y133.797 E193.00471
G1 X70.242 Y125.562 E193.41588
G1 X71.288 Y116.561 E193.86797
G1 X73.752 Y108.041 E194.31045
G1 X77.539 Y100.117 E194.74861
G1 X82.571 Y92.801 E195.19161
G1 X88.814 Y86.351 E195.63945
G0 F3600 X89.055 Y86.671
G1 F1800 X95.719 Y81.655 E196.05557
G1 X103.906 Y77.356 E196.51691
G1 X111.786 Y74.732 E196.93127
G1 X120.74 Y73.267 E197.38392
G1 X125.169 Y73.101 E197.60504
G1 X129.313 Y73.272 E197.81196
G1 X138.214 Y74.732 E198.26197
G1 X146.094 Y77.356 E198.67633
G1 X154.308 Y81.672 E199.13926
G1 X160.945 Y86.671 E199.55379
G1 X167.117 Y93.054 E199.99677
G1 X172.131 Y100.344 E200.43819
G1 X175.872 Y108.182 E200.87149
G1 X178.319 Y116.641 E201.31081
G1 X179.358 Y125.543 E201.75795
G1 X179.03 Y133.781 E202.16927
G1 X177.259 Y142.657 E202.62082
G1 X174.256 Y150.572 E203.04317
G1 X169.61 Y158.622 E203.50687
G1 X164.4 Y165.003 E203.91786
G1 X157.489 Y171.125 E204.37847
G1 X150.293 Y175.681 E204.80339
G1 X142.458 Y179.013 E205.22816
G1 X133.485 Y181.228 E205.68926
G1 X124.983 Y181.919 E206.11483
G1 X116.514 Y181.228 E206.53875
G1 X107.512 Y179.003 E207.00138
G1 X99.707 Y175.673 E207.42473
G1 X92.511 Y171.125 E207.84943
G1 X85.6 Y165.003 E208.31005
G1 X80.372 Y158.596 E208.72261
G1 X75.744 Y150.572 E209.18474
G1 X72.732 Y142.626 E209.60869
G1 X70.97 Y133.781 E210.05864
G1 X70.642 Y125.546 E210.46981
G1 X71.681 Y116.641 E210.9171
G1 X74.127 Y108.185 E211.35627
G1 X77.869 Y100.344 E211.78972
G1 X82.883 Y93.054 E212.23114
G1 X89.055 Y86.671 E212.67411
G0 F3600 X89.296 Y86.991
G1 F1800 X95.96 Y81.975 E213.09024
G1 X104.032 Y77.736 E213.54511
G1 X111.912 Y75.112 E213.95946
G1 X120.755 Y73.667 E214.40649
G1 X125.153 Y73.501 E214.62607
G1 X129.248 Y73.667 E214.83054
G1 X138.088 Y75.112 E215.27742
G1 X145.968 Y77.736 E215.69178
G1 X154.067 Y81.992 E216.14823
G1 X160.704 Y86.991 E216.56277
G1 X166.805 Y93.307 E217.00088
G1 X171.801 Y100.571 E217.44072
G1 X175.497 Y108.326 E217.86931
G1 X177.926 Y116.72 E218.30527
G1 X178.958 Y125.527 E218.74766
G1 X178.63 Y133.765 E219.15898
G1 X176.874 Y142.544 E219.60565
G1 X173.882 Y150.43 E220.02645
G1 X169.3 Y158.369 E220.48376
G1 X164.09 Y164.75 E220.89474
G1 X157.275 Y170.787 E221.34896
G1 X150.107 Y175.325 E221.77222
G1 X142.301 Y178.645 E222.19542
G1 X133.453 Y180.829 E222.6501
G1 X124.984 Y181.517 E223.07401
G1 X116.547 Y180.829 E223.49633
G1 X107.669 Y178.635 E223.95258
G1 X99.893 Y175.318 E224.37435
G1 X92.725 Y170.787 E224.79742
G1 X85.91 Y164.75 E225.25163
G1 X80.682 Y158.343 E225.66419
G1 X76.118 Y150.43 E226.11993
G1 X73.117 Y142.513 E226.54234
G1 X71.37 Y133.765 E226.9874
G1 X71.042 Y125.53 E227.39857
G1 X72.074 Y116.72 E227.8411
G1 X74.502 Y108.329 E228.27691
G1 X78.199 Y100.571 E228.70566
G1 X83.195 Y93.307 E229.1455
G1 X89.296 Y86.991 E229.58361
G0 F3600 X89.537 Y87.311
G1 F1800 X96.201 Y82.295 E229.99973
G1 X104.158 Y78.116 E230.44813
G1 X112.038 Y75.492 E230.86249
G1 X120.77 Y74.067 E231.30389
G1 X125.137 Y73.901 E231.52192
G1 X129.232 Y74.067 E231.72639
G1 X137.962 Y75.492 E232.16769
G1 X145.842 Y78.116 E232.58205
G1 X153.826 Y82.312 E233.03203
G1 X160.463 Y87.311 E233.44657
G1 X166.493 Y93.56 E233.87982
G1 X171.471 Y100.798 E234.31808
G1 X175.122 Y108.469 E234.74192
G1 X177.533 Y116.799 E235.17457
G1 X178.558 Y125.511 E235.61221
G1 X178.23 Y133.749 E236.02353
G1 X176.489 Y142.432 E236.46535
G1 X173.508 Y150.288 E236.88455
G1 X168.99 Y158.116 E237.33547
G1 X163.78 Y164.497 E237.74646
G1 X157.061 Y170.449 E238.19428
G1 X149.921 Y174.969 E238.61588
G1 X142.144 Y178.277 E239.03751
G1 X133.421 Y180.43 E239.48577
G1 X124.984 Y181.115 E239.90807
G1 X116.579 Y180.43 E240.32879
G1 X107.826 Y178.267 E240.77862
G1 X100.079 Y174.963 E241.1988
G1 X92.939 Y170.449 E241.62023
G1 X86.22 Y164.497 E242.06806
G1 X80.992 Y158.09 E242.48061
G1 X76.492 Y150.288 E242.92996
G1 X73.502 Y142.401 E243.35077
G1 X71.77 Y133.749 E243.79099
G1 X71.442 Y125.514 E244.20216
G1 X72.467 Y116.799 E244.63995
G1 X74.877 Y108.472 E245.07243
G1 X78.529 Y100.798 E245.49643
G1 X83.507 Y93.56 E245.9347
G1 X89.537 Y87.311 E246.36794
G0 F3600 X89.778 Y87.631
G1 F1800 X96.442 Y82.615 E246.78407
G1 X104.284 Y78.496 E247.22599
G1 X112.164 Y75.872 E247.64035
G1 X120.785 Y74.467 E248.07613
G1 X125.121 Y74.301 E248.29261
G1 X129.216 Y74.467 E248.49708
G1 X137.836 Y75.872 E248.93281
G1 X145.716 Y78.496 E249.34717
G1 X153.585 Y82.632 E249.79068
G1 X160.222 Y87.631 E250.20522
G1 X166.181 Y93.813 E250.63359
G1 X171.141 Y101.025 E251.07028
G1 X174.747 Y108.612 E251.48938
G1 X177.14 Y116.878 E251.9187
G1 X178.158 Y125.495 E252.3516
G1 X177.83 Y133.733 E252.76292
G1 X176.104 Y142.32 E253.19989
G1 X173.134 Y150.146 E253.6175
G1 X168.68 Y157.863 E254.06203
G1 X163.47 Y164.244 E254.47302
G1 X156.847 Y170.111 E254.91444
G1 X149.735 Y174.613 E255.33438
G1 X141.987 Y177.909 E255.75445
G1 X133.389 Y180.031 E256.19627
G1 X124.984 Y180.713 E256.61698
G1 X116.611 Y180.031 E257.03609
G1 X107.983 Y177.899 E257.47949
G1 X100.265 Y174.608 E257.89809
G1 X93.153 Y170.111 E258.31789
G1 X86.53 Y164.244 E258.75932
G1 X81.302 Y157.837 E259.17187
G1 X76.866 Y150.146 E259.61483
G1 X73.887 Y142.289 E260.03405
G1 X72.17 Y133.733 E260.46942
G1 X71.842 Y125.498 E260.88059
G1 X72.86 Y116.878 E261.31363
G1 X75.252 Y108.615 E261.7428
G1 X78.859 Y101.025 E262.16205
G1 X83.819 Y93.813 E262.59874
G1 X89.778 Y87.631 E263.02712
G0 F3600 X90.019 Y87.951
G1 F1800 X96.683 Y82.935 E263.44324
G1 X104.41 Y78.876 E263.87869
G1 X112.29 Y76.252 E264.29305
G1 X120.8 Y74.867 E264.7232
G1 X125.105 Y74.701 E264.93814
G1 X129.2 Y74.867 E265.14261
G1 X137.71 Y76.252 E265.57276
G1 X145.59 Y78.876 E265.98712
G1 X153.344 Y82.952 E266.42416
G1 X159.981 Y87.951 E266.8387
G1 X165.87 Y94.066 E267.26225
G1 X170.78 Y101.197 E267.69419
G1 X174.372 Y108.755 E268.11168
G1 X176.747 Y116.957 E268.53769
G1 X177.758 Y125.479 E268.96584
G1 X177.43 Y133.717 E269.37716
G1 X175.719 Y142.208 E269.80929
G1 X172.76 Y150.004 E270.22531
G1 X168.37 Y157.61 E270.66344
G1 X163.16 Y163.991 E271.07443
G1 X156.633 Y169.773 E271.50945
G1 X149.549 Y174.257 E271.92773
G1 X141.83 Y177.541 E272.34623
G1 X133.357 Y179.632 E272.78164
G1 X124.984 Y180.311 E273.20074
G1 X116.643 Y179.632 E273.61825
G1 X108.14 Y177.531 E274.05522
G1 X100.451 Y174.253 E274.47223
G1 X93.367 Y169.773 E274.8904
G1 X86.84 Y163.991 E275.32543
G1 X81.612 Y157.584 E275.73799
G1 X77.24 Y150.004 E276.17455
G1 X74.272 Y142.177 E276.59217
G1 X72.57 Y133.717 E277.0227
G1 X72.242 Y125.482 E277.43387
G1 X73.253 Y116.957 E277.86217
G1 X75.627 Y108.758 E278.28802
G1 X79.22 Y101.197 E278.70566
G1 X84.13 Y94.066 E279.13761
G1 X90.019 Y87.951 E279.56116
G0 F3600 X90.26 Y88.271
G1 F1800 X96.924 Y83.255 E279.97728
G1 X104.536 Y79.256 E280.40626
G1 X112.416 Y76.632 E280.82062
G1 X120.816 Y75.267 E281.2452
G1 X125.089 Y75.101 E281.45854
G1 X129.184 Y75.267 E281.66301
G1 X137.584 Y76.632 E282.08758
G1 X145.464 Y79.256 E282.50194
G1 X153.103 Y83.272 E282.93251
G1 X159.74 Y88.271 E283.34705
G1 X165.559 Y94.319 E283.76576
G1 X170.419 Y101.369 E284.19297
G1 X173.997 Y108.898 E284.60885
G1 X176.354 Y117.036 E285.03154
G1 X177.358 Y125.463 E285.45494
G1 X177.03 Y133.701 E285.86626
G1 X175.334 Y142.096 E286.29355
G1 X172.386 Y149.862 E286.70797
G1 X168.06 Y157.357 E287.13972
G1 X162.85 Y163.738 E287.5507
G1 X156.419 Y169.435 E287.97933
G1 X149.363 Y173.901 E288.39594
G1 X141.673 Y177.173 E288.81288
G1 X133.325 Y179.233 E289.24186
G1 X124.984 Y179.909 E289.65936
G1 X116.675 Y179.233 E290.07527
G1 X108.297 Y177.163 E290.50582
G1 X100.637 Y173.898 E290.92124
G1 X93.581 Y169.435 E291.33778
G1 X87.15 Y163.738 E291.76641
G1 X81.922 Y157.331 E292.17896
G1 X77.614 Y149.862 E292.60913
G1 X74.657 Y142.065 E293.02516
G1 X72.97 Y133.701 E293.45085
G1 X72.642 Y125.466 E293.86202
G1 X73.646 Y117.036 E294.28557
G1 X76.002 Y108.901 E294.7081
G1 X79.581 Y101.369 E295.12414
G1 X84.441 Y94.319 E295.55134
G1 X90.26 Y88.271 E295.97006
G0 F3600 X90.501 Y88.591
G1 F1800 X97.165 Y83.575 E296.38618
G1 X104.662 Y79.636 E296.8087
G1 X112.542 Y77.012 E297.22305
G1 X120.832 Y75.667 E297.64205
G1 X125.073 Y75.501 E297.8538
G1 X129.168 Y75.667 E298.05827
G1 X137.458 Y77.012 E298.47726
G1 X145.338 Y79.636 E298.89162
G1 X152.862 Y83.592 E299.31572
G1 X159.499 Y88.591 E299.73026
G1 X165.248 Y94.572 E300.14415
G1 X170.058 Y101.541 E300.56661
G1 X173.622 Y109.041 E300.98088
G1 X175.961 Y117.115 E301.40026
G1 X176.958 Y125.447 E301.81891
G1 X176.63 Y133.685 E302.23023
G1 X174.949 Y141.984 E302.65268
G1 X172.012 Y149.72 E303.0655
G1 X167.75 Y157.104 E303.49086
G1 X162.54 Y163.485 E303.90184
G1 X156.205 Y169.097 E304.32407
G1 X149.177 Y173.545 E304.73903
G1 X141.516 Y176.805 E305.1544
G1 X133.293 Y178.834 E305.57695
G1 X124.984 Y179.507 E305.99285
G1 X116.707 Y178.834 E306.40715
G1 X108.454 Y176.795 E306.83128
G1 X100.823 Y173.543 E307.24512
G1 X93.795 Y169.097 E307.66001
G1 X87.46 Y163.485 E308.08225
G1 X82.232 Y157.078 E308.49481
G1 X77.988 Y149.72 E308.91858
G1 X75.042 Y141.953 E309.33302
G1 X73.37 Y133.685 E309.75386
G1 X73.042 Y125.45 E310.16503
G1 X74.039 Y117.115 E310.58383
G1 X76.377 Y109.044 E311.00305
G1 X79.942 Y101.541 E311.41748
G1 X84.752 Y94.572 E311.83994
G1 X90.501 Y88.591 E312.25383
G0 F3600 X90.742 Y88.911
G1 F1800 X97.406 Y83.895 E312.66995
G1 X104.788 Y80.016 E313.08599
G1 X112.668 Y77.392 E313.50035
G1 X120.848 Y76.067 E313.91377
G1 X125.057 Y75.901 E314.12392
G1 X129.152 Y76.067 E314.32839
G1 X137.332 Y77.392 E314.74181
G1 X145.212 Y80.016 E315.15617
G1 X152.621 Y83.912 E315.5738
G1 X159.258 Y88.911 E315.98834
G1 X164.959 Y94.849 E316.39902
G1 X169.697 Y101.713 E316.81513
G1 X173.247 Y109.184 E317.22779
G1 X175.568 Y117.194 E317.64385
G1 X176.558 Y125.431 E318.05776
G1 X176.23 Y133.669 E318.46908
G1 X174.563 Y141.873 E318.88674
G1 X171.638 Y149.578 E319.29791
G1 X167.44 Y156.851 E319.71687
G1 X162.23 Y163.232 E320.12786
G1 X155.991 Y168.759 E320.54369
G1 X148.991 Y173.189 E320.95698
G1 X141.359 Y176.437 E321.37079
G1 X133.261 Y178.435 E321.78692
G1 X124.984 Y179.105 E322.20121
G1 X116.739 Y178.435 E322.61391
G1 X108.611 Y176.427 E323.03161
G1 X101.009 Y173.188 E323.44387
G1 X94.009 Y168.759 E323.85713
G1 X87.77 Y163.232 E324.27297
G1 X82.542 Y156.825 E324.68552
G1 X78.362 Y149.578 E325.10291
G1 X75.428 Y141.842 E325.51569
G1 X73.77 Y133.669 E325.93174
G1 X73.442 Y125.434 E326.34292
G1 X74.432 Y117.194 E326.75697
G1 X76.752 Y109.187 E327.17287
G1 X80.303 Y101.713 E327.58569
G1 X85.041 Y94.849 E328.0018
G1 X90.742 Y88.911 E328.41248
G0 F3600 X91.031 Y89.188
G1 F1800 X97.646 Y84.215 E328.82537
G1 X104.946 Y80.385 E329.23665
G1 X112.732 Y77.787 E329.64615
G1 X120.864 Y76.467 E330.05716
G1 X125.041 Y76.301 E330.26572
G1 X129.136 Y76.467 E330.47019
G1 X137.268 Y77.787 E330.8812
G1 X145.054 Y80.385 E331.2907
G1 X152.381 Y84.232 E331.70357
G1 X158.969 Y89.188 E332.11487
G1 X164.67 Y95.126 E332.52555
G1 X169.336 Y101.885 E332.9353
G1 X172.872 Y109.327 E333.34637
G1 X175.175 Y117.273 E333.75911
G1 X176.158 Y125.415 E334.16826
G1 X175.83 Y133.653 E334.57958
G1 X174.177 Y141.762 E334.99246
G1 X171.264 Y149.436 E335.40198
G1 X167.13 Y156.598 E335.81454
G1 X161.92 Y162.979 E336.22553
G1 X155.777 Y168.421 E336.63497
G1 X148.805 Y172.833 E337.0466
G1 X141.202 Y176.069 E337.45884
G1 X133.229 Y178.036 E337.86854
G1 X124.984 Y178.703 E338.28123
G1 X116.771 Y178.036 E338.69233
G1 X108.768 Y176.059 E339.1036
G1 X101.195 Y172.833 E339.51427
G1 X94.223 Y168.421 E339.9259
G1 X88.08 Y162.979 E340.33534
G1 X82.852 Y156.572 E340.7479
G1 X78.736 Y149.436 E341.15889
G1 X75.814 Y141.731 E341.57001
G1 X74.17 Y133.653 E341.98129
G1 X73.842 Y125.418 E342.39246
G1 X74.825 Y117.273 E342.80176
G1 X77.127 Y109.33 E343.21435
G1 X80.664 Y101.885 E343.62557
G1 X85.33 Y95.126 E344.03532
G1 X91.031 Y89.188 E344.446
G1 F1500 E337.946
G0 F3600 X107.872 Y109.231
G1 F1500 E344.446
G1 F1800 X112.926 Y105.561 E344.75761
G1 X118.774 Y103.241 E345.07149
G1 X125 Y102.462 E345.38453
G1 X131.226 Y103.241 E345.69757
G1 X137.074 Y105.561 E346.01145
G1 X142.128 Y109.231 E346.32306
G1 X146.145 Y114.09 E346.63759
G1 X148.815 Y119.757 E346.95013
G1 X149.986 Y125.914 E347.26281
G1 X149.597 Y132.184 E347.57622
G1 X147.648 Y138.175 E347.89053
G1 X144.296 Y143.459 E348.20272
G1 X139.715 Y147.764 E348.51635
G1 X134.24 Y150.768 E348.82791
G1 X128.243 Y152.306 E349.13679
G1 X124.65 Y152.485 E349.31626
G1 X121.742 Y152.306 E349.46162
G1 X115.747 Y150.766 E349.77042
G1 X110.288 Y147.767 E350.08116
G1 X105.71 Y143.465 E350.39458
G1 X102.352 Y138.175 E350.70718
G1 X100.403 Y132.184 E351.02149
G1 X100.014 Y125.914 E351.33491
G1 X101.185 Y119.757 E351.64759
G1 X103.855 Y114.09 E351.96012
G1 X107.872 Y109.231 E352.27465
G0 F3600 X108.147 Y109.526
G1 F1800 X113.121 Y105.914 E352.58134
G1 X118.874 Y103.632 E352.89011
G1 X125 Y102.865 E353.19812
G1 X131.126 Y103.632 E353.50614
G1 X136.879 Y105.914 E353.81491
G1 X141.853 Y109.526 E354.12159
G1 X145.803 Y114.304 E354.43088
G1 X148.432 Y119.883 E354.73857
G1 X149.584 Y125.941 E355.04622
G1 X149.201 Y132.109 E355.35454
G1 X147.284 Y138.002 E355.66371
G1 X143.984 Y143.203 E355.97101
G1 X139.479 Y147.437 E356.27945
G1 X134.09 Y150.394 E356.58612
G1 X128.183 Y151.909 E356.89036
G1 X124.675 Y152.086 E357.0656
G1 X121.804 Y151.909 E357.20911
G1 X115.899 Y150.392 E357.51327
G1 X110.525 Y147.44 E357.81917
G1 X106.02 Y143.207 E358.12758
G1 X102.716 Y138.002 E358.43515
G1 X100.799 Y132.109 E358.74432
G1 X100.416 Y125.941 E359.05264
G1 X101.568 Y119.883 E359.36029
G1 X104.197 Y114.304 E359.66798
G1 X108.147 Y109.526 E359.97727
G0 F3600 X108.422 Y109.821
G1 F1800 X113.316 Y106.267 E360.27902
G1 X118.974 Y104.023 E360.58269
G1 X125 Y103.268 E360.88568
G1 X131.026 Y104.023 E361.18867
G1 X136.684 Y106.267 E361.49234
G1 X141.578 Y109.821 E361.79409
G1 X145.461 Y114.518 E362.09813
G1 X148.049 Y120.009 E362.40098
G1 X149.182 Y125.968 E362.7036
G1 X148.805 Y132.034 E363.00682
G1 X146.92 Y137.829 E363.31084
G1 X143.672 Y142.947 E363.61326
G1 X139.243 Y147.11 E363.91651
G1 X133.94 Y150.02 E364.21829
G1 X128.123 Y151.512 E364.5179
G1 X124.7 Y151.687 E364.6889
G1 X121.866 Y151.512 E364.83055
G1 X116.051 Y150.018 E365.13009
G1 X110.759 Y147.112 E365.4313
G1 X106.331 Y142.951 E365.73444
G1 X103.08 Y137.829 E366.03711
G1 X101.195 Y132.034 E366.34113
G1 X100.818 Y125.968 E366.64435
G1 X101.951 Y120.009 E366.94697
G1 X104.539 Y114.518 E367.24982
G1 X108.422 Y109.821 E367.55386
G0 F3600 X108.697 Y110.116
G1 F1800 X113.511 Y106.62 E367.85068
G1 X119.074 Y104.414 E368.14925
G1 X125 Y103.671 E368.44721
G1 X130.926 Y104.414 E368.74518
G1 X136.489 Y106.62 E369.04374
G1 X141.303 Y110.116 E369.34056
G1 X145.121 Y114.734 E369.6395
G1 X147.665 Y120.133 E369.93726
G1 X148.78 Y125.995 E370.23496
G1 X148.409 Y131.959 E370.53308
G1 X146.556 Y137.656 E370.83196
G1 X143.36 Y142.691 E371.12949
G1 X139.007 Y146.783 E371.42756
G1 X133.79 Y149.646 E371.72445
G1 X128.063 Y151.115 E372.01942
G1 X124.725 Y151.288 E372.18618
G1 X121.927 Y151.115 E372.32604
G1 X116.203 Y149.645 E372.62088
G1 X110.996 Y146.785 E372.91726
G1 X106.641 Y142.693 E373.2154
G1 X103.444 Y137.656 E373.51304
G1 X101.591 Y131.959 E373.81192
G1 X101.22 Y125.995 E374.11004
G1 X102.335 Y120.133 E374.40774
G1 X104.879 Y114.734 E374.7055
G1 X108.697 Y110.116 E375.00444
G0 F3600 X108.972 Y110.411
G1 F1800 X113.706 Y106.973 E375.29633
G1 X119.174 Y104.805 E375.58979
G1 X125 Y104.074 E375.88273
G1 X130.826 Y104.805 E376.17567
G1 X136.294 Y106.973 E376.46913
G1 X141.028 Y110.411 E376.76102
G1 X144.779 Y114.948 E377.05471
G1 X147.282 Y120.259 E377.34763
G1 X148.378 Y126.022 E377.6403
G1 X148.013 Y131.884 E377.93333
G1 X146.192 Y137.483 E378.22706
G1 X143.049 Y142.435 E378.51968
G1 X138.771 Y146.456 E378.81259
G1 X133.64 Y149.272 E379.1046
G1 X128.003 Y150.718 E379.39493
G1 X124.75 Y150.889 E379.55745
G1 X121.989 Y150.718 E379.69546
G1 X116.355 Y149.271 E379.98566
G1 X111.23 Y146.457 E380.27736
G1 X106.952 Y142.437 E380.57023
G1 X103.808 Y137.483 E380.86296
G1 X101.987 Y131.884 E381.1567
G1 X101.622 Y126.022 E381.44972
G1 X102.718 Y120.259 E381.74239
G1 X105.221 Y114.948 E382.03531
G1 X108.972 Y110.411 E382.329
G0 F3600 X109.247 Y110.706
G1 F1800 X113.901 Y107.326 E382.61597
G1 X119.274 Y105.196 E382.90432
G1 X125 Y104.477 E383.19224
G1 X130.726 Y105.196 E383.48015
G1 X136.099 Y107.326 E383.76851
G1 X140.753 Y110.706 E384.05547
G1 X144.439 Y115.164 E384.34406
G1 X146.898 Y120.383 E384.63189
G1 X147.976 Y126.049 E384.91964
G1 X147.617 Y131.809 E385.20756
G1 X145.828 Y137.31 E385.49616
G1 X142.738 Y142.179 E385.78386
G1 X138.535 Y146.129 E386.07162
G1 X133.49 Y148.898 E386.35873
G1 X127.943 Y150.321 E386.64444
G1 X124.775 Y150.49 E386.80271
G1 X122.051 Y150.321 E386.93888
G1 X116.507 Y148.897 E387.22445
G1 X111.467 Y146.13 E387.51129
G1 X107.262 Y142.179 E387.79916
G1 X104.172 Y137.31 E388.08686
G1 X102.383 Y131.809 E388.37546
G1 X102.024 Y126.049 E388.66338
G1 X103.102 Y120.383 E388.95113
G1 X105.561 Y115.164 E389.23896
G1 X109.247 Y110.706 E389.52755
G0 F3600 X109.522 Y111.001
G1 F1800 X114.096 Y107.679 E389.80958
G1 X119.374 Y105.587 E390.09283
G1 X125 Y104.88 E390.37572
G1 X130.626 Y105.587 E390.65861
G1 X135.904 Y107.679 E390.94186
G1 X140.478 Y111.001 E391.2239
G1 X144.097 Y115.378 E391.50724
G1 X146.515 Y120.509 E391.79023
G1 X147.574 Y126.076 E392.07295
G1 X147.221 Y131.734 E392.35578
G1 X145.464 Y137.137 E392.63923
G1 X142.427 Y141.923 E392.92202
G1 X138.299 Y145.802 E393.20462
G1 X133.34 Y148.524 E393.48685
G1 X127.883 Y149.924 E393.76792
G1 X124.8 Y150.091 E393.92195
G1 X122.112 Y149.924 E394.05632
G1 X116.659 Y148.524 E394.33719
G1 X111.701 Y145.802 E394.61937
G1 X107.573 Y141.923 E394.90198
G1 X104.536 Y137.137 E395.18477
G1 X102.779 Y131.734 E395.46822
G1 X102.426 Y126.076 E395.75105
G1 X103.485 Y120.509 E396.03377
G1 X105.903 Y115.378 E396.31675
G1 X109.522 Y111.001 E396.6001
G0 F3600 X109.797 Y111.296
G1 F1800 X114.291 Y108.032 E396.8772
G1 X119.474 Y105.978 E397.15535
G1 X125 Y105.283 E397.43321
G1 X130.526 Y105.978 E397.71108
G1 X135.709 Y108.032 E397.98922
G1 X140.203 Y111.296 E398.26633
G1 X143.757 Y115.594 E398.54457
G1 X146.131 Y120.633 E398.82247
G1 X147.172 Y126.103 E399.10027
G1 X146.825 Y131.659 E399.378
G1 X145.1 Y136.964 E399.6563
G1 X142.117 Y141.665 E399.93407
G1 X138.061 Y145.476 E400.21173
G1 X133.19 Y148.15 E400.48896
G1 X127.823 Y149.527 E400.76539
G1 X124.825 Y149.692 E400.91519
G1 X122.173 Y149.527 E401.04775
G1 X116.81 Y148.15 E401.32399
G1 X111.939 Y145.476 E401.60122
G1 X107.883 Y141.665 E401.87888
G1 X104.9 Y136.964 E402.15665
G1 X103.175 Y131.659 E402.43496
G1 X102.828 Y126.103 E402.71269
G1 X103.869 Y120.633 E402.99049
G1 X106.243 Y115.594 E403.26838
G1 X109.797 Y111.296 E403.54663
G0 F3600 X110.072 Y111.591
G1 F1800 X114.486 Y108.385 E403.8188
G1 X119.574 Y106.369 E404.09184
G1 X125 Y105.686 E404.36468
G1 X130.426 Y106.369 E404.63752
G1 X135.514 Y108.385 E404.91056
G1 X139.928 Y111.591 E405.18274
G1 X143.417 Y115.81 E405.45587
G1 X145.747 Y120.757 E405.72868
G1 X146.77 Y126.13 E406.00156
G1 X146.429 Y131.584 E406.27419
G1 X144.736 Y136.791 E406.54736
G1 X141.807 Y141.407 E406.8201
G1 X137.824 Y145.149 E407.09275
G1 X133.038 Y147.777 E407.36516
G1 X127.763 Y149.13 E407.63685
G1 X124.85 Y149.293 E407.7824
G1 X122.234 Y149.13 E407.91317
G1 X116.962 Y147.777 E408.18471
G1 X112.176 Y145.149 E408.45712
G1 X108.193 Y141.407 E408.72977
G1 X105.264 Y136.791 E409.00251
G1 X103.571 Y131.584 E409.27568
G1 X103.23 Y126.13 E409.54831
G1 X104.253 Y120.757 E409.82118
G1 X106.583 Y115.81 E410.094
G1 X110.072 Y111.591 E410.36713
G0 F3600 X110.347 Y111.886
G1 F1800 X114.681 Y108.738 E410.63438
G1 X119.674 Y106.76 E410.90231
G1 X125 Y106.089 E411.17013
G1 X130.326 Y106.76 E411.43794
G1 X135.319 Y108.738 E411.70588
G1 X139.653 Y111.886 E411.97312
G1 X143.077 Y116.026 E412.24116
G1 X145.363 Y120.881 E412.50888
G1 X146.368 Y126.157 E412.77684
G1 X146.033 Y131.509 E413.04437
G1 X144.372 Y136.618 E413.31239
G1 X141.497 Y141.149 E413.58011
G1 X137.587 Y144.822 E413.84775
G1 X132.886 Y147.404 E414.11533
G1 X127.703 Y148.733 E414.38228
G1 X124.875 Y148.894 E414.5236
G1 X122.295 Y148.733 E414.65256
G1 X117.114 Y147.404 E414.91941
G1 X112.413 Y144.822 E415.187
G1 X108.503 Y141.149 E415.45464
G1 X105.628 Y136.618 E415.72236
G1 X103.967 Y131.509 E415.99038
G1 X103.632 Y126.157 E416.25791
G1 X104.637 Y120.881 E416.52587
G1 X106.923 Y116.026 E416.79359
G1 X110.347 Y111.886 E417.06162
G0 F3600 X110.622 Y112.181
G1 F1800 X114.876 Y109.091 E417.32394
G1 X119.774 Y107.151 E417.58677
G1 X125 Y106.492 E417.84956
G1 X130.226 Y107.151 E418.11235
G1 X135.124 Y109.091 E418.37518
G1 X139.378 Y112.181 E418.6375
G1 X142.737 Y116.242 E418.90043
G1 X144.979 Y121.005 E419.16306
G1 X145.966 Y126.184 E419.42609
G1 X145.637 Y131.434 E419.68853
G1 X144.008 Y136.445 E419.95141
G1 X141.187 Y140.891 E420.2141
G1 X137.35 Y144.495 E420.47673
G1 X132.734 Y147.031 E420.73949
G1 X127.642 Y148.336 E421.00174
G1 X124.9 Y148.495 E421.13877
G1 X122.356 Y148.336 E421.26594
G1 X117.266 Y147.031 E421.5281
G1 X112.65 Y144.495 E421.79086
G1 X108.813 Y140.891 E422.05349
G1 X105.992 Y136.445 E422.31618
G1 X104.363 Y131.434 E422.57906
G1 X104.034 Y126.184 E422.84149
G1 X105.021 Y121.005 E423.10453
G1 X107.263 Y116.242 E423.36716
G1 X110.622 Y112.181 E423.63009
G0 F3600 X110.897 Y112.476
G1 F1800 X115.071 Y109.444 E423.88748
G1 X119.874 Y107.542 E424.1452
G1 X125 Y106.895 E424.40297
G1 X130.126 Y107.542 E424.66074
G1 X134.929 Y109.444 E424.91846
G1 X139.103 Y112.476 E425.17585
G1 X142.397 Y116.458 E425.43367
G1 X144.595 Y121.129 E425.69122
G1 X145.564 Y126.211 E425.94933
G1 X145.241 Y131.359 E426.20667
G1 X143.644 Y136.272 E426.46441
G1 X140.877 Y140.633 E426.72208
G1 X137.113 Y144.168 E426.97969
G1 X132.582 Y146.658 E427.23763
G1 X127.582 Y147.939 E427.49514
G1 X124.925 Y148.096 E427.62793
G1 X122.417 Y147.939 E427.7533
G1 X117.418 Y146.658 E428.01076
G1 X112.887 Y144.168 E428.2687
G1 X109.123 Y140.633 E428.52631
G1 X106.356 Y136.272 E428.78399
G1 X104.759 Y131.359 E429.04172
G1 X104.436 Y126.211 E429.29906
G1 X105.405 Y121.129 E429.55717
G1 X107.603 Y116.458 E429.81472
G1 X110.897 Y112.476 E430.07254
G0 F3600 X111.172 Y112.771
G1 F1800 X115.266 Y109.797 E430.325
G1 X119.974 Y107.933 E430.57762
G1 X125 Y107.298 E430.83036
G1 X130.026 Y107.933 E431.0831
G1 X134.734 Y109.797 E431.33573
G1 X138.828 Y112.771 E431.58818
G1 X142.057 Y116.674 E431.8409
G1 X144.211 Y121.253 E432.09336
G1 X145.162 Y126.238 E432.34655
G1 X144.845 Y131.284 E432.59879
G1 X143.28 Y136.099 E432.85138
G1 X140.567 Y140.375 E433.10403
G1 X136.876 Y143.841 E433.35664
G1 X132.43 Y146.285 E433.60975
G1 X127.521 Y147.542 E433.86257
G1 X124.95 Y147.697 E433.99107
G1 X122.478 Y147.542 E434.11464
G1 X117.57 Y146.285 E434.3674
G1 X113.124 Y143.841 E434.62052
G1 X109.433 Y140.375 E434.87313
G1 X106.72 Y136.099 E435.12577
G1 X105.155 Y131.284 E435.37836
G1 X104.838 Y126.238 E435.63061
G1 X105.789 Y121.253 E435.88379
G1 X107.943 Y116.674 E436.13625
G1 X111.172 Y112.771 E436.38898
G1 F1500 E429.88898
G0 F3600 X110.9 Y112.397
G0 X106.68 Y106.444
;TYPE:SUPPORT
G1 F1500 E436.38898
G1 F1800 X106.68 Y79.974 E437.70957
G1 X106.575 Y80.01
G1 X143.429 Y80.01 E439.54822
G0 F3600 X144.018 Y80.208
G1 F1800 X144.018 Y107.008 E440.88528
G0 F3600 X143.618 Y106.68
G1 F1800 X171.439 Y106.68 E442.27328
G1 F1500 E435.77328
G0 F3600 X170.688 Y105.101
G1 F1500 E442.27328
G1 F1800 X170.688 Y150.119 E444.51923
G0 F3600 X171.124 Y149.352
G1 F1800 X142.345 Y149.352 E445.95502
G1 F1500 E439.45502
G0 F3600 X141.351 Y150.167
G1 F1500 E445.95502
G1 F1800 X141.351 Y175.836 E447.23565
G0 F3600 X140.726 Y176.022
G1 F1800 X109.272 Y176.022 E448.8049
G1 X109.347 Y176.04
G1 X109.347 Y150.618 E450.07321
G1 F1500 E443.57321
G0 F3600 X107.657 Y149.352
G1 F1500 E450.07321
G1 F1800 X78.874 Y149.352 E451.5092
G1 F1500 E445.0092
G0 F3600 X80.01 Y151.327
G1 F1500 E451.5092
G1 F1800 X80.01 Y103.629 E453.88886
G0 F3600 X79.829 Y104.013
G1 F1800 X110.026 Y104.013 E455.3954
G0 F3600 X109.347 Y104.507
G1 F1800 X109.347 Y79.084 E456.66376
G1 F1500 E450.16376
G0 F3600 X112.014 Y78.194
G1 F1500 E456.66376
G1 F1800 X112.014 Y102.756 E457.88916
G1 F1500 E451.38916
G0 F3600 X114.681 Y101.684
G1 F1500 E457.88916
G1 F1800 X114.681 Y77.629 E459.08927
G1 F1500 E452.58927
G0 F3600 X116.448 Y77.343
G1 F1500 E459.08927
G1 F1800 X133.556 Y77.343 E459.94279
G0 F3600 X133.35 Y77.311
G1 F1800 X133.35 Y100.904 E461.11985
G1 F1500 E454.61985
G0 F3600 X134.468 Y101.346
G1 F1500 E461.11985
G1 F1800 X168.77 Y101.346 E462.83118
G1 F1500 E456.33118
G0 F3600 X168.021 Y100.263
G1 F1500 E462.83118
G1 F1800 X168.021 Y154.739 E465.549
G1 X168.051 Y154.686
G1 X130.907 Y154.686 E467.40212
G0 F3600 X130.683 Y154.743
G1 F1800 X130.683 Y178.085 E468.56666
G1 F1500 E462.06666
G0 F3600 X128.016 Y178.301
G1 F1500 E468.56666
G1 F1800 X128.016 Y155.284 E469.71498
G1 F1500 E463.21498
G0 F3600 X125.349 Y155.442
G1 F1500 E469.71498
G1 F1800 X125.349 Y178.516 E470.86615
G1 F1500 E464.36615
G0 F3600 X122.682 Y178.356
G1 F1500 E470.86615
G1 F1800 X122.682 Y155.33 E472.01492
G1 F1500 E465.51492
G0 F3600 X120.015 Y154.924
G1 F1500 E472.01492
G1 F1800 X120.015 Y178.14 E473.17317
G1 F1500 E466.67317
G0 F3600 X117.348 Y177.925
G1 F1500 E473.17317
G1 F1800 X117.348 Y154.239 E474.35487
G1 F1500 E467.85487
G0 F3600 X119.091 Y154.686
G1 F1500 E474.35487
G1 F1800 X81.947 Y154.686 E476.20799
G1 F1500 E469.70799
G0 F3600 X82.677 Y155.947
G1 F1500 E476.20799
G1 F1800 X82.677 Y99.252 E479.03652
G0 F3600 X83.073 Y98.679
G1 F1800 X166.928 Y98.679 E483.22006
G1 F1500 E476.72006
G0 F3600 X165.354 Y96.402
G1 F1500 E483.22006
G1 F1800 X165.354 Y158.522 E486.31924
G1 F1500 E479.81924
G0 F3600 X166.307 Y157.353
G1 F1500 E486.31924
G1 F1800 X83.691 Y157.353 E490.44097
G1 F1500 E483.94097
G0 F3600 X85.344 Y159.376
G1 F1500 E490.44097
G1 F1800 X85.344 Y95.39 E493.63324
G0 F3600 X84.915 Y96.012
G1 F1800 X165.086 Y96.012 E497.63299
G1 F1500 E491.13299
G0 F3600 X162.741 Y93.345
G1 F1500 E497.63299
G1 F1800 X87.261 Y93.345 E501.3987
G1 F1500 E494.8987
G0 F3600 X88.011 Y92.563
G1 F1500 E501.3987
G1 F1800 X88.011 Y162.644 E504.89506
G1 X88.044 Y162.687
G1 X161.954 Y162.687 E508.58244
G1 F1500 E502.08244
G0 F3600 X162.687 Y161.79
G1 F1500 E508.58244
G1 F1800 X162.687 Y93.291 E511.99987
G1 F1500 E505.49987
G0 F3600 X160.18 Y90.678
G1 F1500 E511.99987
G1 F1800 X89.822 Y90.678 E515.51005
G1 F1500 E509.01005
G0 F3600 X90.678 Y89.786
G1 F1500 E515.51005
G1 F1800 X90.678 Y165.066 E519.26578
G0 F3600 X91.001 Y165.354
G1 F1800 X158.997 Y165.354 E522.65812
G1 F1500 E516.15812
G0 F3600 X160.02 Y164.449
G1 F1500 E522.65812
G1 F1800 X160.02 Y90.514 E526.34675
G1 F1500 E519.84675
G0 F3600 X157.353 Y88.171
G1 F1500 E526.34675
G1 F1800 X157.353 Y166.811 E530.27011
G1 F1500 E523.77011
G0 F3600 X155.986 Y168.021
G1 F1500 E530.27011
G1 F1800 X94.012 Y168.021 E533.36201
G0 F3600 X93.345 Y167.428
G1 F1800 X93.345 Y87.645 E537.3424
G0 F3600 X92.859 Y88.011
G1 F1800 X157.143 Y88.011 E540.54954
G1 F1500 E534.04954
G0 F3600 X154.686 Y86.166
G1 F1500 E540.54954
G1 F1800 X154.686 Y168.925 E544.6784
G1 F1500 E538.1784
G0 F3600 X152.019 Y170.612
G1 F1500 E544.6784
G1 F1800 X152.019 Y134.317 E546.48917
G1 F1500 E539.98917
G0 F3600 X152.326 Y133.35
G1 F1500 E546.48917
G1 F1800 X175.682 Y133.35 E547.6544
G1 F1500 E541.1544
G0 F3600 X175.788 Y130.683
G1 F1500 E547.6544
G1 F1800 X152.657 Y130.683 E548.80841
G1 F1500 E542.30841
G0 F3600 X152.825 Y128.016
G1 F1500 E548.80841
G1 F1800 X175.895 Y128.016 E549.95938
G1 F1500 E543.45938
G0 F3600 X175.989 Y125.349
G1 F1500 E549.95938
G1 F1800 X152.863 Y125.349 E551.11314
G1 F1500 E544.61314
G0 F3600 X152.385 Y122.682
G1 F1500 E551.11314
G1 F1800 X175.667 Y122.682 E552.27469
G1 F1500 E545.77469
G0 F3600 X175.345 Y120.015
G1 F1500 E552.27469
G1 F1800 X151.875 Y120.015 E553.44561
G0 F3600 X152.019 Y120.765
G1 F1800 X152.019 Y84.22 E555.26885
G1 F1500 E548.76885
G0 F3600 X153.595 Y85.344
G1 F1500 E555.26885
G1 F1800 X96.407 Y85.344 E558.12197
G0 F3600 X96.012 Y85.64
G1 F1800 X96.012 Y169.366 E562.29907
G1 F1500 E555.79907
G0 F3600 X98.1 Y170.688
G1 F1500 E562.29907
G1 F1800 X151.898 Y170.688 E564.98307
G1 F1500 E558.48307
G0 F3600 X149.352 Y172.299
G1 F1500 E564.98307
G1 F1800 X149.352 Y141.013 E566.54393
G0 F3600 X149.138 Y141.351
G1 F1800 X174.1 Y141.351 E567.78929
G1 F1500 E561.28929
G0 F3600 X173.355 Y143.479
G1 F1500 E567.78929
G1 F1800 X173.355 Y111.561 E569.38169
G0 F3600 X173.487 Y112.014
G1 F1800 X148.248 Y112.014 E570.64087
G1 F1500 E564.14087
G0 F3600 X149.352 Y113.951
G1 F1500 E570.64087
G1 F1800 X149.352 Y82.82 E572.194
G0 F3600 X149.083 Y82.677
G1 F1800 X100.919 Y82.677 E574.59691
G0 F3600 X101.346 Y82.452
G1 F1800 X101.346 Y112.6 E576.101
G0 F3600 X101.738 Y112.014
G1 F1800 X76.514 Y112.014 E577.35943
G1 F1500 E570.85943
G0 F3600 X75.742 Y114.681
G1 F1500 E577.35943
G1 F1800 X100.304 Y114.681 E578.58483
G1 F1500 E572.08483
G0 F3600 X99.05 Y117.348
G1 F1500 E578.58483
G1 F1800 X74.979 Y117.348 E579.78574
G1 F1500 E573.28574
G0 F3600 X74.676 Y119.849
G1 F1500 E579.78574
G1 F1800 X74.676 Y135.349 E580.55904
G0 F3600 X74.811 Y136.017
G1 F1800 X98.533 Y136.017 E581.74253
G0 F3600 X98.679 Y136.464
G1 F1800 X98.679 Y171.053 E583.46819
G1 F1500 E576.96819
G0 F3600 X101.346 Y172.726
G1 F1500 E583.46819
G1 F1800 X101.346 Y142.114 E584.99543
G0 F3600 X100.861 Y141.351
G1 F1800 X75.898 Y141.351 E586.24083
G1 F1500 E579.74083
G0 F3600 X75.354 Y138.684
G1 F1500 E586.24083
G1 F1800 X99.4 Y138.684 E587.44049
G1 F1500 E580.94049
G0 F3600 X97.687 Y133.35
G1 F1500 E587.44049
G1 F1800 X74.316 Y133.35 E588.60648
G1 F1500 E582.10648
G0 F3600 X74.21 Y130.683
G1 F1500 E588.60648
G1 F1800 X97.342 Y130.683 E589.76054
G1 F1500 E583.26054
G0 F3600 X97.174 Y128.016
G1 F1500 E589.76054
G1 F1800 X74.103 Y128.016 E590.91156
G1 F1500 E584.41156
G0 F3600 X74.011 Y125.349
G1 F1500 E590.91156
G1 F1800 X97.136 Y125.349 E592.06527
G1 F1500 E585.56527
G0 F3600 X97.614 Y122.682
G1 F1500 E592.06527
G1 F1800 X74.333 Y122.682 E593.22676
G1 F1500 E586.72676
G0 F3600 X74.656 Y120.015
G1 F1500 E593.22676
G1 F1800 X98.123 Y120.015 E594.39753
G1 F1500 E587.89753
G0 F3600 X98.679 Y118.138
G1 F1500 E594.39753
G1 F1800 X98.679 Y83.853 E596.10802
G1 F1500 E589.60802
G0 F3600 X104.013 Y81.052
G1 F1500 E596.10802
G1 F1800 X104.013 Y109.252 E597.51492
G1 X103.933 Y109.347
G1 X77.297 Y109.347 E598.8438
G1 X77.343 Y109.248
G1 X77.343 Y145.316 E600.64324
G1 F1500 E594.14324
G0 F3600 X76.849 Y144.018
G1 F1500 E600.64324
G1 F1800 X102.554 Y144.018 E601.92567
G1 F1500 E595.42567
G0 F3600 X104.013 Y145.918
G1 F1500 E601.92567
G1 F1800 X104.013 Y173.861 E603.31975
G1 F1500 E596.81975
G0 F3600 X102.821 Y173.355
G1 F1500 E603.31975
G1 F1800 X147.177 Y173.355 E605.53268
G0 F3600 X146.685 Y173.565
G1 F1800 X146.685 Y145.142 E606.95071
G1 F1500 E600.45071
G0 F3600 X147.445 Y144.018
G1 F1500 E606.95071
G1 F1800 X173.149 Y144.018 E608.23308
G1 F1500 E601.73308
G0 F3600 X172.137 Y146.685
G1 F1500 E608.23308
G1 F1800 X145.184 Y146.685 E609.57777
G1 F1500 E603.07777
G0 F3600 X144.018 Y147.779
G1 F1500 E609.57777
G1 F1800 X144.018 Y174.7 E610.92087
G1 F1500 E604.42087
G0 F3600 X138.684 Y176.526
G1 F1500 E610.92087
G1 F1800 X138.684 Y151.703 E612.15929
G0 F3600 X138.11 Y152.019
G1 F1800 X169.59 Y152.019 E613.72984
G1 F1500 E607.22984
G0 F3600 X164.13 Y160.02
G1 F1500 E613.72984
G1 F1800 X85.868 Y160.02 E617.63434
G1 F1500 E611.13434
G0 F3600 X80.408 Y152.019
G1 F1500 E617.63434
G1 F1800 X111.89 Y152.019 E619.20499
G1 X112.014 Y152.088
G1 X112.014 Y176.697 E620.43274
G1 F1500 E613.93274
G0 F3600 X114.681 Y177.355
G1 F1500 E620.43274
G1 F1800 X114.681 Y153.477 E621.62401
G1 F1500 E615.12401
G0 F3600 X106.68 Y148.435
G1 F1500 E621.62401
G1 F1800 X106.68 Y174.997 E622.9492
G1 F1500 E616.4492
G0 F3600 X133.35 Y177.842
G1 F1500 E622.9492
G1 F1800 X133.35 Y154.058 E624.13579
G1 F1500 E617.63579
G0 F3600 X136.017 Y153.157
G1 F1500 E624.13579
G1 F1800 X136.017 Y177.184 E625.3345
G1 F1500 E618.8345
G0 F3600 X150.589 Y138.684
G1 F1500 E625.3345
G1 F1800 X174.644 Y138.684 E626.53461
G1 F1500 E620.03461
G0 F3600 X175.187 Y136.017
G1 F1500 E626.53461
G1 F1800 X151.467 Y136.017 E627.718
G1 F1500 E621.218
G0 F3600 X150.95 Y117.348
G1 F1500 E627.718
G1 F1800 X175.023 Y117.348 E628.91901
G1 F1500 E622.41901
G0 F3600 X174.26 Y114.681
G1 F1500 E628.91901
G1 F1800 X149.695 Y114.681 E630.14456
G1 F1500 E623.64456
G0 F3600 X146.685 Y110.094
G1 F1500 E630.14456
G1 F1800 X146.685 Y81.419 E631.57516
G1 F1500 E625.07516
G0 F3600 X141.351 Y79.318
G1 F1500 E631.57516
G1 F1800 X141.351 Y105.013 E632.85709
G1 F1500 E626.35709
G0 F3600 X139.975 Y104.013
G1 F1500 E632.85709
G1 F1800 X170.173 Y104.013 E634.36368
G1 F1500 E627.86368
G0 F3600 X172.705 Y109.347
G1 F1500 E634.36368
G1 F1800 X146.067 Y109.347 E635.69265
G1 F1500 E629.19265
G0 F3600 X138.684 Y103.131
G1 F1500 E635.69265
G1 F1800 X138.684 Y78.428 E636.92509
G1 F1500 E630.42509
G0 F3600 X136.017 Y77.744
G1 F1500 E636.92509
G1 F1800 X136.017 Y101.959 E638.13318
G1 F1500 E631.63318
G0 F3600 X130.683 Y100.194
G1 F1500 E638.13318
G1 F1800 X130.683 Y76.879 E639.29637
G1 F1500 E632.79637
G0 F3600 X128.016 Y76.582
G1 F1500 E639.29637
G1 F1800 X128.016 Y99.857 E640.45757
G1 F1500 E633.95757
G0 F3600 X125.349 Y99.555
G1 F1500 E640.45757
G1 F1800 X125.349 Y76.474 E641.60908
G1 F1500 E635.10908
G0 F3600 X122.682 Y76.554
G1 F1500 E641.60908
G1 F1800 X122.682 Y99.769 E642.76728
G1 F1500 E636.26728
G0 F3600 X120.015 Y100.107
G1 F1500 E642.76728
G1 F1800 X120.015 Y76.765 E643.93182
G1 F1500 E637.43182
G0 F3600 X117.348 Y77.197
G1 F1500 E643.93182
G1 F1800 X117.348 Y100.643 E645.10154
G1 F1500 E638.60154
G0 F3600 X115.533 Y101.346
G1 F1500 E645.10154
G1 F1800 X81.231 Y101.346 E646.81288
G1 F1500 E640.31288
G0 F3600 X78.563 Y106.68
G1 F1500 E646.81288
G1 F1800 X106.359 Y106.68 E648.19963
G1 F1500 E641.69963
G0 F3600 X104.371 Y126.202
G0 X104.817 Y146.685
G1 F1500 E648.19963
G1 F1800 X77.861 Y146.685 E649.54447
G1 F1500 E643.04447
;MESH:slotted_disk.stl
G0 F3600 X117.275 Y146.655
G0 X117.797 Y145.703
G0 X124.956 Y146.595
G0 X124.964 Y146.895
;TYPE:WALL-INNER
G1 F1500 E649.54447
G1 F1800 X127.411 Y146.745 E649.66678
G1 X132.142 Y145.53 E649.91047
G1 X136.397 Y143.191 E650.15271
G1 X139.946 Y139.86 E650.39554
G1 X142.547 Y135.76 E650.63778
G1 X144.05 Y131.132 E650.88054
G1 X144.358 Y126.279 E651.12315
G1 X143.445 Y121.51 E651.36539
G1 X141.377 Y117.109 E651.60799
G1 X138.271 Y113.355 E651.85108
G1 X134.349 Y110.506 E652.09292
G1 X129.824 Y108.714 E652.33573
G1 X124.999 Y108.105 E652.57836
G1 X120.176 Y108.714 E652.82089
G1 X115.651 Y110.506 E653.06371
G1 X111.729 Y113.355 E653.30555
G1 X108.623 Y117.109 E653.54863
G1 X106.555 Y121.51 E653.79123
G1 X105.642 Y126.279 E654.03348
G1 X105.95 Y131.132 E654.27608
G1 X107.453 Y135.76 E654.51885
G1 X110.054 Y139.86 E654.76109
G1 X113.603 Y143.191 E655.00392
G1 X117.858 Y145.53 E655.24616
G1 X122.59 Y146.745 E655.4899
G1 X124.964 Y146.895 E655.60857
G0 F3600 X124.964 Y147.296
;TYPE:WALL-OUTER
G1 F1800 X127.473 Y147.142 E655.73398
G1 X132.29 Y145.905 E655.9821
G1 X136.634 Y143.517 E656.22941
G1 X140.256 Y140.117 E656.47726
G1 X142.912 Y135.932 E656.72455
G1 X144.446 Y131.208 E656.97234
G1 X144.76 Y126.253 E657.22004
G1 X143.829 Y121.386 E657.46726
G1 X141.717 Y116.893 E657.71495
G1 X138.547 Y113.061 E657.96307
G1 X134.543 Y110.153 E658.20995
G1 X129.924 Y108.324 E658.4578
G1 X124.999 Y107.702 E658.70546
G1 X120.076 Y108.324 E658.95303
G1 X115.457 Y110.153 E659.20088
G1 X111.453 Y113.061 E659.44776
G1 X108.283 Y116.893 E659.69588
G1 X106.171 Y121.386 E659.94357
G1 X105.24 Y126.253 E660.19078
G1 X105.554 Y131.208 E660.43849
G1 X107.088 Y135.932 E660.68628
G1 X109.744 Y140.117 E660.93357
G1 X113.366 Y143.517 E661.18141
G1 X117.71 Y145.905 E661.42873
G1 X122.527 Y147.142 E661.67684
G1 X124.964 Y147.296 E661.79867
G0 F3600 X125.163 Y147.284
G0 X124.965 Y146.514
;TYPE:SKIN
G1 F1800 X122.652 Y146.367 E661.9143
G1 X117.997 Y145.172 E662.15407
G1 X113.831 Y142.881 E662.39126
G1 X110.348 Y139.613 E662.62955
G1 X107.802 Y135.6 E662.86665
G1 X106.327 Y131.059 E663.10485
G1 X106.024 Y126.299 E663.34281
G1 X106.919 Y121.634 E663.57979
G1 X108.946 Y117.315 E663.81782
G1 X111.997 Y113.628 E664.05658
G1 X115.83 Y110.845 E664.29289
G1 X120.271 Y109.086 E664.5312
G1 X125 Y108.49 E664.769
G1 X129.729 Y109.086 E665.0068
G1 X134.17 Y110.845 E665.24511
G1 X138.003 Y113.628 E665.48143
G1 X141.053 Y117.315 E665.72015
G1 X143.081 Y121.634 E665.9582
G1 X143.976 Y126.299 E666.19518
G1 X143.672 Y131.059 E666.43314
G1 X142.198 Y135.6 E666.67133
G1 X139.652 Y139.613 E666.90843
G1 X136.169 Y142.881 E667.14671
G1 X132.003 Y145.172 E667.38391
G1 X127.348 Y146.367 E667.62368
G1 X124.965 Y146.514 E667.7428
G0 F3600 X110.276 Y139.126
G1 F1800 X112.615 Y141.465 E667.90782
G1 X112.685 Y141.535
G0 F3600 X115.023 Y143.307
G1 F1800 X109.294 Y137.578 E668.31204
G1 X109.224 Y137.508
G0 F3600 X108.313 Y136.031
G1 F1800 X116.281 Y144 E668.87426
G1 X116.351 Y144.07
G0 F3600 X117.538 Y144.691
G1 F1800 X107.803 Y134.956 E669.56111
G1 X107.733 Y134.886
G0 F3600 X107.531 Y134.118
G1 F1800 X118.509 Y145.096 E670.33567
G0 F3600 X119.271 Y145.292
G1 F1800 X107.258 Y133.28 E671.18322
G1 X107.188 Y133.21
G0 F3600 X106.986 Y132.442
G1 F1800 X120.032 Y145.487 E672.10365
G0 F3600 X120.792 Y145.683
G1 F1800 X106.714 Y131.604 E673.09696
G0 F3600 X106.512 Y130.837
G1 F1800 X121.554 Y145.878 E674.15822
G0 F3600 X122.315 Y146.074
G1 F1800 X106.474 Y130.233 E675.27589
G0 F3600 X106.435 Y129.628
G1 F1800 X122.995 Y146.188 E676.44429
G0 F3600 X123.599 Y146.226
G1 F1800 X106.397 Y129.025 E677.65795
G0 F3600 X106.358 Y128.42
G1 F1800 X124.203 Y146.265 E678.91701
G0 F3600 X124.807 Y146.303
G1 F1800 X106.32 Y127.816 E680.22136
G0 F3600 X106.282 Y127.212
G1 F1800 X125.358 Y146.289 E681.56731
G0 F3600 X125.891 Y146.255
G1 F1800 X106.243 Y126.608 E682.95355
G0 F3600 X106.271 Y126.07
G1 F1800 X126.424 Y146.223 E684.37545
G0 F3600 X126.956 Y146.19
G1 F1800 X106.362 Y125.595 E685.82851
G0 F3600 X106.452 Y125.12
G1 F1800 X127.462 Y146.129 E687.31084
G0 F3600 X127.912 Y146.014
G1 F1800 X106.544 Y124.645 E688.8185
G0 F3600 X106.635 Y124.171
G1 F1800 X128.362 Y145.898 E690.35146
G0 F3600 X128.812 Y145.783
G1 F1800 X106.726 Y123.697 E691.90975
G0 F3600 X106.816 Y123.221
G1 F1800 X129.263 Y145.668 E693.49351
G0 F3600 X129.713 Y145.552
G1 F1800 X106.908 Y122.747 E695.10252
G0 F3600 X106.999 Y122.272
G1 F1800 X130.163 Y145.437 E696.7369
G0 F3600 X130.613 Y145.321
G1 F1800 X107.089 Y121.797 E698.39665
G0 F3600 X107.251 Y121.393
G1 F1800 X131.063 Y145.205 E700.07671
G0 F3600 X131.513 Y145.089
G1 F1800 X107.432 Y121.008 E701.77576
G0 F3600 X107.613 Y120.623
G1 F1800 X131.957 Y144.968 E703.49339
G0 F3600 X132.322 Y144.767
G1 F1800 X107.793 Y120.238 E705.22405
G0 F3600 X107.974 Y119.853
G1 F1800 X132.687 Y144.566 E706.96768
G0 F3600 X133.052 Y144.365
G1 F1800 X108.154 Y119.468 E708.72434
G0 F3600 X108.335 Y119.083
G1 F1800 X133.416 Y144.164 E710.49394
G0 F3600 X133.781 Y143.964
G1 F1800 X108.516 Y118.699 E712.27652
G0 F3600 X108.697 Y118.313
G1 F1800 X134.147 Y143.764 E714.07219
G0 F3600 X134.512 Y143.563
G1 F1800 X108.878 Y117.929 E715.8808
G0 F3600 X109.058 Y117.543
G1 F1800 X134.877 Y143.362 E717.70247
G0 F3600 X135.241 Y143.161
G1 F1800 X109.291 Y117.21 E719.53342
G0 F3600 X109.547 Y116.901
G1 F1800 X135.606 Y142.96 E721.37203
G0 F3600 X135.972 Y142.76
G1 F1800 X109.803 Y116.591 E723.21839
G0 F3600 X110.059 Y116.281
G1 F1800 X136.279 Y142.501 E725.06835
G0 F3600 X136.571 Y142.228
G1 F1800 X110.315 Y115.972 E726.92086
G0 F3600 X110.571 Y115.662
G1 F1800 X136.863 Y141.954 E728.7759
G0 F3600 X137.155 Y141.68
G1 F1800 X110.827 Y115.353 E730.63345
G0 F3600 X111.083 Y115.043
G1 F1800 X137.446 Y141.406 E732.4935
G0 F3600 X137.738 Y141.132
G1 F1800 X111.34 Y114.734 E734.35602
G0 F3600 X111.596 Y114.424
G1 F1800 X138.03 Y140.859 E736.22112
G0 F3600 X138.322 Y140.584
G1 F1800 X111.852 Y114.115 E738.08868
G0 F3600 X112.108 Y113.805
G1 F1800 X138.614 Y140.311 E739.95882
G0 F3600 X138.906 Y140.037
G1 F1800 X112.429 Y113.561 E741.82688
G0 F3600 X112.757 Y113.323
G1 F1800 X139.198 Y139.763 E743.6924
G0 F3600 X139.489 Y139.489
G1 F1800 X113.085 Y113.085 E745.55535
G0 F3600 X113.412 Y112.847
G1 F1800 X139.711 Y139.145 E747.41085
G0 F3600 X139.931 Y138.8
G1 F1800 X113.74 Y112.609 E749.25877
G0 F3600 X114.068 Y112.371
G1 F1800 X140.15 Y138.453 E751.09899
G0 F3600 X140.37 Y138.107
G1 F1800 X114.396 Y112.133 E752.9316
G0 F3600 X114.723 Y111.895
G1 F1800 X140.589 Y137.761 E754.75658
G0 F3600 X140.809 Y137.415
G1 F1800 X115.051 Y111.657 E756.57395
G0 F3600 X115.379 Y111.419
G1 F1800 X141.028 Y137.069 E758.38366
G0 F3600 X141.248 Y136.723
G1 F1800 X115.707 Y111.181 E760.18575
G0 F3600 X116.06 Y110.969
G1 F1800 X141.468 Y136.376 E761.97839
G0 F3600 X141.687 Y136.031
G1 F1800 X116.466 Y110.809 E763.7579
G0 F3600 X116.871 Y110.648
G1 F1800 X141.907 Y135.685 E765.52436
G0 F3600 X142.086 Y135.297
G1 F1800 X117.276 Y110.488 E767.27481
G0 F3600 X117.681 Y110.327
G1 F1800 X142.224 Y134.87 E769.00645
G0 F3600 X142.363 Y134.443
G1 F1800 X118.086 Y110.166 E770.71932
G0 F3600 X118.491 Y110.006
G1 F1800 X142.501 Y134.016 E772.41336
G0 F3600 X142.64 Y133.589
G1 F1800 X118.896 Y109.845 E774.08862
G0 F3600 X119.301 Y109.684
G1 F1800 X142.779 Y133.162 E775.74512
G0 F3600 X142.917 Y132.735
G1 F1800 X119.706 Y109.524 E777.38278
G0 F3600 X120.111 Y109.363
G1 F1800 X143.056 Y132.308 E779.00168
G0 F3600 X143.194 Y131.881
G1 F1800 X120.564 Y109.25 E780.59838
G0 F3600 X121.067 Y109.187
G1 F1800 X143.333 Y131.453 E782.16937
G0 F3600 X143.471 Y131.026
G1 F1800 X121.569 Y109.124 E783.71467
G0 F3600 X122.072 Y109.061
G1 F1800 X143.507 Y130.496 E785.22703
G0 F3600 X143.541 Y129.964
G1 F1800 X122.574 Y108.997 E786.70636
G0 F3600 X123.076 Y108.934
G1 F1800 X143.575 Y129.433 E788.15268
G0 F3600 X143.609 Y128.901
G1 F1800 X123.578 Y108.871 E789.56594
G0 F3600 X124.081 Y108.808
G1 F1800 X143.643 Y128.369 E790.94611
G0 F3600 X143.677 Y127.837
G1 F1800 X124.584 Y108.745 E792.29319
G0 F3600 X125.111 Y108.706
G1 F1800 X143.711 Y127.306 E793.60552
G0 F3600 X143.745 Y126.775
G1 F1800 X125.758 Y108.788 E794.8746
G0 F3600 X126.405 Y108.869
G1 F1800 X143.757 Y126.221 E796.09887
G0 F3600 X143.623 Y125.521
G1 F1800 X127.052 Y108.951 E797.26801
G0 F3600 X127.699 Y109.032
G1 F1800 X143.488 Y124.82 E798.38198
G0 F3600 X143.353 Y124.12
G1 F1800 X128.346 Y109.113 E799.4408
G0 F3600 X128.994 Y109.195
G1 F1800 X143.219 Y123.42 E800.44445
G0 F3600 X143.085 Y122.72
G1 F1800 X129.641 Y109.276 E801.393
G1 X129.571 Y109.206
G0 F3600 X130.561 Y109.631
G1 F1800 X142.95 Y122.019 E802.26707
G1 X143.02 Y122.089
G0 F3600 X142.619 Y121.123
G1 F1800 X131.498 Y110.002 E803.05172
G1 X131.428 Y109.932
G0 F3600 X132.435 Y110.373
G1 F1800 X142.118 Y120.056 E803.73491
G1 X142.188 Y120.126
G0 F3600 X141.617 Y118.99
G1 F1800 X133.372 Y110.744 E804.31667
G1 X133.302 Y110.674
G0 F3600 X134.593 Y111.4
G1 F1800 X141.117 Y117.924 E804.77698
G1 X141.187 Y117.994
G0 F3600 X139.447 Y115.689
G1 F1800 X136.657 Y112.898 E804.97386
G1 X136.587 Y112.828
G0 F3600 X136.564 Y112.857
G1 F1500 E798.47386
;MESH:NOMESH
G0 F600 X136.564 Y112.857 Z0.7
G0 F3600 X134.431 Y110.343
G0 X134.829 Y109.335
G0 X128.016 Y76.823
;TIME_ELAPSED:601.485216
;LAYER:1
M106 S255
;TYPE:SUPPORT
G1 F1500 E804.97386
G1 F2700 X129.114 Y76.867 E805.04696
G1 X130.683 Y77.122 E805.1527
G1 X130.683 Y107.441 E807.16953
G1 X133.35 Y108.496 E807.36031
G1 X133.35 Y77.554 E809.41858
G1 X136.017 Y77.987 E809.59832
G1 X136.017 Y109.866 E811.71892
G1 X138.684 Y111.804 E811.93822
G1 X138.684 Y78.682 E814.1415
G1 X141.351 Y79.571 E814.32851
G1 X141.351 Y114.724 E816.6669
G1 X142.654 Y116.299 E816.80287
G1 X144.018 Y119.2 E817.01611
G1 X144.882 Y121.039 E817.15127
G1 X145.867 Y126.195 E817.50045
G1 X145.539 Y131.412 E817.84817
G1 X144.018 Y136.092 E818.17552
G1 X144.018 Y174.44 E820.72644
G1 X141.351 Y175.575 E820.91924
G1 X141.351 Y140.445 E823.2561
G1 X141.108 Y140.828 E823.28627
G1 X138.684 Y143.103 E823.50741
G1 X138.684 Y176.279 E825.71429
G1 X136.017 Y176.937 E825.89702
G1 X136.017 Y145.11 E828.01416
G1 X133.35 Y146.576 E828.2166
G1 X133.35 Y177.594 E830.27993
G1 X133.147 Y177.644 E830.29384
G1 X130.683 Y177.844 E830.45828
G1 X130.683 Y147.454 E832.47983
G1 X128.016 Y148.139 E832.663
G1 X128.016 Y178.06 E834.65335
G1 X125.349 Y178.276 E834.83134
G1 X125.349 Y148.377 E836.82023
G1 X124.984 Y148.4 E836.84456
G1 X122.682 Y148.256 E836.99799
G1 X122.682 Y178.116 E838.98429
G1 X120.015 Y177.9 E839.16228
G1 X120.015 Y147.635 E841.17551
G1 X117.348 Y146.949 E841.3587
G1 X117.348 Y177.684 E843.4032
G1 X116.853 Y177.644 E843.43623
G1 X114.681 Y177.108 E843.58505
G1 X114.681 Y145.495 E845.68795
G1 X112.707 Y144.409 E845.83782
G1 X112.014 Y143.759 E845.90103
G1 X112.014 Y176.45 E848.07564
G1 X109.347 Y175.793 E848.25835
G1 X109.347 Y141.256 E850.55577
G1 X108.892 Y140.828 E850.59732
G1 X106.68 Y137.343 E850.8719
G1 X106.082 Y136.4 E850.94617
G1 X104.461 Y131.412 E851.29506
G1 X104.133 Y126.195 E851.64278
G1 X105.117 Y121.043 E851.99169
G1 X106.68 Y117.718 E852.23609
G1 X106.68 Y80.227 E854.73
G1 X109.347 Y79.338 E854.917
G1 X109.347 Y113.881 E857.21481
G1 X110.687 Y112.261 E857.35466
G1 X112.014 Y111.297 E857.46377
G1 X112.014 Y78.448 E859.64889
G1 X112.848 Y78.17 E859.70737
G1 X114.681 Y77.872 E859.83091
G1 X114.681 Y109.36 E861.9255
G1 X114.932 Y109.177 E861.94616
G1 X117.348 Y108.221 E862.119
G1 X117.348 Y77.44 E864.16656
G1 X120.015 Y77.008 E864.34628
G1 X120.015 Y107.223 E866.35619
G1 X122.682 Y106.886 E866.53501
G1 X122.682 Y76.795 E868.53667
G1 X125.033 Y76.701 E868.69318
G1 X125.349 Y76.714 E868.71422
G1 X125.349 Y106.636 E870.70464
G1 X128.016 Y106.973 E870.88346
G1 X128.016 Y76.823 E872.88905
G1 F1500 E866.38905
G0 F5400 X144.018 Y119.2
G1 F1500 E872.88905
G1 F2700 X144.018 Y80.461 E875.46598
G1 X144.915 Y80.76 E875.52887
G1 X146.685 Y81.69 E875.66188
G1 X146.685 Y173.304 E881.75607
G1 X148.606 Y172.486 E881.89495
G1 X149.352 Y172.015 E881.95364
G1 X149.352 Y83.091 E887.86889
G1 X152.019 Y84.491 E888.06926
G1 X152.019 Y170.328 E893.77916
G1 X154.686 Y168.641 E893.98908
G1 X154.686 Y86.466 E899.45538
G1 X157.353 Y88.471 E899.67733
G1 X157.353 Y166.49 E904.86718
G1 X160.02 Y164.127 E905.10421
G1 X160.02 Y90.861 E909.97788
G1 X162.687 Y93.637 E910.23395
G1 X162.687 Y161.411 E914.7423
G1 X165.354 Y158.143 E915.02289
G1 X165.354 Y96.824 E919.10185
G1 X168.021 Y100.687 E919.41411
G1 X168.021 Y154.26 E922.9778
G1 X170.688 Y149.639 E923.33271
G1 X170.688 Y105.662 E926.25807
G1 X172.504 Y109.488 E926.53979
G1 X174.779 Y117.336 E927.08334
G1 X175.758 Y125.451 E927.62706
G1 X175.431 Y133.624 E928.17117
G1 X173.797 Y141.636 E928.7151
G1 X173.355 Y142.801 E928.79799
G1 X173.355 Y112.424 E930.81867
G1 F1500 E924.31867
G0 F5400 X137.149 Y144.222
G0 X132.608 Y146.718
G0 X127.611 Y148.001
G0 X124.992 Y148.164
G0 X122.389 Y148.001
G0 X117.392 Y146.718
G0 X112.851 Y144.222
G0 X109.075 Y140.675
G0 X106.68 Y137.343
G1 F1500 E930.81867
G1 F2700 X106.68 Y174.736 E933.30606
G1 X104.013 Y173.601 E933.49887
G1 X104.013 Y81.322 E939.63729
G1 X101.346 Y82.723 E939.83769
G1 X101.346 Y172.455 E945.80669
G1 X98.679 Y170.768 E946.01661
G1 X98.679 Y84.124 E951.78019
G1 X97.849 Y84.56 E951.84256
G1 X96.012 Y85.941 E951.99544
G1 X96.012 Y169.081 E957.52593
G1 X94.48 Y168.113 E957.64648
G1 X93.345 Y167.107 E957.74737
G1 X93.345 Y87.946 E963.01318
G1 X91.31 Y89.476 E963.18254
G1 X90.678 Y90.133 E963.24318
G1 X90.678 Y164.744 E968.20633
G1 X88.356 Y162.688 E968.41263
G1 X88.011 Y162.265 E968.44894
G1 X88.011 Y92.91 E973.06246
G1 X85.654 Y95.364 E973.2888
G1 X85.344 Y95.812 E973.32504
G1 X85.344 Y158.997 E977.52812
G1 X83.192 Y156.361 E977.75448
G1 X82.677 Y155.468 E977.82306
G1 X82.677 Y99.675 E981.53442
G1 X81.002 Y102.101 E981.73053
G1 X80.01 Y104.191 E981.88442
G1 X80.01 Y150.847 E984.98799
G1 X79.104 Y149.278 E985.10851
G1 X77.343 Y144.639 E985.43858
G1 X77.343 Y110.015 E987.74178
G1 X75.221 Y117.336 E988.24882
G1 X74.242 Y125.451 E988.79255
G1 X74.569 Y133.624 E989.33665
G1 X74.676 Y134.148 E989.37223
G1 X74.676 Y121.853 E990.1901
G1 F1500 E983.6901
;MESH:slotted_disk.stl
G0 F5400 X106.254 Y136.169
G0 X107.285 Y135.834
G0 X124.992 Y146.597
G0 X124.993 Y146.896
;TYPE:WALL-INNER
G1 F1500 E990.1901
G1 F2700 X127.41 Y146.745 E990.35119
G1 X132.142 Y145.53 E990.67617
G1 X136.397 Y143.191 E990.99916
G1 X139.946 Y139.86 E991.32294
G1 X142.547 Y135.76 E991.64592
G1 X144.05 Y131.132 E991.96961
G1 X144.358 Y126.279 E992.29308
G1 X143.445 Y121.51 E992.61608
G1 X141.377 Y117.109 E992.93954
G1 X138.271 Y113.355 E993.26365
G1 X134.349 Y110.506 E993.58611
G1 X129.824 Y108.714 E993.90986
G1 X124.999 Y108.105 E994.23337
G1 X120.176 Y108.714 E994.55674
G1 X115.651 Y110.506 E994.88049
G1 X111.729 Y113.355 E995.20295
G1 X108.623 Y117.109 E995.52706
G1 X106.555 Y121.51 E995.85053
G1 X105.642 Y126.279 E996.17352
G1 X105.95 Y131.132 E996.497
G1 X107.453 Y135.76 E996.82068
G1 X110.054 Y139.86 E997.14366
G1 X113.603 Y143.191 E997.46744
G1 X117.858 Y145.53 E997.79043
G1 X122.59 Y146.745 E998.11542
G1 X124.993 Y146.896 E998.27558
G0 F5400 X124.993 Y147.297
;TYPE:WALL-OUTER
G1 F1800 X127.473 Y147.142 E998.44087
G1 X132.29 Y145.905 E998.7717
G1 X136.634 Y143.517 E999.10144
G1 X140.256 Y140.117 E999.4319
G1 X142.912 Y135.932 E999.76162
G1 X144.446 Y131.208 E1000.09202
G1 X144.76 Y126.253 E1000.42228
G1 X143.829 Y121.386 E1000.75191
G1 X141.717 Y116.893 E1001.08216
G1 X138.547 Y113.061 E1001.41298
G1 X134.543 Y110.153 E1001.74216
G1 X129.924 Y108.324 E1002.07263
G1 X124.999 Y107.702 E1002.40284
G1 X120.076 Y108.324 E1002.73293
G1 X115.457 Y110.153 E1003.06339
G1 X111.453 Y113.061 E1003.39258
G1 X108.283 Y116.893 E1003.7234
G1 X106.171 Y121.386 E1004.05365
G1 X105.24 Y126.253 E1004.38327
G1 X105.554 Y131.208 E1004.71354
G1 X107.088 Y135.932 E1005.04393
G1 X109.744 Y140.117 E1005.37365
G1 X113.366 Y143.517 E1005.70411
G1 X117.71 Y145.905 E1006.03386
G1 X122.527 Y147.142 E1006.36468
G1 X124.993 Y147.297 E1006.52905
G0 F5400 X125.192 Y147.285
G0 X124.994 Y146.515
;TYPE:SKIN
G1 F1800 X122.652 Y146.367 E1006.68515
G1 X117.997 Y145.172 E1007.00484
G1 X113.831 Y142.881 E1007.3211
G1 X110.348 Y139.613 E1007.63881
G1 X107.802 Y135.6 E1007.95495
G1 X106.327 Y131.059 E1008.27255
G1 X106.024 Y126.299 E1008.58983
G1 X106.919 Y121.634 E1008.90581
G1 X108.946 Y117.315 E1009.22318
G1 X111.997 Y113.628 E1009.54152
G1 X115.83 Y110.845 E1009.85661
G1 X120.271 Y109.086 E1010.17436
G1 X125 Y108.49 E1010.49142
G1 X129.729 Y109.086 E1010.80848
G1 X134.17 Y110.845 E1011.12623
G1 X138.003 Y113.628 E1011.44132
G1 X141.053 Y117.315 E1011.75962
G1 X143.081 Y121.634 E1012.07702
G1 X143.976 Y126.299 E1012.39299
G1 X143.672 Y131.059 E1012.71027
G1 X142.198 Y135.6 E1013.02786
G1 X139.652 Y139.613 E1013.34399
G1 X136.169 Y142.881 E1013.6617
G1 X132.003 Y145.172 E1013.97797
G1 X127.348 Y146.367 E1014.29766
G1 X124.994 Y146.515 E1014.45456
G0 F5400 X139.665 Y139.217
G1 F1800 X137.911 Y140.971 E1014.61956
G1 X137.841 Y141.041
G0 F5400 X135.048 Y143.269
G1 F1800 X140.647 Y137.669 E1015.14633
G1 X140.717 Y137.599
G0 F5400 X141.629 Y136.122
G1 F1800 X133.791 Y143.959 E1015.88363
G1 X133.721 Y144.029
G0 F5400 X132.535 Y144.65
G1 F1800 X142.18 Y135.005 E1016.79097
G1 X142.25 Y134.935
G0 F5400 X142.451 Y134.168
G1 F1800 X131.534 Y145.085 E1017.81798
G0 F5400 X130.773 Y145.28
G1 F1800 X142.723 Y133.33 E1018.94216
G1 X142.793 Y133.26
G0 F5400 X142.995 Y132.493
G1 F1800 X130.012 Y145.475 E1020.16348
G0 F5400 X129.251 Y145.671
G1 F1800 X143.266 Y131.656 E1021.48192
G1 X143.336 Y131.586
G0 F5400 X143.482 Y130.874
G1 F1800 X128.49 Y145.866 E1022.89228
G0 F5400 X127.728 Y146.062
G1 F1800 X143.52 Y130.27 E1024.37789
G0 F5400 X143.559 Y129.666
G1 F1800 X127.04 Y146.185 E1025.9319
G0 F5400 X126.436 Y146.224
G1 F1800 X143.598 Y129.061 E1027.54644
G0 F5400 X143.636 Y128.457
G1 F1800 X125.832 Y146.262 E1029.22138
G0 F5400 X125.228 Y146.3
G1 F1800 X143.675 Y127.853 E1030.95676
G0 F5400 X143.714 Y127.248
G1 F1800 X124.668 Y146.294 E1032.74849
G0 F5400 X124.136 Y146.26
G1 F1800 X143.752 Y126.644 E1034.59384
G0 F5400 X143.732 Y126.099
G1 F1800 X123.604 Y146.227 E1036.48736
G0 F5400 X123.072 Y146.193
G1 F1800 X143.642 Y125.623 E1038.42246
G0 F5400 X143.551 Y125.149
G1 F1800 X122.562 Y146.138 E1040.39698
G0 F5400 X122.112 Y146.022
G1 F1800 X143.459 Y124.674 E1042.40522
G0 F5400 X143.368 Y124.2
G1 F1800 X121.661 Y145.907 E1044.44728
G0 F5400 X121.212 Y145.791
G1 F1800 X143.277 Y123.726 E1046.52302
G0 F5400 X143.186 Y123.251
G1 F1800 X120.761 Y145.676 E1048.63263
G0 F5400 X120.311 Y145.56
G1 F1800 X143.095 Y122.777 E1050.77596
G0 F5400 X143.003 Y122.302
G1 F1800 X119.861 Y145.444 E1052.95302
G0 F5400 X119.411 Y145.329
G1 F1800 X142.912 Y121.828 E1055.16385
G0 F5400 X142.757 Y121.418
G1 F1800 X118.961 Y145.213 E1057.40238
G0 F5400 X118.511 Y145.098
G1 F1800 X142.576 Y121.033 E1059.66627
G0 F5400 X142.395 Y120.647
G1 F1800 X118.062 Y144.98 E1061.95537
G0 F5400 X117.697 Y144.78
G1 F1800 X142.214 Y120.263 E1064.26178
G0 F5400 X142.033 Y119.878
G1 F1800 X117.333 Y144.579 E1066.58545
G0 F5400 X116.968 Y144.378
G1 F1800 X141.853 Y119.493 E1068.92648
G0 F5400 X141.672 Y119.108
G1 F1800 X116.603 Y144.177 E1071.28481
G0 F5400 X116.238 Y143.976
G1 F1800 X141.492 Y118.723 E1073.66051
G0 F5400 X141.311 Y118.338
G1 F1800 X115.873 Y143.776 E1076.05356
G0 F5400 X115.508 Y143.575
G1 F1800 X141.13 Y117.953 E1078.46392
G0 F5400 X140.949 Y117.568
G1 F1800 X115.143 Y143.374 E1080.89159
G0 F5400 X114.778 Y143.173
G1 F1800 X140.722 Y117.23 E1083.3322
G0 F5400 X140.466 Y116.92
G1 F1800 X114.413 Y142.973 E1085.7831
G0 F5400 X114.048 Y142.772
G1 F1800 X140.21 Y116.611 E1088.24422
G0 F5400 X139.954 Y116.301
G1 F1800 X113.736 Y142.518 E1090.7106
G0 F5400 X113.445 Y142.244
G1 F1800 X139.697 Y115.992 E1093.18023
G0 F5400 X139.441 Y115.682
G1 F1800 X113.153 Y141.97 E1095.65324
G0 F5400 X112.861 Y141.697
G1 F1800 X139.185 Y115.372 E1098.12969
G0 F5400 X138.929 Y115.063
G1 F1800 X112.569 Y141.423 E1100.60947
G0 F5400 X112.277 Y141.149
G1 F1800 X138.673 Y114.753 E1103.09265
G0 F5400 X138.417 Y114.443
G1 F1800 X111.985 Y140.875 E1105.57921
G0 F5400 X111.693 Y140.601
G1 F1800 X138.161 Y114.134 E1108.06911
G0 F5400 X137.904 Y113.825
G1 F1800 X111.402 Y140.327 E1110.56225
G0 F5400 X111.11 Y140.053
G1 F1800 X137.589 Y113.574 E1113.05324
G0 F5400 X137.262 Y113.336
G1 F1800 X110.818 Y139.78 E1115.54093
G0 F5400 X110.527 Y139.505
G1 F1800 X136.934 Y113.098 E1118.02513
G0 F5400 X136.606 Y112.86
G1 F1800 X110.302 Y139.164 E1120.49965
G0 F5400 X110.082 Y138.819
G1 F1800 X136.278 Y112.623 E1122.96401
G0 F5400 X135.951 Y112.384
G1 F1800 X109.862 Y138.473 E1125.4183
G0 F5400 X109.643 Y138.126
G1 F1800 X135.623 Y112.147 E1127.8623
G0 F5400 X135.294 Y111.909
G1 F1800 X109.423 Y137.781 E1130.29613
G0 F5400 X109.204 Y137.434
G1 F1800 X134.967 Y111.671 E1132.71975
G0 F5400 X134.639 Y111.433
G1 F1800 X108.984 Y137.088 E1135.13322
G0 F5400 X108.765 Y136.742
G1 F1800 X134.312 Y111.195 E1137.53652
G0 F5400 X133.963 Y110.978
G1 F1800 X108.545 Y136.396 E1139.92769
G0 F5400 X108.325 Y136.05
G1 F1800 X133.558 Y110.817 E1142.30146
G0 F5400 X133.153 Y110.657
G1 F1800 X108.106 Y135.704 E1144.65773
G0 F5400 X107.922 Y135.321
G1 F1800 X132.747 Y110.496 E1146.99311
G0 F5400 X132.342 Y110.336
G1 F1800 X107.784 Y134.894 E1149.30338
G0 F5400 X107.644 Y134.468
G1 F1800 X131.937 Y110.175 E1151.58871
G0 F5400 X131.532 Y110.015
G1 F1800 X107.506 Y134.041 E1153.84893
G0 F5400 X107.367 Y133.614
G1 F1800 X131.127 Y109.854 E1156.08413
G0 F5400 X130.722 Y109.694
G1 F1800 X107.229 Y133.187 E1158.29421
G0 F5400 X107.09 Y132.76
G1 F1800 X130.316 Y109.533 E1160.47921
G0 F5400 X129.911 Y109.373
G1 F1800 X106.952 Y132.332 E1162.63905
G0 F5400 X106.813 Y131.905
G1 F1800 X129.465 Y109.253 E1164.77002
G0 F5400 X128.962 Y109.19
G1 F1800 X106.674 Y131.479 E1166.86678
G0 F5400 X106.535 Y131.052
G1 F1800 X128.46 Y109.127 E1168.92935
G0 F5400 X127.958 Y109.064
G1 F1800 X106.493 Y130.528 E1170.9486
G0 F5400 X106.459 Y129.996
G1 F1800 X127.455 Y109.001 E1172.92373
G0 F5400 X126.953 Y108.937
G1 F1800 X106.425 Y129.464 E1174.85483
G0 F5400 X106.392 Y128.932
G1 F1800 X126.45 Y108.874 E1176.74176
G0 F5400 X125.948 Y108.811
G1 F1800 X106.358 Y128.4 E1178.58462
G0 F5400 X106.324 Y127.868
G1 F1800 X125.445 Y108.748 E1180.38336
G0 F5400 X124.927 Y108.7
G1 F1800 X106.29 Y127.337 E1182.13662
G0 F5400 X106.256 Y126.805
G1 F1800 X124.279 Y108.782 E1183.83211
G0 F5400 X123.632 Y108.864
G1 F1800 X106.235 Y126.261 E1185.46871
G0 F5400 X106.369 Y125.561
G1 F1800 X122.985 Y108.945 E1187.03184
G0 F5400 X122.338 Y109.026
G1 F1800 X106.503 Y124.862 E1188.52155
G0 F5400 X106.637 Y124.162
G1 F1800 X121.69 Y109.108 E1189.93769
G0 F5400 X121.043 Y109.19
G1 F1800 X106.771 Y123.462 E1191.28031
G0 F5400 X106.906 Y122.762
G1 F1800 X120.396 Y109.271 E1192.54942
G1 X120.466 Y109.201
G0 F5400 X119.493 Y109.608
G1 F1800 X107.04 Y122.062 E1193.72097
G1 X106.97 Y122.132
G0 F5400 X107.348 Y121.188
G1 F1800 X118.557 Y109.979 E1194.77544
G1 X118.627 Y109.909
G0 F5400 X117.62 Y110.351
G1 F1800 X107.849 Y120.121 E1195.69459
G1 X107.779 Y120.191
G0 F5400 X108.349 Y119.055
G1 F1800 X116.683 Y110.722 E1196.47855
G1 X116.753 Y110.652
G0 F5400 X115.529 Y111.309
G1 F1800 X108.85 Y117.989 E1197.10692
G1 X108.78 Y118.059
G0 F5400 X110.385 Y115.889
G1 F1800 X113.466 Y112.807 E1197.39681
G1 X113.536 Y112.737
G0 F5400 X113.558 Y112.769
G1 F1500 E1190.89681
;MESH:NOMESH
G0 F600 X113.558 Y112.769 Z1.1
G0 F5400 X115.569 Y110.343
G0 X115.17 Y109.336
G0 X128.016 Y76.823
;TIME_ELAPSED:773.430741
;LAYER:2
;TYPE:SUPPORT
G1 F1500 E1197.39681
G1 F3600 X129.114 Y76.867 E1197.46991
G1 X130.683 Y77.122 E1197.57565
G1 X130.683 Y107.441 E1199.59247
G1 X133.35 Y108.496 E1199.78326
G1 X133.35 Y77.554 E1201.84153
G1 X136.017 Y77.987 E1202.02126
G1 X136.017 Y109.866 E1204.14186
G1 X138.684 Y111.804 E1204.36116
G1 X138.684 Y78.682 E1206.56445
G1 X141.351 Y79.571 E1206.75146
G1 X141.351 Y114.724 E1209.08984
G1 X142.654 Y116.299 E1209.22582
G1 X144.018 Y119.2 E1209.43906
G1 X144.882 Y121.039 E1209.57422
G1 X145.867 Y126.195 E1209.9234
G1 X145.539 Y131.412 E1210.27112
G1 X144.018 Y136.092 E1210.59847
G1 X144.018 Y174.44 E1213.14938
G1 X141.351 Y175.575 E1213.34219
G1 X141.351 Y140.445 E1215.67905
G1 X141.108 Y140.828 E1215.70922
G1 X138.684 Y143.103 E1215.93036
G1 X138.684 Y176.279 E1218.13724
G1 X136.017 Y176.937 E1218.31996
G1 X136.017 Y145.11 E1220.4371
G1 X133.35 Y146.576 E1220.63955
G1 X133.35 Y177.594 E1222.70288
G1 X133.147 Y177.644 E1222.71678
G1 X130.683 Y177.844 E1222.88123
G1 X130.683 Y147.454 E1224.90278
G1 X128.016 Y148.139 E1225.08595
G1 X128.016 Y178.06 E1227.0763
G1 X125.349 Y178.276 E1227.25429
G1 X125.349 Y148.378 E1229.24311
G1 X124.992 Y148.401 E1229.26691
G1 X122.682 Y148.255 E1229.42088
G1 X122.682 Y178.116 E1231.40724
G1 X120.015 Y177.9 E1231.58523
G1 X120.015 Y147.634 E1233.59853
G1 X117.348 Y146.949 E1233.7817
G1 X117.348 Y177.684 E1235.8262
G1 X116.853 Y177.644 E1235.85924
G1 X114.681 Y177.108 E1236.00805
G1 X114.681 Y145.495 E1238.11096
G1 X112.707 Y144.409 E1238.26083
G1 X112.014 Y143.759 E1238.32403
G1 X112.014 Y176.45 E1240.49865
G1 X109.347 Y175.793 E1240.68136
G1 X109.347 Y141.256 E1242.97877
G1 X108.892 Y140.828 E1243.02032
G1 X106.68 Y137.343 E1243.2949
G1 X106.082 Y136.4 E1243.36918
G1 X104.461 Y131.412 E1243.71806
G1 X104.133 Y126.195 E1244.06579
G1 X105.117 Y121.043 E1244.41469
G1 X106.68 Y117.718 E1244.65909
G1 X106.68 Y80.227 E1247.153
G1 X109.347 Y79.338 E1247.34001
G1 X109.347 Y113.881 E1249.63782
G1 X110.687 Y112.261 E1249.77767
G1 X112.014 Y111.297 E1249.88678
G1 X112.014 Y78.448 E1252.0719
G1 X112.848 Y78.17 E1252.13038
G1 X114.681 Y77.872 E1252.25391
G1 X114.681 Y109.36 E1254.3485
G1 X114.932 Y109.177 E1254.36916
G1 X117.348 Y108.221 E1254.542
G1 X117.348 Y77.44 E1256.58956
G1 X120.015 Y77.008 E1256.76928
G1 X120.015 Y107.223 E1258.77919
G1 X122.682 Y106.886 E1258.95801
G1 X122.682 Y76.795 E1260.95968
G1 X125.033 Y76.701 E1261.11619
G1 X125.349 Y76.714 E1261.13723
G1 X125.349 Y106.636 E1263.12765
G1 X128.016 Y106.973 E1263.30647
G1 X128.016 Y76.823 E1265.31205
G1 F1500 E1258.81205
G0 F7200 X144.018 Y119.2
G1 F1500 E1265.31205
G1 F3600 X144.018 Y80.461 E1267.88898
G1 X144.915 Y80.76 E1267.95188
G1 X146.685 Y81.69 E1268.08488
G1 X146.685 Y173.304 E1274.17907
G1 X148.606 Y172.486 E1274.31796
G1 X149.352 Y172.015 E1274.37665
G1 X149.352 Y83.091 E1280.2919
G1 X152.019 Y84.491 E1280.49226
G1 X152.019 Y170.328 E1286.20216
G1 X154.686 Y168.641 E1286.41209
G1 X154.686 Y86.466 E1291.87839
G1 X157.353 Y88.471 E1292.10034
G1 X157.353 Y166.49 E1297.29019
G1 X160.02 Y164.127 E1297.52721
G1 X160.02 Y90.861 E1302.40089
G1 X162.687 Y93.637 E1302.65696
G1 X162.687 Y161.411 E1307.1653
G1 X165.354 Y158.143 E1307.4459
G1 X165.354 Y96.824 E1311.52485
G1 X168.021 Y100.687 E1311.83711
G1 X168.021 Y154.26 E1315.4008
G1 X170.688 Y149.639 E1315.75572
G1 X170.688 Y105.662 E1318.68108
G1 X172.504 Y109.488 E1318.9628
G1 X174.779 Y117.336 E1319.50634
G1 X175.758 Y125.451 E1320.05007
G1 X175.431 Y133.624 E1320.59417
G1 X173.797 Y141.636 E1321.1381
G1 X173.355 Y142.801 E1321.22099
G1 X173.355 Y112.424 E1323.24168
G1 F1500 E1316.74168
G0 F7200 X137.149 Y144.222
G0 X132.608 Y146.718
G0 X127.611 Y148.001
G0 X124.992 Y148.165
G0 X122.389 Y148.001
G0 X117.392 Y146.718
G0 X112.851 Y144.222
G0 X109.075 Y140.675
G0 X106.68 Y137.343
G1 F1500 E1323.24168
G1 F3600 X106.68 Y174.736 E1325.72907
G1 X104.013 Y173.601 E1325.92188
G1 X104.013 Y81.322 E1332.0603
G1 X101.346 Y82.723 E1332.2607
G1 X101.346 Y172.455 E1338.2297
G1 X98.679 Y170.768 E1338.43962
G1 X98.679 Y84.124 E1344.2032
G1 X97.849 Y84.56 E1344.26557
G1 X96.012 Y85.941 E1344.41844
G1 X96.012 Y169.081 E1349.94894
G1 X94.48 Y168.113 E1350.06949
G1 X93.345 Y167.107 E1350.17037
G1 X93.345 Y87.946 E1355.43619
G1 X91.31 Y89.476 E1355.60555
G1 X90.678 Y90.133 E1355.66619
G1 X90.678 Y164.744 E1360.62933
G1 X88.356 Y162.688 E1360.83564
G1 X88.011 Y162.265 E1360.87195
G1 X88.011 Y92.91 E1365.48546
G1 X85.654 Y95.364 E1365.7118
G1 X85.344 Y95.812 E1365.74804
G1 X85.344 Y158.997 E1369.95113
G1 X83.192 Y156.361 E1370.17749
G1 X82.677 Y155.468 E1370.24606
G1 X82.677 Y99.675 E1373.95743
G1 X81.002 Y102.101 E1374.15353
G1 X80.01 Y104.191 E1374.30743
G1 X80.01 Y150.847 E1377.411
G1 X79.104 Y149.278 E1377.53152
G1 X77.343 Y144.639 E1377.86159
G1 X77.343 Y110.015 E1380.16479
G1 X75.221 Y117.336 E1380.67183
G1 X74.242 Y125.451 E1381.21555
G1 X74.569 Y133.624 E1381.75966
G1 X74.676 Y134.148 E1381.79523
G1 X74.676 Y121.853 E1382.6131
G1 F1500 E1376.1131
;MESH:slotted_disk.stl
G0 F7200 X104.395 Y126.07
G0 X105.46 Y126.272
G0 X106.104 Y125.461
G0 X105.965 Y125.435
;TYPE:FILL
G1 F1500 E1382.6131
G1 F3600 X127.132 Y146.601 E1384.60432
G1 X127.202 Y146.671
G0 F7200 X127.19 Y146.461
G0 X128.905 Y146.054
G0 X128.938 Y146.187
G1 F3600 X143.827 Y131.297 E1386.00503
G1 X143.897 Y131.227
G0 F7200 X143.725 Y131.171
G0 X143.855 Y129.511
G0 X143.991 Y129.52
G1 F3600 X122.992 Y108.52 E1387.98053
G1 X122.922 Y108.45
G0 F7200 X122.948 Y108.666
G0 X121.13 Y108.896
G0 X121.113 Y108.756
G1 F3600 X106.329 Y123.541 E1389.37137
G1 X106.259 Y123.611
G0 F7200 X106.45 Y123.647
G0 X107.165 Y120.912
G0 X107.039 Y120.852
G1 F3600 X131.671 Y145.484 E1391.6886
G1 X131.741 Y145.554
G0 F7200 X131.687 Y145.34
G0 X135.334 Y143.436
G0 X135.4 Y143.556
G1 F3600 X108.885 Y117.041 E1394.18296
G1 X108.815 Y116.971
G0 F7200 X108.998 Y117.123
G0 X111.554 Y114.035
G0 X111.446 Y113.945
G1 F3600 X138.498 Y140.997 E1396.72785
G1 X138.568 Y141.067
G0 F7200 X138.408 Y140.896
G0 X140.906 Y137.79
G0 X141.021 Y137.863
G1 F3600 X114.614 Y111.456 E1399.21206
G1 X114.544 Y111.386
G0 F7200 X114.683 Y111.579
G0 X118.453 Y109.717
G0 X118.403 Y109.588
G1 F3600 X142.916 Y134.102 E1401.51814
G1 X142.986 Y134.172
G0 F7200 X142.772 Y134.103
G0 X143.895 Y125.46
G0 X144.032 Y125.435
G1 F3600 X122.866 Y146.602 E1403.50935
G1 X122.796 Y146.672
G0 F7200 X122.81 Y146.462
G0 X121.094 Y146.055
G0 X121.06 Y146.186
G1 F3600 X106.171 Y131.297 E1404.91002
G1 X106.101 Y131.227
G0 F7200 X106.276 Y131.172
G0 X106.146 Y129.511
G0 X106.008 Y129.519
G1 F3600 X127.007 Y108.519 E1406.88552
G1 X127.077 Y108.449
G0 F7200 X127.05 Y108.665
G0 X128.869 Y108.895
G0 X128.886 Y108.757
G1 F3600 X143.671 Y123.542 E1408.27641
G1 X143.741 Y123.612
G0 F7200 X143.549 Y123.647
G0 X142.834 Y120.91
G0 X142.958 Y120.853
G1 F3600 X118.326 Y145.485 E1410.59363
G1 X118.256 Y145.555
G0 F7200 X118.311 Y145.34
G0 X114.665 Y143.436
G0 X114.598 Y143.556
G1 F3600 X141.112 Y117.042 E1413.08791
G1 X141.182 Y116.972
G0 F7200 X141 Y117.121
G0 X138.444 Y114.033
G0 X138.551 Y113.946
G1 F3600 X111.5 Y140.997 E1415.6327
G1 X111.43 Y141.067
G0 F7200 X111.592 Y140.896
G0 X109.094 Y137.79
G0 X108.977 Y137.863
G1 F3600 X135.384 Y111.456 E1418.11691
G1 X135.454 Y111.386
G0 F7200 X135.314 Y111.577
G0 X131.544 Y109.715
G0 X131.595 Y109.588
G1 F3600 X107.082 Y134.101 E1420.42294
G1 X107.012 Y134.171
G0 F7200 X107.228 Y134.102
G0 X124.992 Y146.598
G0 X124.993 Y146.897
;TYPE:WALL-INNER
G1 F3600 X127.41 Y146.745 E1420.58404
G1 X132.142 Y145.53 E1420.90902
G1 X136.397 Y143.191 E1421.23201
G1 X139.946 Y139.86 E1421.55579
G1 X142.547 Y135.76 E1421.87877
G1 X144.05 Y131.132 E1422.20246
G1 X144.358 Y126.279 E1422.52593
G1 X143.445 Y121.51 E1422.84893
G1 X141.377 Y117.109 E1423.17239
G1 X138.271 Y113.355 E1423.4965
G1 X134.349 Y110.506 E1423.81896
G1 X129.824 Y108.714 E1424.14271
G1 X124.999 Y108.105 E1424.46622
G1 X120.176 Y108.714 E1424.78959
G1 X115.651 Y110.506 E1425.11334
G1 X111.729 Y113.355 E1425.4358
G1 X108.623 Y117.109 E1425.75991
G1 X106.555 Y121.51 E1426.08338
G1 X105.642 Y126.279 E1426.40637
G1 X105.95 Y131.132 E1426.72985
G1 X107.453 Y135.76 E1427.05353
G1 X110.054 Y139.86 E1427.37651
G1 X113.603 Y143.191 E1427.70029
G1 X117.858 Y145.53 E1428.02328
G1 X122.59 Y146.745 E1428.34826
G1 X124.993 Y146.897 E1428.50843
G0 F7200 X124.993 Y147.298
;TYPE:WALL-OUTER
G1 F1800 X127.473 Y147.142 E1428.67373
G1 X132.29 Y145.905 E1429.00455
G1 X136.634 Y143.517 E1429.3343
G1 X140.256 Y140.117 E1429.66476
G1 X142.912 Y135.932 E1429.99448
G1 X144.446 Y131.208 E1430.32487
G1 X144.76 Y126.253 E1430.65514
G1 X143.829 Y121.386 E1430.98477
G1 X141.717 Y116.893 E1431.31502
G1 X138.547 Y113.061 E1431.64584
G1 X134.543 Y110.153 E1431.97502
G1 X129.924 Y108.324 E1432.30549
G1 X124.999 Y107.702 E1432.6357
G1 X120.076 Y108.324 E1432.96578
G1 X115.457 Y110.153 E1433.29625
G1 X111.453 Y113.061 E1433.62543
G1 X108.283 Y116.893 E1433.95625
G1 X106.171 Y121.386 E1434.2865
G1 X105.24 Y126.253 E1434.61613
G1 X105.554 Y131.208 E1434.9464
G1 X107.088 Y135.932 E1435.27679
G1 X109.744 Y140.117 E1435.60651
G1 X113.366 Y143.517 E1435.93697
G1 X117.71 Y145.905 E1436.26672
G1 X122.527 Y147.142 E1436.59754
G1 X124.993 Y147.298 E1436.76191
G0 F7200 X125.192 Y147.286
G0 X125.132 Y146.288
G1 F1500 E1430.26191
;MESH:NOMESH
G0 F600 X125.132 Y146.288 Z1.5
G0 F7200 X125 Y107.922
G0 X125.136 Y106.846
G0 X128.016 Y76.823
;TIME_ELAPSED:842.184301
;LAYER:3
;TYPE:SUPPORT
G1 F1500 E1436.76191
G1 F3600 X129.114 Y76.867 E1436.83501
G1 X130.683 Y77.122 E1436.94075
G1 X130.683 Y107.441 E1438.95757
G1 X133.35 Y108.496 E1439.14836
G1 X133.35 Y77.554 E1441.20663
G1 X136.017 Y77.987 E1441.38636
G1 X136.017 Y109.866 E1443.50696
G1 X138.684 Y111.804 E1443.72626
G1 X138.684 Y78.682 E1445.92955
G1 X141.351 Y79.571 E1446.11655
G1 X141.351 Y114.724 E1448.45494
G1 X142.654 Y116.299 E1448.59092
G1 X144.018 Y119.2 E1448.80416
G1 X144.882 Y121.039 E1448.93932
G1 X145.867 Y126.195 E1449.2885
G1 X145.539 Y131.412 E1449.63622
G1 X144.018 Y136.092 E1449.96356
G1 X144.018 Y174.44 E1452.51448
G1 X141.351 Y175.575 E1452.70729
G1 X141.351 Y140.445 E1455.04415
G1 X141.108 Y140.828 E1455.07432
G1 X138.684 Y143.103 E1455.29546
G1 X138.684 Y176.279 E1457.50233
G1 X136.017 Y176.937 E1457.68506
G1 X136.017 Y145.11 E1459.8022
G1 X133.35 Y146.576 E1460.00465
G1 X133.35 Y177.594 E1462.06798
G1 X133.147 Y177.644 E1462.08188
G1 X130.683 Y177.844 E1462.24633
G1 X130.683 Y147.454 E1464.26788
G1 X128.016 Y148.139 E1464.45105
G1 X128.016 Y178.06 E1466.4414
G1 X125.349 Y178.276 E1466.61939
G1 X125.349 Y148.377 E1468.60828
G1 X125.342 Y148.378 E1468.60875
G1 X124.61 Y148.377 E1468.65744
G1 X122.682 Y148.256 E1468.78595
G1 X122.682 Y178.116 E1470.77224
G1 X120.015 Y177.9 E1470.95023
G1 X120.015 Y147.634 E1472.96353
G1 X117.348 Y146.949 E1473.1467
G1 X117.348 Y177.684 E1475.1912
G1 X116.853 Y177.644 E1475.22424
G1 X114.681 Y177.108 E1475.37305
G1 X114.681 Y145.495 E1477.47596
G1 X112.707 Y144.409 E1477.62583
G1 X112.014 Y143.759 E1477.68903
G1 X112.014 Y176.45 E1479.86365
G1 X109.347 Y175.793 E1480.04636
G1 X109.347 Y141.256 E1482.34377
G1 X108.892 Y140.828 E1482.38532
G1 X106.68 Y137.343 E1482.6599
G1 X106.082 Y136.4 E1482.73418
G1 X104.461 Y131.412 E1483.08307
G1 X104.133 Y126.195 E1483.43079
G1 X105.117 Y121.043 E1483.77969
G1 X106.68 Y117.718 E1484.02409
G1 X106.68 Y80.227 E1486.518
G1 X109.347 Y79.338 E1486.70501
G1 X109.347 Y113.881 E1489.00282
G1 X110.687 Y112.261 E1489.14267
G1 X112.014 Y111.297 E1489.25178
G1 X112.014 Y78.448 E1491.4369
G1 X112.848 Y78.17 E1491.49538
G1 X114.681 Y77.872 E1491.61891
G1 X114.681 Y109.36 E1493.7135
G1 X114.932 Y109.177 E1493.73417
G1 X117.348 Y108.221 E1493.907
G1 X117.348 Y77.44 E1495.95456
G1 X120.015 Y77.008 E1496.13429
G1 X120.015 Y107.223 E1498.14419
G1 X122.682 Y106.886 E1498.32302
G1 X122.682 Y76.795 E1500.32468
G1 X125.033 Y76.701 E1500.48119
G1 X125.349 Y76.714 E1500.50223
G1 X125.349 Y106.636 E1502.49265
G1 X128.016 Y106.973 E1502.67147
G1 X128.016 Y76.823 E1504.67705
G1 F1500 E1498.17705
G0 F7200 X144.018 Y119.2
G1 F1500 E1504.67705
G1 F3600 X144.018 Y80.461 E1507.25398
G1 X144.915 Y80.76 E1507.31688
G1 X146.685 Y81.69 E1507.44988
G1 X146.685 Y173.304 E1513.54407
G1 X148.606 Y172.486 E1513.68296
G1 X149.352 Y172.015 E1513.74165
G1 X149.352 Y83.091 E1519.6569
G1 X152.019 Y84.491 E1519.85726
G1 X152.019 Y170.328 E1525.56716
G1 X154.686 Y168.641 E1525.77709
G1 X154.686 Y86.466 E1531.24339
G1 X157.353 Y88.471 E1531.46534
G1 X157.353 Y166.49 E1536.65519
G1 X160.02 Y164.127 E1536.89221
G1 X160.02 Y90.861 E1541.76589
G1 X162.687 Y93.637 E1542.02196
G1 X162.687 Y161.411 E1546.53031
G1 X165.354 Y158.143 E1546.8109
G1 X165.354 Y96.824 E1550.88985
G1 X168.021 Y100.687 E1551.20211
G1 X168.021 Y154.26 E1554.7658
G1 X170.688 Y149.639 E1555.12072
G1 X170.688 Y105.662 E1558.04608
G1 X172.504 Y109.488 E1558.3278
G1 X174.779 Y117.336 E1558.87134
G1 X175.758 Y125.451 E1559.41507
G1 X175.431 Y133.624 E1559.95917
G1 X173.797 Y141.636 E1560.50311
G1 X173.355 Y142.801 E1560.58599
G1 X173.355 Y112.424 E1562.60668
G1 F1500 E1556.10668
G0 F7200 X137.149 Y144.222
G0 X132.608 Y146.718
G0 X127.611 Y148.001
G0 X124.654 Y148.143
G0 X122.389 Y148.001
G0 X117.392 Y146.718
G0 X112.851 Y144.222
G0 X109.075 Y140.675
G0 X106.68 Y137.343
G1 F1500 E1562.60668
G1 F3600 X106.68 Y174.736 E1565.09407
G1 X104.013 Y173.601 E1565.28688
G1 X104.013 Y81.322 E1571.4253
G1 X101.346 Y82.723 E1571.6257
G1 X101.346 Y172.455 E1577.5947
G1 X98.679 Y170.768 E1577.80462
G1 X98.679 Y84.124 E1583.5682
G1 X97.849 Y84.56 E1583.63057
G1 X96.012 Y85.941 E1583.78344
G1 X96.012 Y169.081 E1589.31394
G1 X94.48 Y168.113 E1589.43449
G1 X93.345 Y167.107 E1589.53538
G1 X93.345 Y87.946 E1594.80119
G1 X91.31 Y89.476 E1594.97055
G1 X90.678 Y90.133 E1595.03119
G1 X90.678 Y164.744 E1599.99433
G1 X88.356 Y162.688 E1600.20064
G1 X88.011 Y162.265 E1600.23695
G1 X88.011 Y92.91 E1604.85046
G1 X85.654 Y95.364 E1605.0768
G1 X85.344 Y95.812 E1605.11304
G1 X85.344 Y158.997 E1609.31613
G1 X83.192 Y156.361 E1609.54249
G1 X82.677 Y155.468 E1609.61106
G1 X82.677 Y99.675 E1613.32243
G1 X81.002 Y102.101 E1613.51853
G1 X80.01 Y104.191 E1613.67243
G1 X80.01 Y150.847 E1616.776
G1 X79.104 Y149.278 E1616.89652
G1 X77.343 Y144.639 E1617.22659
G1 X77.343 Y110.015 E1619.52979
G1 X75.221 Y117.336 E1620.03683
G1 X74.242 Y125.451 E1620.58055
G1 X74.569 Y133.624 E1621.12466
G1 X74.676 Y134.148 E1621.16024
G1 X74.676 Y121.853 E1621.9781
G1 F1500 E1615.4781
;MESH:slotted_disk.stl
G0 F7200 X104.395 Y126.07
G0 X105.46 Y126.272
G0 X106.104 Y125.461
G0 X105.965 Y125.435
;TYPE:FILL
G1 F1500 E1621.9781
G1 F3600 X127.132 Y146.601 E1623.96932
G1 X127.202 Y146.671
G0 F7200 X127.19 Y146.461
G0 X128.905 Y146.054
G0 X128.938 Y146.187
G1 F3600 X143.827 Y131.297 E1625.37003
G1 X143.897 Y131.227
G0 F7200 X143.725 Y131.171
G0 X143.855 Y129.511
G0 X143.991 Y129.52
G1 F3600 X122.992 Y108.52 E1627.34553
G1 X122.922 Y108.45
G0 F7200 X122.948 Y108.666
G0 X121.13 Y108.896
G0 X121.113 Y108.756
G1 F3600 X106.329 Y123.541 E1628.73637
G1 X106.259 Y123.611
G0 F7200 X106.45 Y123.647
G0 X107.165 Y120.912
G0 X107.039 Y120.852
G1 F3600 X131.671 Y145.484 E1631.0536
G1 X131.741 Y145.554
G0 F7200 X131.687 Y145.34
G0 X135.334 Y143.436
G0 X135.4 Y143.556
G1 F3600 X108.885 Y117.041 E1633.54796
G1 X108.815 Y116.971
G0 F7200 X108.998 Y117.123
G0 X111.554 Y114.035
G0 X111.446 Y113.945
G1 F3600 X138.498 Y140.997 E1636.09285
G1 X138.568 Y141.067
G0 F7200 X138.408 Y140.896
G0 X140.906 Y137.79
G0 X141.021 Y137.863
G1 F3600 X114.614 Y111.456 E1638.57706
G1 X114.544 Y111.386
G0 F7200 X114.683 Y111.579
G0 X118.453 Y109.717
G0 X118.403 Y109.588
G1 F3600 X142.916 Y134.102 E1640.88314
G1 X142.986 Y134.172
G0 F7200 X142.772 Y134.103
G0 X143.895 Y125.46
G0 X144.032 Y125.435
G1 F3600 X122.866 Y146.602 E1642.87435
G1 X122.796 Y146.672
G0 F7200 X122.81 Y146.462
G0 X121.094 Y146.055
G0 X121.06 Y146.186
G1 F3600 X106.171 Y131.297 E1644.27502
G1 X106.101 Y131.227
G0 F7200 X106.276 Y131.172
G0 X106.146 Y129.511
G0 X106.008 Y129.519
G1 F3600 X127.007 Y108.519 E1646.25052
G1 X127.077 Y108.449
G0 F7200 X127.05 Y108.665
G0 X128.869 Y108.895
G0 X128.886 Y108.757
G1 F3600 X143.671 Y123.542 E1647.64141
G1 X143.741 Y123.612
G0 F7200 X143.549 Y123.647
G0 X142.834 Y120.91
G0 X142.958 Y120.853
G1 F3600 X118.326 Y145.485 E1649.95863
G1 X118.256 Y145.555
G0 F7200 X118.311 Y145.34
G0 X114.665 Y143.436
G0 X114.598 Y143.556
G1 F3600 X141.112 Y117.042 E1652.45291
G1 X141.182 Y116.972
G0 F7200 X141 Y117.121
G0 X138.444 Y114.033
G0 X138.551 Y113.946
G1 F3600 X111.5 Y140.997 E1654.9977
G1 X111.43 Y141.067
G0 F7200 X111.592 Y140.896
G0 X109.094 Y137.79
G0 X108.977 Y137.863
G1 F3600 X135.384 Y111.456 E1657.48191
G1 X135.454 Y111.386
G0 F7200 X135.314 Y111.577
G0 X131.544 Y109.715
G0 X131.595 Y109.588
G1 F3600 X107.082 Y134.101 E1659.78794
G1 X107.012 Y134.171
G0 F7200 X107.228 Y134.102
G0 X125.304 Y146.578
G0 X125.304 Y146.878
;TYPE:WALL-INNER
G1 F3600 X127.41 Y146.745 E1659.92831
G1 X132.142 Y145.53 E1660.2533
G1 X136.397 Y143.191 E1660.57629
G1 X139.946 Y139.86 E1660.90006
G1 X142.547 Y135.76 E1661.22305
G1 X144.05 Y131.132 E1661.54673
G1 X144.358 Y126.279 E1661.8702
G1 X143.445 Y121.51 E1662.1932
G1 X141.377 Y117.109 E1662.51667
G1 X138.271 Y113.355 E1662.84077
G1 X134.349 Y110.506 E1663.16324
G1 X129.824 Y108.714 E1663.48698
G1 X124.999 Y108.105 E1663.81049
G1 X120.176 Y108.714 E1664.13387
G1 X115.651 Y110.506 E1664.45762
G1 X111.729 Y113.355 E1664.78008
G1 X108.623 Y117.109 E1665.10419
G1 X106.555 Y121.51 E1665.42765
G1 X105.642 Y126.279 E1665.75065
G1 X105.95 Y131.132 E1666.07412
G1 X107.453 Y135.76 E1666.3978
G1 X110.054 Y139.86 E1666.72079
G1 X113.603 Y143.191 E1667.04457
G1 X117.858 Y145.53 E1667.36755
G1 X122.59 Y146.745 E1667.69254
G1 X124.696 Y146.879 E1667.83291
G1 X125.304 Y146.878 E1667.87336
G0 F7200 X125.317 Y147.278
;TYPE:WALL-OUTER
G1 F1800 X127.473 Y147.142 E1668.01706
G1 X132.29 Y145.905 E1668.34789
G1 X136.634 Y143.517 E1668.67763
G1 X140.256 Y140.117 E1669.00809
G1 X142.912 Y135.932 E1669.33781
G1 X144.446 Y131.208 E1669.66821
G1 X144.76 Y126.253 E1669.99847
G1 X143.829 Y121.386 E1670.3281
G1 X141.717 Y116.893 E1670.65835
G1 X138.547 Y113.061 E1670.98917
G1 X134.543 Y110.153 E1671.31835
G1 X129.924 Y108.324 E1671.64882
G1 X124.999 Y107.702 E1671.97903
G1 X120.076 Y108.324 E1672.30912
G1 X115.457 Y110.153 E1672.63958
G1 X111.453 Y113.061 E1672.96877
G1 X108.283 Y116.893 E1673.29959
G1 X106.171 Y121.386 E1673.62984
G1 X105.24 Y126.253 E1673.95946
G1 X105.554 Y131.208 E1674.28973
G1 X107.088 Y135.932 E1674.62012
G1 X109.744 Y140.117 E1674.94984
G1 X113.366 Y143.517 E1675.2803
G1 X117.71 Y145.905 E1675.61005
G1 X122.527 Y147.142 E1675.94087
G1 X124.684 Y147.279 E1676.08465
G1 X125.317 Y147.278 E1676.12675
G0 F7200 X125.516 Y147.266
G0 X125.456 Y146.268
G1 F1500 E1669.62675
;MESH:NOMESH
G0 F600 X125.456 Y146.268 Z1.9
G0 F7200 X125 Y107.922
G0 X125.136 Y106.846
G0 X128.016 Y76.823
;TIME_ELAPSED:910.940487
;LAYER:4
;TYPE:SUPPORT
G1 F1500 E1676.12675
G1 F3600 X129.114 Y76.867 E1676.19985
G1 X130.683 Y77.122 E1676.30559
G1 X130.683 Y107.441 E1678.32242
G1 X133.35 Y108.496 E1678.51321
G1 X133.35 Y77.554 E1680.57148
G1 X136.017 Y77.987 E1680.75121
G1 X136.017 Y109.866 E1682.87181
G1 X138.684 Y111.804 E1683.09111
G1 X138.684 Y78.682 E1685.2944
G1 X141.351 Y79.571 E1685.4814
G1 X141.351 Y114.724 E1687.81979
G1 X142.654 Y116.299 E1687.95576
G1 X144.018 Y119.2 E1688.16901
G1 X144.882 Y121.039 E1688.30417
G1 X145.867 Y126.195 E1688.65335
G1 X145.539 Y131.412 E1689.00107
G1 X144.018 Y136.092 E1689.32841
G1 X144.018 Y174.44 E1691.87933
G1 X141.351 Y175.575 E1692.07214
G1 X141.351 Y140.445 E1694.40899
G1 X141.108 Y140.828 E1694.43917
G1 X138.684 Y143.103 E1694.6603
G1 X138.684 Y176.279 E1696.86718
G1 X136.017 Y176.937 E1697.04991
G1 X136.017 Y145.11 E1699.16705
G1 X133.35 Y146.576 E1699.3695
G1 X133.35 Y177.594 E1701.43282
G1 X133.147 Y177.644 E1701.44673
G1 X130.683 Y177.844 E1701.61117
G1 X130.683 Y147.454 E1703.63273
G1 X128.016 Y148.139 E1703.81589
G1 X128.016 Y178.06 E1705.80625
G1 X125.349 Y178.276 E1705.98424
G1 X125.349 Y148.372 E1707.97346
G1 X124.51 Y148.371 E1708.02927
G1 X122.682 Y148.256 E1708.15111
G1 X122.682 Y178.116 E1710.1374
G1 X120.015 Y177.9 E1710.31539
G1 X120.015 Y147.634 E1712.3287
G1 X117.348 Y146.949 E1712.51186
G1 X117.348 Y177.684 E1714.55637
G1 X116.853 Y177.644 E1714.5894
G1 X114.681 Y177.108 E1714.73822
G1 X114.681 Y145.495 E1716.84112
G1 X112.707 Y144.409 E1716.99099
G1 X112.014 Y143.759 E1717.0542
G1 X112.014 Y176.45 E1719.22881
G1 X109.347 Y175.793 E1719.41152
G1 X109.347 Y141.256 E1721.70893
G1 X108.892 Y140.828 E1721.75049
G1 X106.68 Y137.343 E1722.02506
G1 X106.082 Y136.4 E1722.09934
G1 X104.461 Y131.412 E1722.44823
G1 X104.133 Y126.195 E1722.79595
G1 X105.117 Y121.043 E1723.14486
G1 X106.68 Y117.718 E1723.38925
G1 X106.68 Y80.227 E1725.88317
G1 X109.347 Y79.338 E1726.07017
G1 X109.347 Y113.881 E1728.36798
G1 X110.687 Y112.261 E1728.50783
G1 X112.014 Y111.297 E1728.61694
G1 X112.014 Y78.448 E1730.80206
G1 X112.848 Y78.17 E1730.86054
G1 X114.681 Y77.872 E1730.98407
G1 X114.681 Y109.36 E1733.07866
G1 X114.932 Y109.177 E1733.09933
G1 X117.348 Y108.221 E1733.27217
G1 X117.348 Y77.44 E1735.31973
G1 X120.015 Y77.008 E1735.49945
G1 X120.015 Y107.223 E1737.50936
G1 X122.682 Y106.886 E1737.68818
G1 X122.682 Y76.795 E1739.68984
G1 X125.033 Y76.701 E1739.84635
G1 X125.349 Y76.714 E1739.86739
G1 X125.349 Y106.636 E1741.85781
G1 X128.016 Y106.973 E1742.03663
G1 X128.016 Y76.823 E1744.04222
G1 F1500 E1737.54222
G0 F7200 X144.018 Y119.2
G1 F1500 E1744.04222
G1 F3600 X144.018 Y80.461 E1746.61915
G1 X144.915 Y80.76 E1746.68204
G1 X146.685 Y81.69 E1746.81505
G1 X146.685 Y173.304 E1752.90923
G1 X148.606 Y172.486 E1753.04812
G1 X149.352 Y172.015 E1753.10681
G1 X149.352 Y83.091 E1759.02206
G1 X152.019 Y84.491 E1759.22243
G1 X152.019 Y170.328 E1764.93233
G1 X154.686 Y168.641 E1765.14225
G1 X154.686 Y86.466 E1770.60855
G1 X157.353 Y88.471 E1770.8305
G1 X157.353 Y166.49 E1776.02035
G1 X160.02 Y164.127 E1776.25738
G1 X160.02 Y90.861 E1781.13105
G1 X162.687 Y93.637 E1781.38712
G1 X162.687 Y161.411 E1785.89547
G1 X165.354 Y158.143 E1786.17606
G1 X165.354 Y96.824 E1790.25502
G1 X168.021 Y100.687 E1790.56728
G1 X168.021 Y154.26 E1794.13097
G1 X170.688 Y149.639 E1794.48588
G1 X170.688 Y105.662 E1797.41124
G1 X172.504 Y109.488 E1797.69296
G1 X174.779 Y117.336 E1798.23651
G1 X175.758 Y125.451 E1798.78023
G1 X175.431 Y133.624 E1799.32434
G1 X173.797 Y141.636 E1799.86827
G1 X173.355 Y142.801 E1799.95115
G1 X173.355 Y112.424 E1801.97184
G1 F1500 E1795.47184
G0 F7200 X137.149 Y144.222
G0 X132.608 Y146.718
G0 X127.611 Y148.001
G0 X125.448 Y148.136
G0 X124.554 Y148.137
G0 X122.389 Y148.001
G0 X117.392 Y146.718
G0 X112.851 Y144.222
G0 X109.075 Y140.675
G0 X106.68 Y137.343
G1 F1500 E1801.97184
G1 F3600 X106.68 Y174.736 E1804.45923
G1 X104.013 Y173.601 E1804.65204
G1 X104.013 Y81.322 E1810.79046
G1 X101.346 Y82.723 E1810.99086
G1 X101.346 Y172.455 E1816.95986
G1 X98.679 Y170.768 E1817.16978
G1 X98.679 Y84.124 E1822.93336
G1 X97.849 Y84.56 E1822.99573
G1 X96.012 Y85.941 E1823.14861
G1 X96.012 Y169.081 E1828.6791
G1 X94.48 Y168.113 E1828.79965
G1 X93.345 Y167.107 E1828.90054
G1 X93.345 Y87.946 E1834.16635
G1 X91.31 Y89.476 E1834.33571
G1 X90.678 Y90.133 E1834.39635
G1 X90.678 Y164.744 E1839.3595
G1 X88.356 Y162.688 E1839.5658
G1 X88.011 Y162.265 E1839.60211
G1 X88.011 Y92.91 E1844.21563
G1 X85.654 Y95.364 E1844.44197
G1 X85.344 Y95.812 E1844.47821
G1 X85.344 Y158.997 E1848.68129
G1 X83.192 Y156.361 E1848.90765
G1 X82.677 Y155.468 E1848.97622
G1 X82.677 Y99.675 E1852.68759
G1 X81.002 Y102.101 E1852.8837
G1 X80.01 Y104.191 E1853.03759
G1 X80.01 Y150.847 E1856.14116
G1 X79.104 Y149.278 E1856.26168
G1 X77.343 Y144.639 E1856.59175
G1 X77.343 Y110.015 E1858.89495
G1 X75.221 Y117.336 E1859.40199
G1 X74.242 Y125.451 E1859.94572
G1 X74.569 Y133.624 E1860.48982
G1 X74.676 Y134.148 E1860.5254
G1 X74.676 Y121.853 E1861.34326
G1 F1500 E1854.84326
;MESH:slotted_disk.stl
G0 F7200 X104.395 Y126.07
G0 X105.46 Y126.272
G0 X106.104 Y125.461
G0 X105.965 Y125.435
;TYPE:FILL
G1 F1500 E1861.34326
G1 F3600 X127.132 Y146.601 E1863.33448
G1 X127.202 Y146.671
G0 F7200 X127.19 Y146.461
G0 X128.905 Y146.054
G0 X128.938 Y146.187
G1 F3600 X143.827 Y131.297 E1864.73519
G1 X143.897 Y131.227
G0 F7200 X143.725 Y131.171
G0 X143.855 Y129.511
G0 X143.991 Y129.52
G1 F3600 X122.992 Y108.52 E1866.7107
G1 X122.922 Y108.45
G0 F7200 X122.948 Y108.666
G0 X121.13 Y108.896
G0 X121.113 Y108.756
G1 F3600 X106.329 Y123.541 E1868.10153
G1 X106.259 Y123.611
G0 F7200 X106.45 Y123.647
G0 X107.165 Y120.912
G0 X107.039 Y120.852
G1 F3600 X131.671 Y145.484 E1870.41876
G1 X131.741 Y145.554
G0 F7200 X131.687 Y145.34
G0 X135.334 Y143.436
G0 X135.4 Y143.556
G1 F3600 X108.885 Y117.041 E1872.91313
G1 X108.815 Y116.971
G0 F7200 X108.998 Y117.123
G0 X111.554 Y114.035
G0 X111.446 Y113.945
G1 F3600 X138.498 Y140.997 E1875.45801
G1 X138.568 Y141.067
G0 F7200 X138.408 Y140.896
G0 X140.906 Y137.79
G0 X141.021 Y137.863
G1 F3600 X114.614 Y111.456 E1877.94222
G1 X114.544 Y111.386
G0 F7200 X114.683 Y111.579
G0 X118.453 Y109.717
G0 X118.403 Y109.588
G1 F3600 X142.916 Y134.102 E1880.2483
G1 X142.986 Y134.172
G0 F7200 X142.772 Y134.103
G0 X143.895 Y125.46
G0 X144.032 Y125.435
G1 F3600 X122.866 Y146.602 E1882.23952
G1 X122.796 Y146.672
G0 F7200 X122.81 Y146.462
G0 X121.094 Y146.055
G0 X121.06 Y146.186
G1 F3600 X106.171 Y131.297 E1883.64018
G1 X106.101 Y131.227
G0 F7200 X106.276 Y131.172
G0 X106.146 Y129.511
G0 X106.008 Y129.519
G1 F3600 X127.007 Y108.519 E1885.61569
G1 X127.077 Y108.449
G0 F7200 X127.05 Y108.665
G0 X128.869 Y108.895
G0 X128.886 Y108.757
G1 F3600 X143.671 Y123.542 E1887.00657
G1 X143.741 Y123.612
G0 F7200 X143.549 Y123.647
G0 X142.834 Y120.91
G0 X142.958 Y120.853
G1 F3600 X118.326 Y145.485 E1889.3238
G1 X118.256 Y145.555
G0 F7200 X118.311 Y145.34
G0 X114.665 Y143.436
G0 X114.598 Y143.556
G1 F3600 X141.112 Y117.042 E1891.81807
G1 X141.182 Y116.972
G0 F7200 X141 Y117.121
G0 X138.444 Y114.033
G0 X138.551 Y113.946
G1 F3600 X111.5 Y140.997 E1894.36286
G1 X111.43 Y141.067
G0 F7200 X111.592 Y140.896
G0 X109.094 Y137.79
G0 X108.977 Y137.863
G1 F3600 X135.384 Y111.456 E1896.84707
G1 X135.454 Y111.386
G0 F7200 X135.314 Y111.577
G0 X131.544 Y109.715
G0 X131.595 Y109.588
G1 F3600 X107.082 Y134.101 E1899.1531
G1 X107.012 Y134.171
G0 F7200 X107.228 Y134.102
G0 X125.404 Y146.572
G0 X125.404 Y146.872
;TYPE:WALL-INNER
G1 F3600 X127.41 Y146.745 E1899.28681
G1 X132.142 Y145.53 E1899.6118
G1 X136.397 Y143.191 E1899.93478
G1 X139.946 Y139.86 E1900.25856
G1 X142.547 Y135.76 E1900.58155
G1 X144.05 Y131.132 E1900.90523
G1 X144.358 Y126.279 E1901.2287
G1 X143.445 Y121.51 E1901.5517
G1 X141.377 Y117.109 E1901.87516
G1 X138.271 Y113.355 E1902.19927
G1 X134.349 Y110.506 E1902.52173
G1 X129.824 Y108.714 E1902.84548
G1 X124.999 Y108.105 E1903.16899
G1 X120.176 Y108.714 E1903.49237
G1 X115.651 Y110.506 E1903.81611
G1 X111.729 Y113.355 E1904.13858
G1 X108.623 Y117.109 E1904.46268
G1 X106.555 Y121.51 E1904.78615
G1 X105.642 Y126.279 E1905.10915
G1 X105.95 Y131.132 E1905.43262
G1 X107.453 Y135.76 E1905.7563
G1 X110.054 Y139.86 E1906.07929
G1 X113.603 Y143.191 E1906.40306
G1 X117.858 Y145.53 E1906.72605
G1 X122.59 Y146.745 E1907.05104
G1 X124.596 Y146.872 E1907.18474
G1 X125.404 Y146.872 E1907.23849
G0 F7200 X125.417 Y147.272
;TYPE:WALL-OUTER
G1 F1800 X127.473 Y147.142 E1907.37553
G1 X132.29 Y145.905 E1907.70636
G1 X136.634 Y143.517 E1908.0361
G1 X140.256 Y140.117 E1908.36656
G1 X142.912 Y135.932 E1908.69628
G1 X144.446 Y131.208 E1909.02668
G1 X144.76 Y126.253 E1909.35695
G1 X143.829 Y121.386 E1909.68657
G1 X141.717 Y116.893 E1910.01682
G1 X138.547 Y113.061 E1910.34764
G1 X134.543 Y110.153 E1910.67682
G1 X129.924 Y108.324 E1911.00729
G1 X124.999 Y107.702 E1911.3375
G1 X120.076 Y108.324 E1911.66759
G1 X115.457 Y110.153 E1911.99806
G1 X111.453 Y113.061 E1912.32724
G1 X108.283 Y116.893 E1912.65806
G1 X106.171 Y121.386 E1912.98831
G1 X105.24 Y126.253 E1913.31793
G1 X105.554 Y131.208 E1913.6482
G1 X107.088 Y135.932 E1913.97859
G1 X109.744 Y140.117 E1914.30831
G1 X113.366 Y143.517 E1914.63877
G1 X117.71 Y145.905 E1914.96852
G1 X122.527 Y147.142 E1915.29934
G1 X124.584 Y147.272 E1915.43645
G1 X125.417 Y147.272 E1915.49186
G0 F7200 X125.616 Y147.26
G0 X125.556 Y146.262
G1 F1500 E1908.99186
;MESH:NOMESH
G0 F600 X125.556 Y146.262 Z2.3
G0 F7200 X125 Y107.922
G0 X125.136 Y106.846
G0 X128.016 Y76.823
;TIME_ELAPSED:979.696444
;LAYER:5
;TYPE:SUPPORT
G1 F1500 E1915.49186
G1 F3600 X129.114 Y76.867 E1915.56496
G1 X130.683 Y77.122 E1915.6707
G1 X130.683 Y107.441 E1917.68753
G1 X133.35 Y108.496 E1917.87831
